(01 - 6MM END MILL)
(T44  D=6 CR=0 - ZMIN=-0.45 - FLAT END MILL)
G90 G94 G91.1 G40 G49 G17
G21

(2D POCKET1)
M5
M9
T44
(SPIRAL)
S10000 M3
G54
M8
G0 X-74.078 Y200.661
G43 Z15 H1
Z5
G1 Z1.098 F300
G3 X-74.098 Y200.644 Z0.922 I1.858 J-2.161 F600
X-74.155 Y200.593 Z0.762 I1.878 J-2.144
X-74.241 Y200.51 Z0.631 I1.935 J-2.093
X-74.346 Y200.398 Z0.541 I2.021 J-2.01
X-74.457 Y200.266 Z0.5 I2.126 J-1.898
X-69.984 Y196.734 Z-0.283 I2.237 J-1.766
X-69.37 Y198.5 Z-0.45 I-2.237 J1.766
X-69.565 Y198.695 I-0.195 J0 F1500
G1 X-88.52
G3 X-88.695 Y198.52 I0 J-0.175
G1 Y198.48
G3 X-88.52 Y198.305 I0.175 J0
G1 X-69.565
G3 X-69.37 Y198.5 I0 J0.195
G2 X-68.694 Y199.447 I1.002 J0
G3 X-68.886 Y200.595 I-0.192 J0.558
G1 X-90.276
G3 X-90.595 Y200.276 I0 J-0.319
G1 Y196.724
G3 X-90.276 Y196.405 I0.319 J0
G1 X-67.724
G3 X-67.405 Y196.724 I0 J0.319
G1 Y200.276
G3 X-67.724 Y200.595 I-0.319 J0
G1 X-68.886
G2 X-70.311 Y201.545 I0 J1.544
G3 X-71.736 Y202.495 I-1.425 J-0.594
G1 X-92.176
G3 X-92.495 Y202.176 I0 J-0.319
G1 Y194.824
G3 X-92.176 Y194.505 I0.319 J0
G1 X-65.824
G3 X-65.505 Y194.824 I0 J0.319
G1 Y202.176
G3 X-65.824 Y202.495 I-0.319 J0
G1 X-71.736
G2 X-73.161 Y203.445 I0 J1.544
G3 X-74.586 Y204.395 I-1.425 J-0.594
G1 X-94.076
G3 X-94.395 Y204.076 I0 J-0.319
G1 Y192.924
G3 X-94.076 Y192.605 I0.319 J0
G1 X-63.924
G3 X-63.605 Y192.924 I0 J0.319
G1 Y204.076
G3 X-63.924 Y204.395 I-0.319 J0
G1 X-74.586
G2 X-76.011 Y205.345 I0 J1.544
G3 X-77.436 Y206.295 I-1.425 J-0.594
G1 X-95.976
G3 X-96.295 Y205.976 I0 J-0.319
G1 Y191.024
G3 X-95.976 Y190.705 I0.319 J0
G1 X-62.024
G3 X-61.705 Y191.024 I0 J0.319
G1 Y205.976
G3 X-62.024 Y206.295 I-0.319 J0
G1 X-77.436
G2 X-78.861 Y207.245 I0 J1.544
G3 X-80.286 Y208.195 I-1.425 J-0.594
G1 X-97.876
G3 X-98.195 Y207.876 I0 J-0.319
G1 Y189.124
G3 X-97.876 Y188.805 I0.319 J0
G1 X-60.124
G3 X-59.805 Y189.124 I0 J0.319
G1 Y207.876
G3 X-60.124 Y208.195 I-0.319 J0
G1 X-80.286
G2 X-81.711 Y209.145 I0 J1.544
G3 X-83.136 Y210.095 I-1.425 J-0.594
G1 X-99.776
G3 X-100.095 Y209.776 I0 J-0.319
G1 Y187.224
G3 X-99.776 Y186.905 I0.319 J0
G1 X-58.224
G3 X-57.905 Y187.224 I0 J0.319
G1 Y209.776
G3 X-58.224 Y210.095 I-0.319 J0
G1 X-83.136
G2 X-84.561 Y211.045 I0 J1.544
G3 X-85.986 Y211.995 I-1.425 J-0.594
G1 X-101.676
G3 X-101.995 Y211.676 I0 J-0.319
G1 Y185.324
G3 X-101.676 Y185.005 I0.319 J0
G1 X-56.324
G3 X-56.005 Y185.324 I0 J0.319
G1 Y211.676
G3 X-56.324 Y211.995 I-0.319 J0
G1 X-85.986
G2 X-87.411 Y212.945 I0 J1.544
G3 X-88.836 Y213.895 I-1.425 J-0.594
G1 X-103.576
G3 X-103.895 Y213.576 I0 J-0.319
G1 Y183.424
G3 X-103.576 Y183.105 I0.319 J0
G1 X-54.424
G3 X-54.105 Y183.424 I0 J0.319
G1 Y213.576
G3 X-54.424 Y213.895 I-0.319 J0
G1 X-88.836
G2 X-90.261 Y214.845 I0 J1.544
G3 X-91.686 Y215.795 I-1.425 J-0.594
G1 X-105.476
G3 X-105.795 Y215.476 I0 J-0.319
G1 Y181.524
G3 X-105.476 Y181.205 I0.319 J0
G1 X-52.524
G3 X-52.205 Y181.524 I0 J0.319
G1 Y215.476
G3 X-52.524 Y215.795 I-0.319 J0
G1 X-91.686
G2 X-93.111 Y216.745 I0 J1.544
G3 X-94.536 Y217.695 I-1.425 J-0.594
G1 X-107.376
G3 X-107.695 Y217.376 I0 J-0.319
G1 Y179.624
G3 X-107.376 Y179.305 I0.319 J0
G1 X-50.624
G3 X-50.305 Y179.624 I0 J0.319
G1 Y217.376
G3 X-50.624 Y217.695 I-0.319 J0
G1 X-94.536
G2 X-95.961 Y218.645 I0 J1.544
G3 X-97.386 Y219.595 I-1.425 J-0.594
G1 X-109.276
G3 X-109.595 Y219.276 I0 J-0.319
G1 Y177.724
G3 X-109.276 Y177.405 I0.319 J0
G1 X-48.724
G3 X-48.405 Y177.724 I0 J0.319
G1 Y219.276
G3 X-48.724 Y219.595 I-0.319 J0
G1 X-97.386
G2 X-98.811 Y220.545 I0 J1.544
G3 X-100.236 Y221.495 I-1.425 J-0.594
G1 X-111.176
G3 X-111.495 Y221.176 I0 J-0.319
G1 Y175.824
G3 X-111.176 Y175.505 I0.319 J0
G1 X-46.824
G3 X-46.505 Y175.824 I0 J0.319
G1 Y221.176
G3 X-46.824 Y221.495 I-0.319 J0
G1 X-100.236
G2 X-101.661 Y222.445 I0 J1.544
G3 X-103.086 Y223.395 I-1.425 J-0.594
G1 X-113.076
G3 X-113.395 Y223.076 I0 J-0.319
G1 Y173.924
G3 X-113.076 Y173.605 I0.319 J0
G1 X-44.924
G3 X-44.605 Y173.924 I0 J0.319
G1 Y223.076
G3 X-44.924 Y223.395 I-0.319 J0
G1 X-103.086
G2 X-104.511 Y224.345 I0 J1.544
G3 X-105.936 Y225.295 I-1.425 J-0.594
G1 X-114.976
G3 X-115.295 Y224.976 I0 J-0.319
G1 Y172.024
G3 X-114.976 Y171.705 I0.319 J0
G1 X-43.024
G3 X-42.705 Y172.024 I0 J0.319
G1 Y224.976
G3 X-43.024 Y225.295 I-0.319 J0
G1 X-105.936
G2 X-107.361 Y226.245 I0 J1.544
G3 X-108.786 Y227.195 I-1.425 J-0.594
G1 X-116.876
G3 X-117.195 Y226.876 I0 J-0.319
G1 X-117.196 Y170.121
G3 X-116.875 Y169.805 I0.321 J0.005
G1 X-41.124
G3 X-40.805 Y170.124 I0 J0.319
G1 Y226.876
G3 X-41.124 Y227.195 I-0.319 J0
G1 X-108.786
G2 X-110.211 Y228.145 I0 J1.544
G3 X-111.636 Y229.095 I-1.425 J-0.594
G1 X-118.776
G3 X-119.095 Y228.776 I0 J-0.319
G1 Y168.224
G3 X-118.776 Y167.905 I0.319 J0
G1 X-39.224
G3 X-38.905 Y168.224 I0 J0.319
G1 Y228.776
G3 X-39.224 Y229.095 I-0.319 J0
G1 X-111.636
G2 X-113.065 Y230.048 I0 J1.548
G3 X-114.494 Y231 I-1.429 J-0.595
G1 X-119.757
G2 X-121.879 Y231.879 I0 J3
X-121 Y229.757 I-2.121 J-2.122
G1 Y171
G2 X-121.036 Y170.536 I-3 J0
X-121 Y170 I-3.964 J-0.536
G1 Y166
X-38.243
G2 X-36.121 Y165.121 I0 J-3
X-37 Y167.243 I2.121 J2.121
G1 Y229.757
G2 X-36.121 Y231.879 I3 J0
X-38.243 Y231 I-2.121 J2.121
G1 X-114.494
G3 X-114.676 Y230.972 Z-0.421 I0 J-0.6 F600
X-114.826 Y230.899 Z-0.335 I0.182 J-0.572
X-114.928 Y230.814 Z-0.203 I0.333 J-0.499
X-114.982 Y230.748 Z-0.035 I0.434 J-0.414
X-114.999 Y230.724 Z0.15 I0.488 J-0.348
G0 Z5
X-77.339 Y61.013
G1 Z1.098 F300
G3 X-77.356 Y61.033 Z0.922 I-2.161 J-1.858 F600
X-77.407 Y61.09 Z0.762 I-2.144 J-1.878
X-77.49 Y61.176 Z0.631 I-2.093 J-1.935
X-77.602 Y61.281 Z0.541 I-2.01 J-2.021
X-77.734 Y61.392 Z0.5 I-1.898 J-2.126
X-81.266 Y56.918 Z-0.283 I-1.766 J-2.237
X-79.5 Y56.305 Z-0.45 I1.766 J2.237
G1 X-60.48 F1500
G3 X-60.305 Y56.48 I0 J0.175
G1 Y56.52
G3 X-60.48 Y56.695 I-0.175 J0
G1 X-79.52
G3 X-79.695 Y56.52 I0 J-0.175
G1 Y56.48
G3 X-79.52 Y56.305 I0.175 J0
G1 X-79.5
G2 X-78.075 Y55.355 I0 J-1.544
G3 X-76.65 Y54.405 I1.425 J0.594
G1 X-58.724
G3 X-58.405 Y54.724 I0 J0.319
G1 Y58.276
G3 X-58.724 Y58.595 I-0.319 J0
G1 X-81.276
G3 X-81.595 Y58.276 I0 J-0.319
G1 Y54.724
G3 X-81.276 Y54.405 I0.319 J0
G1 X-76.65
G2 X-75.225 Y53.455 I0 J-1.544
G3 X-73.8 Y52.505 I1.425 J0.594
G1 X-56.824
G3 X-56.505 Y52.824 I0 J0.319
G1 Y60.176
G3 X-56.824 Y60.495 I-0.319 J0
G1 X-83.176
G3 X-83.495 Y60.176 I0 J-0.319
G1 Y52.824
G3 X-83.176 Y52.505 I0.319 J0
G1 X-73.8
G2 X-72.375 Y51.555 I0 J-1.544
G3 X-70.95 Y50.605 I1.425 J0.594
G1 X-54.924
G3 X-54.605 Y50.924 I0 J0.319
G1 Y62.076
G3 X-54.924 Y62.395 I-0.319 J0
G1 X-85.076
G3 X-85.395 Y62.076 I0 J-0.319
G1 Y50.924
G3 X-85.076 Y50.605 I0.319 J0
G1 X-70.95
G2 X-69.525 Y49.655 I0 J-1.544
G3 X-68.1 Y48.705 I1.425 J0.594
G1 X-53.024
G3 X-52.705 Y49.024 I0 J0.319
G1 Y63.976
G3 X-53.024 Y64.295 I-0.319 J0
G1 X-86.976
G3 X-87.295 Y63.976 I0 J-0.319
G1 Y49.024
G3 X-86.976 Y48.705 I0.319 J0
G1 X-68.1
G2 X-66.675 Y47.755 I0 J-1.544
G3 X-65.25 Y46.805 I1.425 J0.594
G1 X-51.124
G3 X-50.805 Y47.124 I0 J0.319
G1 Y65.876
G3 X-51.124 Y66.195 I-0.319 J0
G1 X-88.876
G3 X-89.195 Y65.876 I0 J-0.319
G1 Y47.124
G3 X-88.876 Y46.805 I0.319 J0
G1 X-65.25
G2 X-63.825 Y45.855 I0 J-1.544
G3 X-62.4 Y44.905 I1.425 J0.594
G1 X-49.224
G3 X-48.905 Y45.224 I0 J0.319
G1 Y67.776
G3 X-49.224 Y68.095 I-0.319 J0
G1 X-90.776
G3 X-91.095 Y67.776 I0 J-0.319
G1 Y45.224
G3 X-90.776 Y44.905 I0.319 J0
G1 X-62.4
G2 X-60.975 Y43.955 I0 J-1.544
G3 X-59.55 Y43.005 I1.425 J0.594
G1 X-47.324
G3 X-47.005 Y43.324 I0 J0.319
G1 Y69.676
G3 X-47.324 Y69.995 I-0.319 J0
G1 X-92.676
G3 X-92.995 Y69.676 I0 J-0.319
G1 Y43.324
G3 X-92.676 Y43.005 I0.319 J0
G1 X-59.55
G2 X-58.125 Y42.055 I0 J-1.544
G3 X-56.7 Y41.105 I1.425 J0.594
G1 X-45.424
G3 X-45.105 Y41.424 I0 J0.319
G1 Y71.576
G3 X-45.424 Y71.895 I-0.319 J0
G1 X-94.576
G3 X-94.895 Y71.576 I0 J-0.319
G1 Y41.424
G3 X-94.576 Y41.105 I0.319 J0
G1 X-56.7
G2 X-55.275 Y40.155 I0 J-1.544
G3 X-53.85 Y39.205 I1.425 J0.594
G1 X-43.524
G3 X-43.205 Y39.524 I0 J0.319
G1 Y73.476
G3 X-43.524 Y73.795 I-0.319 J0
G1 X-96.476
G3 X-96.795 Y73.476 I0 J-0.319
G1 Y39.524
G3 X-96.476 Y39.205 I0.319 J0
G1 X-53.85
G2 X-52.425 Y38.255 I0 J-1.544
G3 X-51 Y37.305 I1.425 J0.594
G1 X-41.624
G3 X-41.305 Y37.624 I0 J0.319
G1 Y75.376
G3 X-41.624 Y75.695 I-0.319 J0
G1 X-98.376
G3 X-98.695 Y75.376 I0 J-0.319
G1 Y37.624
G3 X-98.376 Y37.305 I0.319 J0
G1 X-51
G2 X-49.575 Y36.355 I0 J-1.544
G3 X-48.15 Y35.405 I1.425 J0.594
G1 X-39.724
G3 X-39.405 Y35.724 I0 J0.319
G1 Y77.276
G3 X-39.724 Y77.595 I-0.319 J0
G1 X-100.276
G3 X-100.595 Y77.276 I0 J-0.319
G1 Y35.724
G3 X-100.276 Y35.405 I0.319 J0
G1 X-48.15
G2 X-46.725 Y34.455 I0 J-1.544
G3 X-45.3 Y33.505 I1.425 J0.594
G1 X-37.824
G3 X-37.505 Y33.824 I0 J0.319
G1 Y79.176
G3 X-37.824 Y79.495 I-0.319 J0
G1 X-102.176
G3 X-102.495 Y79.176 I0 J-0.319
G1 Y33.824
G3 X-102.176 Y33.505 I0.319 J0
G1 X-45.3
G2 X-43.875 Y32.555 I0 J-1.544
G3 X-42.45 Y31.605 I1.425 J0.594
G1 X-35.924
G3 X-35.605 Y31.924 I0 J0.319
G1 Y81.076
G3 X-35.924 Y81.395 I-0.319 J0
G1 X-104.076
G3 X-104.395 Y81.076 I0 J-0.319
G1 Y31.924
G3 X-104.076 Y31.605 I0.319 J0
G1 X-42.45
G2 X-41.025 Y30.655 I0 J-1.544
G3 X-39.6 Y29.705 I1.425 J0.594
G1 X-34.024
G3 X-33.705 Y30.024 I0 J0.319
G1 Y82.976
G3 X-34.024 Y83.295 I-0.319 J0
G1 X-105.976
G3 X-106.295 Y82.976 I0 J-0.319
G1 Y30.024
G3 X-105.976 Y29.705 I0.319 J0
G1 X-39.6
G2 X-38.175 Y28.755 I0 J-1.544
G3 X-36.75 Y27.805 I1.425 J0.594
G1 X-32.124
G3 X-31.805 Y28.124 I0 J0.319
G1 Y84.876
G3 X-32.124 Y85.195 I-0.319 J0
G1 X-107.876
G3 X-108.195 Y84.876 I0 J-0.319
G1 X-108.196 Y28.121
G3 X-107.875 Y27.805 I0.321 J0.005
G1 X-36.75
G2 X-35.325 Y26.855 I0 J-1.544
G3 X-33.9 Y25.905 I1.425 J0.594
G1 X-30.224
G3 X-29.905 Y26.224 I0 J0.319
G1 Y86.776
G3 X-30.224 Y87.095 I-0.319 J0
G1 X-109.776
G3 X-110.095 Y86.776 I0 J-0.319
G1 Y26.224
G3 X-109.776 Y25.905 I0.319 J0
G1 X-33.9
G2 X-32.471 Y24.952 I0 J-1.548
G3 X-31.042 Y24 I1.429 J0.595
G1 X-29.243
G2 X-27.131 Y23.131 I0 J-3
X-28 Y25.243 I2.131 J2.112
G1 Y87.757
G2 X-27.131 Y89.869 I3 J0
X-29.243 Y89 I-2.112 J2.131
G1 X-110.757
G2 X-112.879 Y89.879 I0 J3
X-112 Y87.757 I-2.121 J-2.121
G1 Y29
G2 X-112.036 Y28.536 I-3 J0
X-112 Y28 I-3.964 J-0.536
G1 Y24
X-31.042
G3 X-30.86 Y24.028 Z-0.421 I0 J0.6 F600
X-30.71 Y24.101 Z-0.335 I-0.182 J0.572
X-30.608 Y24.186 Z-0.203 I-0.333 J0.499
X-30.554 Y24.252 Z-0.035 I-0.434 J0.414
X-30.538 Y24.276 Z0.15 I-0.488 J0.348
G0 Z15

M9
M30
