(01 - 6MM END MILL)
(T20  D=2 CR=0 - ZMIN=-2.9 - FLAT END MILL)
G90 G94 G91.1 G40 G49 G17
G21

(SLOTS)
M5
M9
T20
(2 FLUTE FISH)
S10000 M3
G54
M8
G0 X-132.75 Y203
G43 Z15 H1
Z5
G1 Z0.5 F240
Y206 Z0.256 F1000
Y203 Z0.013
Y206 Z-0.231
Y203 Z-0.475
Y206 Z-0.719
Y203 Z-0.962
Y206 Z-1.206
Y203 Z-1.45
Y206
Y203 Z-1.692
Y206 Z-1.933
Y203 Z-2.175
Y206 Z-2.417
Y203 Z-2.658
Y206 Z-2.9
Y203
G0 Z5
X-127.25
G1 Z0.5 F240
Y206 Z0.256 F1000
Y203 Z0.013
Y206 Z-0.231
Y203 Z-0.475
Y206 Z-0.719
Y203 Z-0.962
Y206 Z-1.206
Y203 Z-1.45
Y206
Y203 Z-1.692
Y206 Z-1.933
Y203 Z-2.175
Y206 Z-2.417
Y203 Z-2.658
Y206 Z-2.9
Y203
G0 Z5
Y188
G1 Z0.5 F240
Y191 Z0.256 F1000
Y188 Z0.013
Y191 Z-0.231
Y188 Z-0.475
Y191 Z-0.719
Y188 Z-0.962
Y191 Z-1.206
Y188 Z-1.45
Y191
Y188 Z-1.692
Y191 Z-1.933
Y188 Z-2.175
Y191 Z-2.417
Y188 Z-2.658
Y191 Z-2.9
Y188
G0 Z5
X-132.75
G1 Z0.5 F240
Y191 Z0.256 F1000
Y188 Z0.013
Y191 Z-0.231
Y188 Z-0.475
Y191 Z-0.719
Y188 Z-0.962
Y191 Z-1.206
Y188 Z-1.45
Y191
Y188 Z-1.692
Y191 Z-1.933
Y188 Z-2.175
Y191 Z-2.417
Y188 Z-2.658
Y191 Z-2.9
Y188
G0 Z5
Y173
G1 Z0.5 F240
Y176 Z0.256 F1000
Y173 Z0.013
Y176 Z-0.231
Y173 Z-0.475
Y176 Z-0.719
Y173 Z-0.962
Y176 Z-1.206
Y173 Z-1.45
Y176
Y173 Z-1.692
Y176 Z-1.933
Y173 Z-2.175
Y176 Z-2.417
Y173 Z-2.658
Y176 Z-2.9
Y173
G0 Z5
X-127.25
G1 Z0.5 F240
Y176 Z0.256 F1000
Y173 Z0.013
Y176 Z-0.231
Y173 Z-0.475
Y176 Z-0.719
Y173 Z-0.962
Y176 Z-1.206
Y173 Z-1.45
Y176
Y173 Z-1.692
Y176 Z-1.933
Y173 Z-2.175
Y176 Z-2.417
Y173 Z-2.658
Y176 Z-2.9
Y173
G0 Z5
Y158
G1 Z0.5 F240
Y161 Z0.256 F1000
Y158 Z0.013
Y161 Z-0.231
Y158 Z-0.475
Y161 Z-0.719
Y158 Z-0.962
Y161 Z-1.206
Y158 Z-1.45
Y161
Y158 Z-1.692
Y161 Z-1.933
Y158 Z-2.175
Y161 Z-2.417
Y158 Z-2.658
Y161 Z-2.9
Y158
G0 Z5
X-132.75
G1 Z0.5 F240
Y161 Z0.256 F1000
Y158 Z0.013
Y161 Z-0.231
Y158 Z-0.475
Y161 Z-0.719
Y158 Z-0.962
Y161 Z-1.206
Y158 Z-1.45
Y161
Y158 Z-1.692
Y161 Z-1.933
Y158 Z-2.175
Y161 Z-2.417
Y158 Z-2.658
Y161 Z-2.9
Y158
G0 Z5
X-14.75 Y61
G1 Z0.5 F240
Y64 Z0.256 F1000
Y61 Z0.013
Y64 Z-0.231
Y61 Z-0.475
Y64 Z-0.719
Y61 Z-0.962
Y64 Z-1.206
Y61 Z-1.45
Y64
Y61 Z-1.692
Y64 Z-1.933
Y61 Z-2.175
Y64 Z-2.417
Y61 Z-2.658
Y64 Z-2.9
Y61
G0 Z5
X-9.25
G1 Z0.5 F240
Y64 Z0.256 F1000
Y61 Z0.013
Y64 Z-0.231
Y61 Z-0.475
Y64 Z-0.719
Y61 Z-0.962
Y64 Z-1.206
Y61 Z-1.45
Y64
Y61 Z-1.692
Y64 Z-1.933
Y61 Z-2.175
Y64 Z-2.417
Y61 Z-2.658
Y64 Z-2.9
Y61
G0 Z5
Y46
G1 Z0.5 F240
Y49 Z0.256 F1000
Y46 Z0.013
Y49 Z-0.231
Y46 Z-0.475
Y49 Z-0.719
Y46 Z-0.962
Y49 Z-1.206
Y46 Z-1.45
Y49
Y46 Z-1.692
Y49 Z-1.933
Y46 Z-2.175
Y49 Z-2.417
Y46 Z-2.658
Y49 Z-2.9
Y46
G0 Z5
X-14.75
G1 Z0.5 F240
Y49 Z0.256 F1000
Y46 Z0.013
Y49 Z-0.231
Y46 Z-0.475
Y49 Z-0.719
Y46 Z-0.962
Y49 Z-1.206
Y46 Z-1.45
Y49
Y46 Z-1.692
Y49 Z-1.933
Y46 Z-2.175
Y49 Z-2.417
Y46 Z-2.658
Y49 Z-2.9
Y46
G0 Z5
Y31
G1 Z0.5 F240
Y34 Z0.256 F1000
Y31 Z0.013
Y34 Z-0.231
Y31 Z-0.475
Y34 Z-0.719
Y31 Z-0.962
Y34 Z-1.206
Y31 Z-1.45
Y34
Y31 Z-1.692
Y34 Z-1.933
Y31 Z-2.175
Y34 Z-2.417
Y31 Z-2.658
Y34 Z-2.9
Y31
G0 Z5
X-9.25
G1 Z0.5 F240
Y34 Z0.256 F1000
Y31 Z0.013
Y34 Z-0.231
Y31 Z-0.475
Y34 Z-0.719
Y31 Z-0.962
Y34 Z-1.206
Y31 Z-1.45
Y34
Y31 Z-1.692
Y34 Z-1.933
Y31 Z-2.175
Y34 Z-2.417
Y31 Z-2.658
Y34 Z-2.9
Y31
G0 Z5
Y16
G1 Z0.5 F240
Y19 Z0.256 F1000
Y16 Z0.013
Y19 Z-0.231
Y16 Z-0.475
Y19 Z-0.719
Y16 Z-0.962
Y19 Z-1.206
Y16 Z-1.45
Y19
Y16 Z-1.692
Y19 Z-1.933
Y16 Z-2.175
Y19 Z-2.417
Y16 Z-2.658
Y19 Z-2.9
Y16
G0 Z5
X-14.75
G1 Z0.5 F240
Y19 Z0.256 F1000
Y16 Z0.013
Y19 Z-0.231
Y16 Z-0.475
Y19 Z-0.719
Y16 Z-0.962
Y19 Z-1.206
Y16 Z-1.45
Y19
Y16 Z-1.692
Y19 Z-1.933
Y16 Z-2.175
Y19 Z-2.417
Y16 Z-2.658
Y19 Z-2.9
Y16
G0 Z15

(CONTOURS)
M8
G0 X-101.235 Y148.4
Z15
Z5
G1 Z2 F240
Z-1.25
Y148.407 Z-1.302
Y148.427 Z-1.35
Y148.459 Z-1.391
Y148.5 Z-1.423
Y148.548 Z-1.443
Y148.6 Z-1.45
Y148.8
G3 X-101.435 Y149 I-0.2 J0
G1 X-109.586 F1000
G2 X-110.281 Y149.281 I0 J1
X-110 Y148.586 I-0.719 J-0.695
G1 Y147
G2 X-111 Y146 I-1 J0
G1 X-117
G2 X-118 Y147 I0 J1
G1 Y148.586
G2 X-117.719 Y149.281 I1 J0
X-118.414 Y149 I-0.695 J0.719
G1 X-137
G2 X-138 Y150 I0 J1
G1 Y163
G2 X-137 Y164 I1 J0
G1 X-125
Y170
X-137
G2 X-138 Y171 I0 J1
G1 Y282
G2 X-137 Y283 I1 J0
G1 X-107.071
G3 X-104.243 Y284.171 I0 J4
G1 X-100.707 Y287.707
G2 X-100 Y288 I0.707 J-0.707
G1 X-98
G2 X-97 Y287 I0 J-1
G1 Y285.414
G2 X-97.284 Y284.716 I-1 J0
X-96.586 Y285 I0.698 J-0.716
G1 X-79.414
G2 X-78.716 Y284.716 I0 J-1
X-79 Y285.414 I0.716 J0.698
G1 Y287
G2 X-78 Y288 I1 J0
G1 X-76
G2 X-75.293 Y287.707 I0 J-1
G1 X-5.757 Y218.171
G2 X-4 Y213.929 I-4.242 J-4.243
G1 Y150
G2 X-5 Y149 I-1 J0
G1 X-23.586
G2 X-24.284 Y149.284 I0 J1
X-24 Y148.586 I-0.716 J-0.698
G1 Y147
G2 X-25 Y146 I-1 J0
G1 X-31
G2 X-32 Y147 I0 J1
G1 Y148.586
G2 X-31.716 Y149.284 I1 J0
X-32.414 Y149 I-0.698 J0.716
G1 X-101.435
G3 X-101.635 Y148.8 I0 J-0.2 F840
G1 Y148.6
Y148.548 Z-1.443
Y148.5 Z-1.423
Y148.459 Z-1.391
Y148.427 Z-1.35
Y148.407 Z-1.302
Y148.4 Z-1.25
X-101.235 F1000
Z-2.7 F240
Y148.407 Z-2.752
Y148.427 Z-2.8
Y148.459 Z-2.841
Y148.5 Z-2.873
Y148.548 Z-2.893
Y148.6 Z-2.9
Y148.8
G3 X-101.435 Y149 I-0.2 J0
G1 X-109.586 F1000
G2 X-110.281 Y149.281 I0 J1
X-110 Y148.586 I-0.719 J-0.695
G1 Y147
G2 X-111 Y146 I-1 J0
G1 X-117
G2 X-118 Y147 I0 J1
G1 Y148.586
G2 X-117.719 Y149.281 I1 J0
X-118.414 Y149 I-0.695 J0.719
G1 X-137
G2 X-138 Y150 I0 J1
G1 Y163
G2 X-137 Y164 I1 J0
G1 X-125
Y170
X-137
G2 X-138 Y171 I0 J1
G1 Y282
G2 X-137 Y283 I1 J0
G1 X-107.071
G3 X-104.243 Y284.171 I0 J4
G1 X-100.707 Y287.707
G2 X-100 Y288 I0.707 J-0.707
G1 X-98
G2 X-97 Y287 I0 J-1
G1 Y285.414
G2 X-97.284 Y284.716 I-1 J0
X-96.586 Y285 I0.698 J-0.716
G1 X-79.414
G2 X-78.716 Y284.716 I0 J-1
X-79 Y285.414 I0.716 J0.698
G1 Y287
G2 X-78 Y288 I1 J0
G1 X-76
G2 X-75.293 Y287.707 I0 J-1
G1 X-5.757 Y218.171
G2 X-4 Y213.929 I-4.242 J-4.243
G1 Y150
G2 X-5 Y149 I-1 J0
G1 X-23.586
G2 X-24.284 Y149.284 I0 J1
X-24 Y148.586 I-0.716 J-0.698
G1 Y147
G2 X-25 Y146 I-1 J0
G1 X-31
G2 X-32 Y147 I0 J1
G1 Y148.586
G2 X-31.716 Y149.284 I1 J0
X-32.414 Y149 I-0.698 J0.716
G1 X-101.435
G3 X-101.635 Y148.8 I0 J-0.2 F840
G1 Y148.6
Y148.548 Z-2.893
Y148.5 Z-2.873
Y148.459 Z-2.841
Y148.427 Z-2.8
Y148.407 Z-2.752
Y148.4 Z-2.7
G0 Z5
X-60.327 Y143.6
G1 Z2 F240
Z-1.25
Y143.593 Z-1.302
Y143.573 Z-1.35
Y143.541 Z-1.391
Y143.5 Z-1.423
Y143.452 Z-1.443
Y143.4 Z-1.45
Y143.2
G3 X-60.127 Y143 I0.2 J0
G1 X-45.414 F1000
G2 X-44.716 Y142.716 I0 J-1
X-45 Y143.414 I0.716 J0.698
G1 Y145
G2 X-44 Y146 I1 J0
G1 X-42
G2 X-41.293 Y145.707 I0 J-1
G1 X-37.757 Y142.171
G3 X-34.929 Y141 I2.828 J2.829
G1 X-5
G2 X-4 Y140 I0 J-1
G1 Y8
G2 X-5 Y7 I-1 J0
G1 X-23.586
G2 X-24.29 Y7.29 I0 J1
X-24 Y6.586 I-0.71 J-0.705
G1 Y5
G2 X-25 Y4 I-1 J0
G1 X-31
G2 X-32 Y5 I0 J1
G1 Y6.586
G2 X-31.71 Y7.29 I1 J0
X-32.414 Y7 I-0.705 J0.71
G1 X-109.586
G2 X-110.284 Y7.284 I0 J1
X-110 Y6.586 I-0.716 J-0.698
G1 Y5
G2 X-111 Y4 I-1 J0
G1 X-117
G2 X-118 Y5 I0 J1
G1 Y6.586
G2 X-117.716 Y7.284 I1 J0
X-118.414 Y7 I-0.698 J0.716
G1 X-137
G2 X-138 Y8 I0 J1
G1 Y71.929
G2 X-136.243 Y76.172 I6 J0
G1 X-66.707 Y145.707
G2 X-66 Y146 I0.707 J-0.707
G1 X-64
G2 X-63 Y145 I0 J-1
G1 Y143.414
G2 X-63.284 Y142.716 I-1 J0
X-62.586 Y143 I0.698 J-0.716
G1 X-60.127
G3 X-59.927 Y143.2 I0 J0.2 F840
G1 Y143.4
Y143.452 Z-1.443
Y143.5 Z-1.423
Y143.541 Z-1.391
Y143.573 Z-1.35
Y143.593 Z-1.302
Y143.6 Z-1.25
X-60.327 F1000
Z-2.7 F240
Y143.593 Z-2.752
Y143.573 Z-2.8
Y143.541 Z-2.841
Y143.5 Z-2.873
Y143.452 Z-2.893
Y143.4 Z-2.9
Y143.2
G3 X-60.127 Y143 I0.2 J0
G1 X-45.414 F1000
G2 X-44.716 Y142.716 I0 J-1
X-45 Y143.414 I0.716 J0.698
G1 Y145
G2 X-44 Y146 I1 J0
G1 X-42
G2 X-41.293 Y145.707 I0 J-1
G1 X-37.757 Y142.171
G3 X-34.929 Y141 I2.828 J2.829
G1 X-5
G2 X-4 Y140 I0 J-1
G1 Y8
G2 X-5 Y7 I-1 J0
G1 X-23.586
G2 X-24.29 Y7.29 I0 J1
X-24 Y6.586 I-0.71 J-0.705
G1 Y5
G2 X-25 Y4 I-1 J0
G1 X-31
G2 X-32 Y5 I0 J1
G1 Y6.586
G2 X-31.71 Y7.29 I1 J0
X-32.414 Y7 I-0.705 J0.71
G1 X-109.586
G2 X-110.284 Y7.284 I0 J1
X-110 Y6.586 I-0.716 J-0.698
G1 Y5
G2 X-111 Y4 I-1 J0
G1 X-117
G2 X-118 Y5 I0 J1
G1 Y6.586
G2 X-117.716 Y7.284 I1 J0
X-118.414 Y7 I-0.698 J0.716
G1 X-137
G2 X-138 Y8 I0 J1
G1 Y71.929
G2 X-136.243 Y76.172 I6 J0
G1 X-66.707 Y145.707
G2 X-66 Y146 I0.707 J-0.707
G1 X-64
G2 X-63 Y145 I0 J-1
G1 Y143.414
G2 X-63.284 Y142.716 I-1 J0
X-62.586 Y143 I0.698 J-0.716
G1 X-60.127
G3 X-59.927 Y143.2 I0 J0.2 F840
G1 Y143.4
Y143.452 Z-2.893
Y143.5 Z-2.873
Y143.541 Z-2.841
Y143.573 Z-2.8
Y143.593 Z-2.752
Y143.6 Z-2.7
G0 Z5
X-116.6 Y24.8
G1 Z2 F240
Z-1.25
X-116.593 Z-1.302
X-116.573 Z-1.35
X-116.541 Z-1.391
X-116.5 Z-1.423
X-116.452 Z-1.443
X-116.4 Z-1.45
X-116.2
G3 X-116 Y25 I0 J0.2
G1 Y28 F1000
X-127
Y22
X-116
Y25
G3 X-116.2 Y25.2 I-0.2 J0 F840
G1 X-116.4
X-116.452 Z-1.443
X-116.5 Z-1.423
X-116.541 Z-1.391
X-116.573 Z-1.35
X-116.593 Z-1.302
X-116.6 Z-1.25
Y24.8 F1000
Z-2.7 F240
X-116.593 Z-2.752
X-116.573 Z-2.8
X-116.541 Z-2.841
X-116.5 Z-2.873
X-116.452 Z-2.893
X-116.4 Z-2.9
X-116.2
G3 X-116 Y25 I0 J0.2
G1 Y28 F1000
X-127
Y22
X-116
Y25
G3 X-116.2 Y25.2 I-0.2 J0 F840
G1 X-116.4
X-116.452 Z-2.893
X-116.5 Z-2.873
X-116.541 Z-2.841
X-116.573 Z-2.8
X-116.593 Z-2.752
X-116.6 Z-2.7
G0 Z15

M9
M30
