(ADAPTIVE1)
(T11  D=2 CR=0 - ZMIN=-1.95 - FLAT END MILL)
G90 G94 G91.1 G40 G49 G17
G21

(01 2MM FLAT M5 COUNTERSUNK)
M5
M9
T11
(DIAMOND OR SPIRAL)
S20000 M3
G54
M8
G0 X-86.412 Y100.105
G43 Z12 H1
Z2
Z0.702
G1 Z0.502 F500
G3 X-86.088 Y101.977 Z0.398 I0.162 J0.936 F1000
X-86.412 Y100.105 Z0.294 I-0.162 J-0.936
X-86.088 Y101.977 Z0.189 I0.162 J0.936
X-86.412 Y100.105 Z0.085 I-0.162 J-0.936
X-86.088 Y101.977 Z-0.019 I0.162 J0.936
X-86.412 Y100.105 Z-0.123 I-0.162 J-0.936
X-86.088 Y101.977 Z-0.228 I0.162 J0.936
X-86.412 Y100.105 Z-0.332 I-0.162 J-0.936
X-86.088 Y101.977 Z-0.436 I0.162 J0.936
X-86.412 Y100.105 Z-0.54 I-0.162 J-0.936
X-85.3 Y101.041 Z-0.598 I0.162 J0.936
X-87.2 I-0.95 J0
X-85.3 I0.95 J0
G1 X-85.278 Y101.47
X-85.247 Y101.573
X-85.242 Y101.708
X-85.268 Y101.84
X-85.32 Y101.965
X-85.391 Y102.079
X-85.479 Y102.182
X-85.58 Y102.272
X-85.691 Y102.348
X-85.811 Y102.411
X-85.937 Y102.459
X-86.068 Y102.493
X-86.201 Y102.514
X-86.336 Y102.52
X-86.471 Y102.513
X-86.604 Y102.492
X-86.735 Y102.459
X-86.862 Y102.414
X-86.984 Y102.356
X-87.101 Y102.288
X-87.21 Y102.209
X-87.312 Y102.12
X-87.405 Y102.022
X-87.489 Y101.916
X-87.563 Y101.804
X-87.626 Y101.684
X-87.679 Y101.56
X-87.72 Y101.431
X-87.749 Y101.3
X-87.767 Y101.166
X-87.772 Y101.031
X-87.766 Y100.896
X-87.748 Y100.762
X-87.717 Y100.631
X-87.675 Y100.502
X-87.622 Y100.378
X-87.559 Y100.259
X-87.484 Y100.147
X-87.4 Y100.041
X-87.308 Y99.943
X-87.206 Y99.854
X-87.098 Y99.774
X-86.982 Y99.703
X-86.861 Y99.644
X-86.735 Y99.595
X-86.605 Y99.558
X-86.473 Y99.532
X-86.339 Y99.519
X-86.204 Y99.517
X-86.069 Y99.527
X-85.936 Y99.549
X-85.805 Y99.582
X-85.678 Y99.627
X-85.555 Y99.683
X-85.438 Y99.75
X-85.327 Y99.827
X-85.223 Y99.914
X-85.127 Y100.009
X-85.04 Y100.112
X-84.963 Y100.223
X-84.893 Y100.345
X-84.797 Y100.548
X-84.706 Y100.788
X-84.651 Y100.978
X-84.617 Y101.146
X-84.6 Y101.291
X-84.594 Y101.441
X-84.599 Y101.576
X-84.616 Y101.713
X-84.643 Y101.845
X-84.681 Y101.975
X-84.73 Y102.101
X-84.789 Y102.222
X-84.858 Y102.338
X-84.937 Y102.45
X-85.024 Y102.553
X-85.119 Y102.649
X-85.226 Y102.741
X-85.339 Y102.823
X-85.457 Y102.896
X-85.587 Y102.961
X-85.724 Y103.017
X-85.865 Y103.062
X-86.008 Y103.095
X-86.158 Y103.117
X-86.313 Y103.128
X-86.471 Y103.126
X-86.627 Y103.111
X-86.781 Y103.084
X-86.935 Y103.044
X-87.088 Y102.991
X-87.239 Y102.924
X-87.384 Y102.846
X-87.523 Y102.756
X-87.654 Y102.655
X-87.776 Y102.544
X-87.89 Y102.422
X-87.996 Y102.29
X-88.09 Y102.15
X-88.174 Y102.001
X-88.246 Y101.845
X-88.305 Y101.685
X-88.351 Y101.521
X-88.383 Y101.354
X-88.402 Y101.184
X-88.407 Y101.013
X-88.399 Y100.841
X-88.377 Y100.67
X-88.34 Y100.5
X-88.291 Y100.334
X-88.228 Y100.172
X-88.152 Y100.016
X-88.065 Y99.867
X-87.966 Y99.727
X-87.856 Y99.594
X-87.736 Y99.471
X-87.605 Y99.357
X-87.466 Y99.253
X-87.318 Y99.161
X-87.163 Y99.081
X-87.002 Y99.014
X-86.837 Y98.96
X-86.668 Y98.919
X-86.497 Y98.892
X-86.325 Y98.879
X-86.153 Y98.88
X-85.98 Y98.895
X-85.809 Y98.924
X-85.64 Y98.966
X-85.475 Y99.022
X-85.315 Y99.091
X-85.16 Y99.173
X-85.013 Y99.267
X-84.875 Y99.372
X-84.743 Y99.489
X-84.607 Y99.631
X-84.469 Y99.801
X-84.342 Y99.986
X-84.229 Y100.183
X-84.134 Y100.384
X-84.057 Y100.588
X-83.999 Y100.792
X-83.958 Y100.994
X-83.934 Y101.196
X-83.926 Y101.394
X-83.934 Y101.59
X-83.957 Y101.781
X-83.996 Y101.968
X-84.049 Y102.151
X-84.116 Y102.328
X-84.197 Y102.498
X-84.291 Y102.662
X-84.399 Y102.819
X-84.519 Y102.966
X-84.652 Y103.104
X-84.797 Y103.233
X-84.952 Y103.35
X-85.117 Y103.455
X-85.292 Y103.547
X-85.476 Y103.626
X-85.667 Y103.69
X-85.864 Y103.739
X-86.066 Y103.773
X-86.272 Y103.79
X-86.479
X-86.688 Y103.774
X-86.897 Y103.741
X-87.104 Y103.691
X-87.308 Y103.624
X-87.506 Y103.54
X-87.698 Y103.44
X-87.882 Y103.325
X-88.058 Y103.195
X-88.223 Y103.05
X-88.377 Y102.891
X-88.518 Y102.72
X-88.646 Y102.537
X-88.759 Y102.344
X-88.856 Y102.143
X-88.936 Y101.934
X-89 Y101.719
X-89.047 Y101.499
X-89.075 Y101.275
X-89.086 Y101.05
X-89.079 Y100.823
X-89.053 Y100.598
X-89.009 Y100.375
X-88.948 Y100.156
X-88.869 Y99.943
X-88.773 Y99.737
X-88.661 Y99.54
X-88.534 Y99.352
X-88.392 Y99.174
X-88.236 Y99.008
X-88.066 Y98.856
X-87.885 Y98.717
X-87.693 Y98.593
X-87.492 Y98.485
X-87.283 Y98.393
X-87.068 Y98.319
X-86.847 Y98.262
X-86.623 Y98.223
X-86.396 Y98.202
X-86.168 Y98.199
X-85.94 Y98.215
X-85.714 Y98.249
X-85.492 Y98.301
X-85.274 Y98.371
X-85.062 Y98.458
X-84.858 Y98.562
X-84.658 Y98.685
X-84.461 Y98.829
X-84.27 Y98.994
X-84.087 Y99.179
X-83.917 Y99.382
X-83.762 Y99.599
X-83.626 Y99.829
X-83.508 Y100.067
X-83.411 Y100.313
X-83.334 Y100.564
X-83.278 Y100.817
X-83.244 Y101.072
X-83.229 Y101.326
X-83.236 Y101.579
X-83.262 Y101.828
X-83.308 Y102.073
X-83.373 Y102.312
X-83.457 Y102.545
X-83.559 Y102.77
X-83.679 Y102.986
X-83.816 Y103.192
X-83.97 Y103.386
X-84.139 Y103.569
X-84.323 Y103.738
X-84.521 Y103.892
X-84.733 Y104.031
X-84.955 Y104.154
X-85.189 Y104.258
X-85.431 Y104.344
X-85.681 Y104.411
X-85.938 Y104.458
X-86.198 Y104.484
X-86.462 Y104.489
X-86.727 Y104.473
X-86.991 Y104.435
X-87.253 Y104.376
X-87.511 Y104.296
X-87.762 Y104.195
X-88.006 Y104.074
X-88.24 Y103.932
X-88.463 Y103.772
X-88.673 Y103.593
X-88.869 Y103.398
X-89.05 Y103.187
X-89.213 Y102.961
X-89.358 Y102.723
X-89.483 Y102.473
X-89.588 Y102.213
X-89.673 Y101.945
X-89.735 Y101.67
X-89.776 Y101.391
X-89.794 Y101.109
X-89.789 Y100.826
X-89.762 Y100.544
X-89.712 Y100.265
X-89.64 Y99.991
X-89.546 Y99.723
X-89.43 Y99.464
X-89.294 Y99.214
X-89.139 Y98.976
X-88.965 Y98.751
X-88.773 Y98.541
X-88.564 Y98.347
X-88.341 Y98.17
X-88.104 Y98.011
X-87.855 Y97.872
X-87.596 Y97.753
X-87.329 Y97.656
X-87.054 Y97.58
X-86.774 Y97.527
X-86.49 Y97.496
X-86.205 Y97.488
X-85.92 Y97.503
X-85.637 Y97.541
X-85.358 Y97.601
X-85.084 Y97.684
X-84.814 Y97.79
X-84.551 Y97.918
X-84.296 Y98.07
X-84.048 Y98.245
X-83.811 Y98.443
X-83.587 Y98.662
X-83.379 Y98.902
X-83.189 Y99.159
X-83.021 Y99.432
X-82.875 Y99.717
X-82.752 Y100.012
X-82.654 Y100.315
X-82.581 Y100.622
X-82.534 Y100.933
X-82.511 Y101.245
X-82.514 Y101.555
X-82.541 Y101.863
X-82.593 Y102.167
X-82.669 Y102.464
X-82.768 Y102.754
X-82.89 Y103.035
X-83.034 Y103.304
X-83.199 Y103.562
X-83.385 Y103.806
X-83.59 Y104.034
X-83.814 Y104.247
X-84.055 Y104.441
X-84.311 Y104.616
X-84.582 Y104.77
X-84.866 Y104.903
X-85.161 Y105.013
X-85.466 Y105.1
X-85.778 Y105.162
X-85.957 Y105.183
X-86.515 Y105.195
X-87.003 Y105.126
X-87.296 Y105.057
X-87.686 Y104.945
X-88.077 Y104.772
X-88.363 Y104.614
X-88.677 Y104.418
X-88.955 Y104.191
X-89.151 Y104.015
X-89.497 Y103.637
X-89.77 Y103.246
X-89.887 Y103.051
X-90.077 Y102.66
X-90.225 Y102.249
X-90.3 Y101.977
X-90.396 Y101.391
X-90.403 Y100.902
X-90.389 Y100.707
X-90.332 Y100.219
X-90.196 Y99.73
X-89.932 Y99.101
X-89.639 Y98.631
X-89.248 Y98.158
X-88.858 Y97.802
X-88.37 Y97.461
X-87.979 Y97.262
X-87.784 Y97.178
X-87.296 Y97.016
X-86.808 Y96.921
X-86.612 Y96.902
X-86.124 Y96.886
X-85.538 Y96.942
X-85.05 Y97.062
X-84.562 Y97.24
X-84.448 Y97.289
X-83.948 Y97.582
X-83.547 Y97.875
X-83.442 Y97.972
X-83.074 Y98.363
X-82.765 Y98.754
X-82.461 Y99.34
X-82.273 Y99.779
X-82.144 Y100.414
X-82.06 Y101.049
X-82.222 Y102.172
X-82.428 Y102.66
X-82.685 Y103.222
X-83.01 Y103.637
X-83.39 Y104.081
X-83.781 Y104.381
X-84.323 Y104.739
X-84.757 Y104.917
X-85.343 Y105.103
X-85.441 Y105.127
X-85.957 Y105.183
X-85.965
X-85.992 Y105.178 Z-0.59
X-86.015 Y105.174 Z-0.572
X-86.029 Y105.171 Z-0.548
X-86.035 Y105.17 Z-0.519
G0 Z2
X-86.412 Y120.105
Z0.702
G1 Z0.502 F500
G3 X-86.088 Y121.977 Z0.398 I0.162 J0.936 F1000
X-86.412 Y120.105 Z0.294 I-0.162 J-0.936
X-86.088 Y121.977 Z0.189 I0.162 J0.936
X-86.412 Y120.105 Z0.085 I-0.162 J-0.936
X-86.088 Y121.977 Z-0.019 I0.162 J0.936
X-86.412 Y120.105 Z-0.123 I-0.162 J-0.936
X-86.088 Y121.977 Z-0.228 I0.162 J0.936
X-86.412 Y120.105 Z-0.332 I-0.162 J-0.936
X-86.088 Y121.977 Z-0.436 I0.162 J0.936
X-86.412 Y120.105 Z-0.54 I-0.162 J-0.936
X-85.3 Y121.041 Z-0.598 I0.162 J0.936
X-87.2 I-0.95 J0
X-85.3 I0.95 J0
G1 X-85.278 Y121.47
X-85.247 Y121.573
X-85.242 Y121.708
X-85.268 Y121.84
X-85.32 Y121.965
X-85.391 Y122.08
X-85.479 Y122.182
X-85.58 Y122.272
X-85.691 Y122.348
X-85.811 Y122.411
X-85.937 Y122.459
X-86.068 Y122.493
X-86.201 Y122.514
X-86.336 Y122.52
X-86.471 Y122.513
X-86.604 Y122.492
X-86.735 Y122.459
X-86.862 Y122.414
X-86.984 Y122.356
X-87.101 Y122.288
X-87.21 Y122.209
X-87.312 Y122.12
X-87.405 Y122.022
X-87.489 Y121.916
X-87.563 Y121.804
X-87.626 Y121.684
X-87.679 Y121.56
X-87.72 Y121.431
X-87.749 Y121.3
X-87.767 Y121.166
X-87.773 Y121.031
X-87.766 Y120.896
X-87.748 Y120.762
X-87.717 Y120.631
X-87.676 Y120.502
X-87.622 Y120.378
X-87.559 Y120.259
X-87.484 Y120.147
X-87.401 Y120.041
X-87.308 Y119.943
X-87.206 Y119.854
X-87.098 Y119.774
X-86.982 Y119.703
X-86.861 Y119.644
X-86.735 Y119.595
X-86.605 Y119.558
X-86.473 Y119.532
X-86.339 Y119.519
X-86.204 Y119.517
X-86.069 Y119.527
X-85.936 Y119.549
X-85.805 Y119.582
X-85.678 Y119.627
X-85.555 Y119.684
X-85.438 Y119.75
X-85.327 Y119.827
X-85.223 Y119.914
X-85.127 Y120.009
X-85.04 Y120.112
X-84.963 Y120.223
X-84.893 Y120.345
X-84.797 Y120.548
X-84.706 Y120.788
X-84.651 Y120.978
X-84.617 Y121.146
X-84.6 Y121.291
X-84.594 Y121.441
X-84.599 Y121.576
X-84.616 Y121.713
X-84.643 Y121.845
X-84.681 Y121.975
X-84.73 Y122.101
X-84.789 Y122.222
X-84.858 Y122.338
X-84.937 Y122.45
X-85.024 Y122.553
X-85.119 Y122.649
X-85.226 Y122.741
X-85.339 Y122.823
X-85.457 Y122.896
X-85.587 Y122.961
X-85.724 Y123.017
X-85.865 Y123.062
X-86.008 Y123.095
X-86.158 Y123.117
X-86.313 Y123.128
X-86.471 Y123.126
X-86.627 Y123.111
X-86.781 Y123.084
X-86.935 Y123.044
X-87.088 Y122.991
X-87.239 Y122.924
X-87.384 Y122.846
X-87.523 Y122.756
X-87.654 Y122.655
X-87.776 Y122.544
X-87.89 Y122.422
X-87.996 Y122.29
X-88.09 Y122.15
X-88.174 Y122.001
X-88.246 Y121.845
X-88.305 Y121.685
X-88.351 Y121.521
X-88.383 Y121.354
X-88.402 Y121.184
X-88.407 Y121.013
X-88.399 Y120.841
X-88.377 Y120.67
X-88.34 Y120.501
X-88.291 Y120.334
X-88.228 Y120.172
X-88.152 Y120.016
X-88.065 Y119.867
X-87.966 Y119.727
X-87.856 Y119.594
X-87.736 Y119.471
X-87.605 Y119.357
X-87.466 Y119.253
X-87.318 Y119.161
X-87.163 Y119.081
X-87.002 Y119.014
X-86.837 Y118.96
X-86.668 Y118.919
X-86.497 Y118.892
X-86.325 Y118.879
X-86.153 Y118.88
X-85.98 Y118.895
X-85.809 Y118.924
X-85.64 Y118.966
X-85.475 Y119.022
X-85.315 Y119.091
X-85.16 Y119.173
X-85.014 Y119.267
X-84.875 Y119.372
X-84.743 Y119.489
X-84.607 Y119.631
X-84.469 Y119.801
X-84.342 Y119.986
X-84.23 Y120.183
X-84.134 Y120.384
X-84.057 Y120.588
X-83.999 Y120.792
X-83.958 Y120.994
X-83.934 Y121.196
X-83.926 Y121.394
X-83.934 Y121.59
X-83.957 Y121.781
X-83.996 Y121.968
X-84.049 Y122.151
X-84.116 Y122.328
X-84.197 Y122.498
X-84.291 Y122.662
X-84.399 Y122.819
X-84.519 Y122.966
X-84.652 Y123.104
X-84.797 Y123.233
X-84.952 Y123.35
X-85.117 Y123.455
X-85.292 Y123.547
X-85.476 Y123.626
X-85.667 Y123.69
X-85.864 Y123.739
X-86.066 Y123.773
X-86.272 Y123.79
X-86.48
X-86.689 Y123.774
X-86.897 Y123.741
X-87.104 Y123.691
X-87.308 Y123.624
X-87.506 Y123.54
X-87.698 Y123.441
X-87.882 Y123.325
X-88.058 Y123.195
X-88.223 Y123.05
X-88.377 Y122.891
X-88.518 Y122.72
X-88.646 Y122.537
X-88.759 Y122.344
X-88.856 Y122.143
X-88.936 Y121.934
X-89 Y121.719
X-89.047 Y121.499
X-89.075 Y121.275
X-89.086 Y121.05
X-89.079 Y120.823
X-89.053 Y120.598
X-89.009 Y120.375
X-88.948 Y120.156
X-88.869 Y119.943
X-88.773 Y119.737
X-88.662 Y119.54
X-88.534 Y119.352
X-88.392 Y119.174
X-88.236 Y119.008
X-88.066 Y118.856
X-87.885 Y118.717
X-87.693 Y118.593
X-87.492 Y118.485
X-87.283 Y118.393
X-87.068 Y118.319
X-86.847 Y118.262
X-86.623 Y118.223
X-86.396 Y118.202
X-86.168 Y118.199
X-85.94 Y118.215
X-85.714 Y118.249
X-85.492 Y118.301
X-85.274 Y118.371
X-85.062 Y118.458
X-84.858 Y118.562
X-84.658 Y118.685
X-84.461 Y118.829
X-84.27 Y118.994
X-84.087 Y119.179
X-83.917 Y119.382
X-83.762 Y119.599
X-83.626 Y119.829
X-83.508 Y120.067
X-83.411 Y120.313
X-83.334 Y120.564
X-83.278 Y120.817
X-83.244 Y121.072
X-83.23 Y121.326
X-83.236 Y121.579
X-83.262 Y121.828
X-83.308 Y122.073
X-83.373 Y122.312
X-83.457 Y122.545
X-83.559 Y122.77
X-83.679 Y122.986
X-83.816 Y123.192
X-83.97 Y123.387
X-84.139 Y123.569
X-84.323 Y123.738
X-84.521 Y123.893
X-84.733 Y124.031
X-84.956 Y124.154
X-85.189 Y124.258
X-85.431 Y124.344
X-85.681 Y124.411
X-85.938 Y124.458
X-86.199 Y124.484
X-86.462 Y124.489
X-86.727 Y124.473
X-86.991 Y124.435
X-87.253 Y124.376
X-87.511 Y124.296
X-87.762 Y124.195
X-88.006 Y124.074
X-88.24 Y123.932
X-88.463 Y123.772
X-88.673 Y123.593
X-88.869 Y123.398
X-89.05 Y123.187
X-89.213 Y122.961
X-89.358 Y122.723
X-89.483 Y122.473
X-89.589 Y122.213
X-89.673 Y121.945
X-89.736 Y121.67
X-89.776 Y121.391
X-89.794 Y121.109
X-89.789 Y120.826
X-89.762 Y120.544
X-89.712 Y120.265
X-89.64 Y119.991
X-89.546 Y119.723
X-89.43 Y119.464
X-89.295 Y119.214
X-89.139 Y118.976
X-88.965 Y118.751
X-88.773 Y118.541
X-88.564 Y118.347
X-88.341 Y118.17
X-88.104 Y118.011
X-87.855 Y117.872
X-87.596 Y117.753
X-87.329 Y117.656
X-87.054 Y117.58
X-86.774 Y117.527
X-86.49 Y117.496
X-86.205 Y117.488
X-85.92 Y117.503
X-85.637 Y117.541
X-85.358 Y117.601
X-85.084 Y117.684
X-84.814 Y117.79
X-84.551 Y117.918
X-84.296 Y118.07
X-84.048 Y118.245
X-83.811 Y118.443
X-83.587 Y118.662
X-83.379 Y118.902
X-83.189 Y119.16
X-83.021 Y119.432
X-82.875 Y119.717
X-82.752 Y120.012
X-82.654 Y120.315
X-82.581 Y120.622
X-82.534 Y120.933
X-82.511 Y121.245
X-82.514 Y121.556
X-82.541 Y121.863
X-82.593 Y122.167
X-82.669 Y122.464
X-82.768 Y122.754
X-82.89 Y123.035
X-83.034 Y123.304
X-83.199 Y123.562
X-83.385 Y123.806
X-83.59 Y124.034
X-83.814 Y124.247
X-84.055 Y124.441
X-84.311 Y124.616
X-84.582 Y124.77
X-84.866 Y124.903
X-85.161 Y125.013
X-85.466 Y125.1
X-85.778 Y125.162
X-85.977 Y125.185
X-86.515 Y125.195
X-86.905 Y125.142
X-87.198 Y125.084
X-87.686 Y124.945
X-87.979 Y124.822
X-88.328 Y124.635
X-88.663 Y124.428
X-89.053 Y124.106
X-89.248 Y123.913
X-89.541 Y123.58
X-89.695 Y123.365
X-89.876 Y123.072
X-90.127 Y122.544
X-90.185 Y122.389
X-90.295 Y121.998
X-90.394 Y121.412
X-90.402 Y120.826
X-90.336 Y120.24
X-90.202 Y119.752
X-90.046 Y119.361
X-89.932 Y119.101
X-89.674 Y118.677
X-89.28 Y118.189
X-88.854 Y117.798
X-88.37 Y117.461
X-87.979 Y117.262
X-87.784 Y117.178
X-87.296 Y117.016
X-86.795 Y116.919
X-86.515 Y116.898
X-86.124 Y116.886
X-85.538 Y116.942
X-85.05 Y117.062
X-84.562 Y117.24
X-84.411 Y117.31
X-83.976 Y117.562
X-83.52 Y117.896
X-83.097 Y118.335
X-82.805 Y118.702
X-82.751 Y118.775
X-82.451 Y119.361
X-82.266 Y119.8
X-82.141 Y120.435
X-82.06 Y121.046
X-82.219 Y122.162
X-82.414 Y122.63
X-82.678 Y123.211
X-83 Y123.625
X-83.39 Y124.08
X-83.781 Y124.382
X-84.339 Y124.748
X-84.855 Y124.953
X-85.441 Y125.127
X-85.929 Y125.182
X-85.977 Y125.185
X-85.982
X-86.01 Y125.18 Z-0.59
X-86.033 Y125.175 Z-0.573
X-86.048 Y125.172 Z-0.548
X-86.053 Y125.171 Z-0.519
G0 Z2
X-58.912 Y100.105
Z0.702
G1 Z0.502 F500
G3 X-58.589 Y101.977 Z0.398 I0.162 J0.936 F1000
X-58.912 Y100.105 Z0.294 I-0.162 J-0.936
X-58.589 Y101.977 Z0.189 I0.162 J0.936
X-58.912 Y100.105 Z0.085 I-0.162 J-0.936
X-58.589 Y101.977 Z-0.019 I0.162 J0.936
X-58.912 Y100.105 Z-0.123 I-0.162 J-0.936
X-58.589 Y101.977 Z-0.228 I0.162 J0.936
X-58.912 Y100.105 Z-0.332 I-0.162 J-0.936
X-58.589 Y101.977 Z-0.436 I0.162 J0.936
X-58.912 Y100.105 Z-0.54 I-0.162 J-0.936
X-57.8 Y101.041 Z-0.598 I0.162 J0.936
X-59.7 I-0.95 J0
X-57.8 I0.95 J0
G1 X-57.778 Y101.47
X-57.748 Y101.573
X-57.742 Y101.708
X-57.769 Y101.84
X-57.82 Y101.965
X-57.892 Y102.08
X-57.979 Y102.182
X-58.08 Y102.272
X-58.191 Y102.348
X-58.311 Y102.411
X-58.437 Y102.459
X-58.568 Y102.493
X-58.701 Y102.514
X-58.836 Y102.52
X-58.971 Y102.513
X-59.104 Y102.492
X-59.235 Y102.459
X-59.362 Y102.414
X-59.484 Y102.356
X-59.601 Y102.288
X-59.71 Y102.209
X-59.812 Y102.12
X-59.905 Y102.022
X-59.989 Y101.916
X-60.063 Y101.804
X-60.126 Y101.684
X-60.179 Y101.56
X-60.22 Y101.431
X-60.25 Y101.3
X-60.267 Y101.166
X-60.273 Y101.031
X-60.266 Y100.896
X-60.248 Y100.762
X-60.217 Y100.631
X-60.176 Y100.502
X-60.123 Y100.378
X-60.059 Y100.259
X-59.985 Y100.147
X-59.901 Y100.041
X-59.808 Y99.943
X-59.707 Y99.854
X-59.598 Y99.774
X-59.482 Y99.703
X-59.361 Y99.644
X-59.235 Y99.595
X-59.106 Y99.558
X-58.973 Y99.532
X-58.839 Y99.519
X-58.704 Y99.517
X-58.569 Y99.527
X-58.436 Y99.549
X-58.305 Y99.582
X-58.178 Y99.627
X-58.055 Y99.684
X-57.938 Y99.75
X-57.827 Y99.827
X-57.723 Y99.914
X-57.627 Y100.009
X-57.541 Y100.112
X-57.463 Y100.223
X-57.393 Y100.345
X-57.297 Y100.548
X-57.206 Y100.788
X-57.152 Y100.978
X-57.117 Y101.146
X-57.1 Y101.291
X-57.094 Y101.441
X-57.099 Y101.576
X-57.116 Y101.713
X-57.143 Y101.845
X-57.181 Y101.975
X-57.23 Y102.101
X-57.289 Y102.222
X-57.358 Y102.338
X-57.437 Y102.45
X-57.524 Y102.553
X-57.619 Y102.649
X-57.726 Y102.741
X-57.839 Y102.823
X-57.958 Y102.896
X-58.087 Y102.961
X-58.224 Y103.017
X-58.365 Y103.062
X-58.508 Y103.095
X-58.658 Y103.117
X-58.813 Y103.128
X-58.971 Y103.126
X-59.127 Y103.111
X-59.281 Y103.084
X-59.435 Y103.044
X-59.588 Y102.991
X-59.739 Y102.924
X-59.884 Y102.846
X-60.023 Y102.756
X-60.154 Y102.655
X-60.276 Y102.544
X-60.391 Y102.422
X-60.496 Y102.29
X-60.591 Y102.15
X-60.674 Y102.001
X-60.746 Y101.845
X-60.805 Y101.685
X-60.851 Y101.521
X-60.883 Y101.354
X-60.902 Y101.184
X-60.908 Y101.013
X-60.899 Y100.841
X-60.877 Y100.67
X-60.841 Y100.501
X-60.791 Y100.334
X-60.728 Y100.172
X-60.652 Y100.016
X-60.565 Y99.867
X-60.466 Y99.727
X-60.356 Y99.594
X-60.236 Y99.471
X-60.105 Y99.357
X-59.966 Y99.253
X-59.818 Y99.161
X-59.663 Y99.081
X-59.502 Y99.014
X-59.337 Y98.96
X-59.168 Y98.919
X-58.997 Y98.892
X-58.825 Y98.879
X-58.653 Y98.88
X-58.48 Y98.895
X-58.309 Y98.924
X-58.14 Y98.966
X-57.975 Y99.022
X-57.815 Y99.091
X-57.66 Y99.173
X-57.514 Y99.267
X-57.375 Y99.372
X-57.243 Y99.489
X-57.107 Y99.631
X-56.969 Y99.801
X-56.842 Y99.986
X-56.73 Y100.183
X-56.634 Y100.384
X-56.558 Y100.588
X-56.499 Y100.792
X-56.458 Y100.994
X-56.434 Y101.196
X-56.426 Y101.394
X-56.434 Y101.59
X-56.458 Y101.781
X-56.496 Y101.968
X-56.549 Y102.151
X-56.616 Y102.328
X-56.697 Y102.498
X-56.791 Y102.662
X-56.899 Y102.819
X-57.019 Y102.966
X-57.152 Y103.104
X-57.297 Y103.233
X-57.452 Y103.35
X-57.618 Y103.455
X-57.792 Y103.547
X-57.976 Y103.626
X-58.167 Y103.69
X-58.365 Y103.739
X-58.566 Y103.773
X-58.772 Y103.79
X-58.98
X-59.189 Y103.774
X-59.397 Y103.741
X-59.604 Y103.691
X-59.808 Y103.624
X-60.006 Y103.54
X-60.198 Y103.441
X-60.382 Y103.325
X-60.558 Y103.195
X-60.723 Y103.05
X-60.877 Y102.891
X-61.018 Y102.72
X-61.146 Y102.537
X-61.259 Y102.344
X-61.356 Y102.143
X-61.437 Y101.934
X-61.5 Y101.719
X-61.547 Y101.499
X-61.575 Y101.275
X-61.586 Y101.05
X-61.579 Y100.823
X-61.553 Y100.598
X-61.509 Y100.375
X-61.448 Y100.156
X-61.369 Y99.943
X-61.273 Y99.737
X-61.162 Y99.54
X-61.034 Y99.352
X-60.892 Y99.174
X-60.736 Y99.008
X-60.567 Y98.856
X-60.385 Y98.717
X-60.193 Y98.593
X-59.992 Y98.485
X-59.783 Y98.393
X-59.568 Y98.319
X-59.347 Y98.262
X-59.123 Y98.223
X-58.896 Y98.202
X-58.668 Y98.199
X-58.44 Y98.215
X-58.214 Y98.249
X-57.992 Y98.301
X-57.774 Y98.371
X-57.562 Y98.458
X-57.358 Y98.562
X-57.158 Y98.685
X-56.961 Y98.829
X-56.77 Y98.994
X-56.587 Y99.179
X-56.417 Y99.382
X-56.263 Y99.599
X-56.126 Y99.829
X-56.008 Y100.067
X-55.911 Y100.313
X-55.834 Y100.564
X-55.779 Y100.817
X-55.744 Y101.072
X-55.73 Y101.326
X-55.736 Y101.579
X-55.762 Y101.828
X-55.808 Y102.073
X-55.873 Y102.312
X-55.957 Y102.545
X-56.059 Y102.77
X-56.179 Y102.986
X-56.316 Y103.192
X-56.47 Y103.387
X-56.639 Y103.569
X-56.823 Y103.738
X-57.022 Y103.892
X-57.233 Y104.031
X-57.456 Y104.154
X-57.689 Y104.258
X-57.931 Y104.344
X-58.182 Y104.411
X-58.438 Y104.458
X-58.699 Y104.484
X-58.962 Y104.489
X-59.227 Y104.473
X-59.492 Y104.435
X-59.753 Y104.376
X-60.011 Y104.296
X-60.262 Y104.195
X-60.506 Y104.074
X-60.74 Y103.932
X-60.963 Y103.772
X-61.173 Y103.593
X-61.369 Y103.398
X-61.55 Y103.187
X-61.713 Y102.961
X-61.858 Y102.723
X-61.983 Y102.473
X-62.089 Y102.213
X-62.173 Y101.945
X-62.236 Y101.67
X-62.276 Y101.391
X-62.294 Y101.109
X-62.29 Y100.826
X-62.262 Y100.544
X-62.212 Y100.265
X-62.14 Y99.991
X-62.046 Y99.723
X-61.931 Y99.464
X-61.795 Y99.214
X-61.639 Y98.976
X-61.465 Y98.751
X-61.273 Y98.541
X-61.065 Y98.347
X-60.841 Y98.17
X-60.604 Y98.011
X-60.356 Y97.872
X-60.097 Y97.753
X-59.829 Y97.656
X-59.554 Y97.58
X-59.274 Y97.527
X-58.991 Y97.496
X-58.705 Y97.488
X-58.42 Y97.503
X-58.137 Y97.541
X-57.858 Y97.601
X-57.584 Y97.684
X-57.315 Y97.79
X-57.052 Y97.918
X-56.796 Y98.07
X-56.548 Y98.245
X-56.311 Y98.443
X-56.087 Y98.662
X-55.879 Y98.902
X-55.69 Y99.16
X-55.521 Y99.432
X-55.375 Y99.717
X-55.252 Y100.012
X-55.154 Y100.315
X-55.082 Y100.622
X-55.034 Y100.933
X-55.011 Y101.245
X-55.014 Y101.556
X-55.041 Y101.863
X-55.093 Y102.167
X-55.169 Y102.464
X-55.268 Y102.754
X-55.39 Y103.035
X-55.534 Y103.304
X-55.699 Y103.562
X-55.885 Y103.806
X-56.09 Y104.034
X-56.314 Y104.247
X-56.555 Y104.441
X-56.811 Y104.616
X-57.083 Y104.77
X-57.367 Y104.903
X-57.662 Y105.013
X-57.966 Y105.1
X-58.278 Y105.162
X-58.481 Y105.185
X-59.079 Y105.19
X-59.47 Y105.13
X-59.763 Y105.066
X-60.153 Y104.958
X-60.446 Y104.831
X-60.739 Y104.688
X-61.177 Y104.418
X-61.424 Y104.223
X-61.733 Y103.93
X-62.008 Y103.623
X-62.27 Y103.246
X-62.399 Y103.027
X-62.594 Y102.623
X-62.746 Y102.172
X-62.8 Y101.977
X-62.896 Y101.391
X-62.903 Y100.902
X-62.887 Y100.691
X-62.832 Y100.219
X-62.692 Y99.714
X-62.455 Y99.144
X-62.159 Y98.656
X-61.759 Y98.168
X-61.423 Y97.857
X-61.325 Y97.776
X-60.905 Y97.484
X-60.526 Y97.289
X-60.319 Y97.191
X-59.763 Y97.009
X-59.275 Y96.917
X-59.014 Y96.898
X-58.689 Y96.884
X-58.201 Y96.92
X-58.005 Y96.95
X-57.517 Y97.071
X-57.029 Y97.254
X-56.931 Y97.298
X-56.443 Y97.585
X-56.047 Y97.875
X-55.849 Y98.07
X-55.564 Y98.375
X-55.265 Y98.754
X-54.961 Y99.34
X-54.77 Y99.791
X-54.644 Y100.414
X-54.56 Y101.049
X-54.721 Y102.172
X-54.928 Y102.66
X-55.174 Y103.203
X-55.467 Y103.586
X-55.899 Y104.091
X-56.333 Y104.418
X-56.834 Y104.745
X-57.322 Y104.941
X-57.908 Y105.122
X-58.396 Y105.18
X-58.481 Y105.185
X-58.487
X-58.515 Y105.18 Z-0.59
X-58.537 Y105.176 Z-0.572
X-58.552 Y105.174 Z-0.548
X-58.558 Y105.173 Z-0.519
G0 Z2
X-58.912 Y120.104
Z0.702
G1 Z0.502 F500
G3 X-58.588 Y121.977 Z0.398 I0.162 J0.936 F1000
X-58.912 Y120.104 Z0.294 I-0.162 J-0.936
X-58.588 Y121.977 Z0.189 I0.162 J0.936
X-58.912 Y120.104 Z0.085 I-0.162 J-0.936
X-58.588 Y121.977 Z-0.019 I0.162 J0.936
X-58.912 Y120.104 Z-0.123 I-0.162 J-0.936
X-58.588 Y121.977 Z-0.228 I0.162 J0.936
X-58.912 Y120.104 Z-0.332 I-0.162 J-0.936
X-58.588 Y121.977 Z-0.436 I0.162 J0.936
X-58.912 Y120.104 Z-0.54 I-0.162 J-0.936
X-57.8 Y121.041 Z-0.598 I0.162 J0.936
X-59.7 I-0.95 J0
X-57.8 I0.95 J0
G1 X-57.778 Y121.47
X-57.747 Y121.573
X-57.742 Y121.708
X-57.768 Y121.84
X-57.82 Y121.965
X-57.891 Y122.079
X-57.979 Y122.182
X-58.08 Y122.272
X-58.191 Y122.348
X-58.311 Y122.41
X-58.437 Y122.459
X-58.568 Y122.493
X-58.701 Y122.513
X-58.836 Y122.52
X-58.971 Y122.513
X-59.104 Y122.492
X-59.235 Y122.459
X-59.362 Y122.413
X-59.484 Y122.356
X-59.601 Y122.288
X-59.71 Y122.208
X-59.812 Y122.12
X-59.905 Y122.022
X-59.989 Y121.916
X-60.063 Y121.803
X-60.126 Y121.684
X-60.179 Y121.56
X-60.22 Y121.431
X-60.249 Y121.3
X-60.267 Y121.166
X-60.272 Y121.031
X-60.266 Y120.896
X-60.248 Y120.762
X-60.217 Y120.631
X-60.175 Y120.502
X-60.122 Y120.378
X-60.059 Y120.259
X-59.984 Y120.146
X-59.9 Y120.041
X-59.808 Y119.943
X-59.706 Y119.853
X-59.598 Y119.773
X-59.482 Y119.703
X-59.361 Y119.644
X-59.235 Y119.595
X-59.105 Y119.558
X-58.973 Y119.532
X-58.839 Y119.518
X-58.704 Y119.516
X-58.569 Y119.527
X-58.436 Y119.548
X-58.305 Y119.582
X-58.178 Y119.627
X-58.055 Y119.683
X-57.938 Y119.75
X-57.827 Y119.827
X-57.723 Y119.913
X-57.627 Y120.009
X-57.54 Y120.112
X-57.463 Y120.223
X-57.393 Y120.345
X-57.297 Y120.548
X-57.206 Y120.788
X-57.151 Y120.978
X-57.117 Y121.146
X-57.1 Y121.291
X-57.094 Y121.441
X-57.099 Y121.576
X-57.116 Y121.713
X-57.143 Y121.845
X-57.181 Y121.975
X-57.23 Y122.1
X-57.289 Y122.222
X-57.358 Y122.338
X-57.437 Y122.449
X-57.524 Y122.553
X-57.619 Y122.649
X-57.726 Y122.741
X-57.839 Y122.823
X-57.957 Y122.895
X-58.087 Y122.961
X-58.224 Y123.017
X-58.365 Y123.062
X-58.508 Y123.095
X-58.658 Y123.117
X-58.813 Y123.128
X-58.971 Y123.126
X-59.127 Y123.111
X-59.281 Y123.084
X-59.435 Y123.044
X-59.588 Y122.99
X-59.739 Y122.924
X-59.884 Y122.845
X-60.023 Y122.755
X-60.154 Y122.655
X-60.276 Y122.544
X-60.39 Y122.422
X-60.495 Y122.29
X-60.59 Y122.15
X-60.674 Y122.001
X-60.746 Y121.845
X-60.805 Y121.685
X-60.851 Y121.52
X-60.883 Y121.353
X-60.902 Y121.184
X-60.907 Y121.013
X-60.899 Y120.841
X-60.877 Y120.67
X-60.84 Y120.5
X-60.791 Y120.334
X-60.728 Y120.172
X-60.652 Y120.016
X-60.565 Y119.867
X-60.466 Y119.726
X-60.356 Y119.594
X-60.236 Y119.471
X-60.105 Y119.357
X-59.966 Y119.253
X-59.818 Y119.161
X-59.663 Y119.081
X-59.502 Y119.014
X-59.337 Y118.96
X-59.168 Y118.919
X-58.997 Y118.892
X-58.825 Y118.879
X-58.653 Y118.88
X-58.48 Y118.895
X-58.309 Y118.924
X-58.14 Y118.966
X-57.975 Y119.022
X-57.815 Y119.091
X-57.66 Y119.173
X-57.513 Y119.266
X-57.375 Y119.371
X-57.243 Y119.489
X-57.107 Y119.631
X-56.969 Y119.801
X-56.842 Y119.986
X-56.729 Y120.183
X-56.634 Y120.384
X-56.557 Y120.588
X-56.499 Y120.791
X-56.458 Y120.994
X-56.434 Y121.196
X-56.426 Y121.394
X-56.434 Y121.589
X-56.457 Y121.781
X-56.496 Y121.968
X-56.549 Y122.151
X-56.616 Y122.328
X-56.697 Y122.498
X-56.791 Y122.662
X-56.899 Y122.818
X-57.019 Y122.966
X-57.152 Y123.104
X-57.296 Y123.233
X-57.452 Y123.35
X-57.617 Y123.455
X-57.792 Y123.547
X-57.976 Y123.626
X-58.167 Y123.69
X-58.364 Y123.739
X-58.566 Y123.772
X-58.772 Y123.79
X-58.979
X-59.188 Y123.774
X-59.397 Y123.741
X-59.604 Y123.691
X-59.808 Y123.624
X-60.006 Y123.54
X-60.198 Y123.44
X-60.382 Y123.325
X-60.558 Y123.195
X-60.723 Y123.05
X-60.877 Y122.891
X-61.018 Y122.72
X-61.146 Y122.537
X-61.259 Y122.344
X-61.356 Y122.143
X-61.436 Y121.934
X-61.5 Y121.719
X-61.547 Y121.499
X-61.575 Y121.275
X-61.586 Y121.049
X-61.579 Y120.823
X-61.553 Y120.597
X-61.509 Y120.374
X-61.448 Y120.156
X-61.369 Y119.943
X-61.273 Y119.737
X-61.161 Y119.539
X-61.034 Y119.351
X-60.892 Y119.174
X-60.736 Y119.008
X-60.566 Y118.855
X-60.385 Y118.716
X-60.193 Y118.593
X-59.992 Y118.484
X-59.783 Y118.393
X-59.568 Y118.318
X-59.347 Y118.262
X-59.123 Y118.223
X-58.896 Y118.202
X-58.668 Y118.199
X-58.44 Y118.215
X-58.214 Y118.249
X-57.992 Y118.301
X-57.774 Y118.371
X-57.562 Y118.458
X-57.358 Y118.562
X-57.158 Y118.685
X-56.961 Y118.829
X-56.77 Y118.994
X-56.587 Y119.179
X-56.417 Y119.381
X-56.262 Y119.599
X-56.126 Y119.828
X-56.008 Y120.067
X-55.911 Y120.313
X-55.834 Y120.564
X-55.778 Y120.817
X-55.744 Y121.072
X-55.729 Y121.326
X-55.736 Y121.578
X-55.762 Y121.828
X-55.808 Y122.072
X-55.873 Y122.312
X-55.957 Y122.545
X-56.059 Y122.769
X-56.179 Y122.985
X-56.316 Y123.191
X-56.47 Y123.386
X-56.639 Y123.569
X-56.823 Y123.738
X-57.021 Y123.892
X-57.233 Y124.031
X-57.455 Y124.153
X-57.689 Y124.258
X-57.931 Y124.344
X-58.181 Y124.411
X-58.438 Y124.457
X-58.698 Y124.484
X-58.962 Y124.489
X-59.227 Y124.473
X-59.491 Y124.435
X-59.753 Y124.376
X-60.011 Y124.296
X-60.262 Y124.195
X-60.506 Y124.073
X-60.74 Y123.932
X-60.963 Y123.772
X-61.173 Y123.593
X-61.369 Y123.398
X-61.55 Y123.187
X-61.713 Y122.961
X-61.858 Y122.722
X-61.983 Y122.472
X-62.088 Y122.213
X-62.173 Y121.945
X-62.235 Y121.67
X-62.276 Y121.391
X-62.294 Y121.109
X-62.289 Y120.826
X-62.262 Y120.544
X-62.212 Y120.265
X-62.14 Y119.991
X-62.046 Y119.723
X-61.93 Y119.464
X-61.794 Y119.214
X-61.639 Y118.976
X-61.465 Y118.751
X-61.273 Y118.541
X-61.064 Y118.346
X-60.841 Y118.169
X-60.604 Y118.011
X-60.355 Y117.872
X-60.096 Y117.753
X-59.829 Y117.656
X-59.554 Y117.58
X-59.274 Y117.526
X-58.99 Y117.496
X-58.705 Y117.488
X-58.42 Y117.503
X-58.137 Y117.541
X-57.858 Y117.601
X-57.584 Y117.684
X-57.314 Y117.79
X-57.051 Y117.918
X-56.796 Y118.07
X-56.548 Y118.244
X-56.311 Y118.442
X-56.087 Y118.662
X-55.879 Y118.902
X-55.689 Y119.159
X-55.521 Y119.432
X-55.375 Y119.717
X-55.252 Y120.012
X-55.154 Y120.314
X-55.081 Y120.622
X-55.034 Y120.933
X-55.011 Y121.245
X-55.014 Y121.555
X-55.041 Y121.863
X-55.093 Y122.167
X-55.169 Y122.464
X-55.268 Y122.754
X-55.39 Y123.034
X-55.534 Y123.304
X-55.699 Y123.562
X-55.885 Y123.806
X-56.09 Y124.034
X-56.314 Y124.246
X-56.555 Y124.441
X-56.811 Y124.616
X-57.082 Y124.77
X-57.366 Y124.903
X-57.661 Y125.013
X-57.966 Y125.1
X-58.278 Y125.162
X-58.484 Y125.186
X-59.079 Y125.19
X-59.507 Y125.123
X-59.763 Y125.066
X-60.153 Y124.958
X-60.463 Y124.83
X-60.837 Y124.63
X-61.145 Y124.439
X-61.423 Y124.224
X-61.715 Y123.949
X-62.008 Y123.623
X-62.131 Y123.463
X-62.399 Y123.027
X-62.611 Y122.584
X-62.692 Y122.364
X-62.795 Y121.998
X-62.894 Y121.412
X-62.902 Y120.826
X-62.836 Y120.24
X-62.692 Y119.714
X-62.464 Y119.166
X-62.204 Y118.726
X-62.097 Y118.58
X-61.78 Y118.189
X-61.354 Y117.798
X-60.934 Y117.505
X-60.739 Y117.393
X-60.349 Y117.203
X-59.801 Y117.017
X-59.275 Y116.917
X-59.079 Y116.901
X-58.689 Y116.885
X-58.201 Y116.92
X-58.005 Y116.95
X-57.517 Y117.071
X-57.029 Y117.254
X-56.911 Y117.31
X-56.443 Y117.585
X-56.02 Y117.896
X-55.641 Y118.287
X-55.272 Y118.745
X-54.951 Y119.361
X-54.766 Y119.801
X-54.641 Y120.435
X-54.56 Y121.046
X-54.72 Y122.169
X-54.937 Y122.682
X-55.174 Y123.204
X-55.467 Y123.586
X-55.909 Y124.1
X-56.346 Y124.427
X-56.834 Y124.745
X-57.322 Y124.941
X-57.914 Y125.123
X-58.396 Y125.18
X-58.484 Y125.186
X-58.491
X-58.518 Y125.181 Z-0.59
X-58.541 Y125.177 Z-0.572
X-58.556 Y125.174 Z-0.548
X-58.561 Y125.173 Z-0.519
G0 Z2
X-86.468 Y100.116
Z0.102
G1 Z-0.098 F500
G3 X-86.033 Y101.965 Z-0.202 I0.218 J0.925 F1000
X-86.468 Y100.116 Z-0.306 I-0.218 J-0.925
X-86.033 Y101.965 Z-0.411 I0.218 J0.925
X-86.468 Y100.116 Z-0.515 I-0.218 J-0.925
X-86.033 Y101.965 Z-0.619 I0.218 J0.925
X-86.468 Y100.116 Z-0.723 I-0.218 J-0.925
X-86.033 Y101.965 Z-0.828 I0.218 J0.925
X-86.468 Y100.116 Z-0.932 I-0.218 J-0.925
X-86.033 Y101.965 Z-1.036 I0.218 J0.925
X-86.468 Y100.116 Z-1.14 I-0.218 J-0.925
X-85.3 Y101.041 Z-1.2 I0.218 J0.925
X-87.2 I-0.95 J0
X-85.3 I0.95 J0
G1 X-85.278 Y101.47
X-85.248 Y101.573
X-85.242 Y101.708
X-85.269 Y101.84
X-85.32 Y101.965
X-85.392 Y102.08
X-85.479 Y102.182
X-85.58 Y102.272
X-85.692 Y102.348
X-85.811 Y102.411
X-85.937 Y102.459
X-86.068 Y102.493
X-86.201 Y102.514
X-86.336 Y102.52
X-86.471 Y102.513
X-86.604 Y102.493
X-86.735 Y102.459
X-86.862 Y102.414
X-86.985 Y102.356
X-87.101 Y102.288
X-87.21 Y102.209
X-87.312 Y102.12
X-87.405 Y102.022
X-87.489 Y101.917
X-87.563 Y101.804
X-87.627 Y101.684
X-87.679 Y101.56
X-87.72 Y101.432
X-87.75 Y101.3
X-87.767 Y101.166
X-87.773 Y101.031
X-87.766 Y100.896
X-87.748 Y100.762
X-87.718 Y100.631
X-87.676 Y100.503
X-87.623 Y100.378
X-87.559 Y100.259
X-87.485 Y100.147
X-87.401 Y100.041
X-87.308 Y99.943
X-87.207 Y99.854
X-87.098 Y99.774
X-86.983 Y99.704
X-86.861 Y99.644
X-86.735 Y99.595
X-86.606 Y99.558
X-86.473 Y99.532
X-86.339 Y99.519
X-86.204 Y99.517
X-86.069 Y99.527
X-85.936 Y99.549
X-85.805 Y99.582
X-85.678 Y99.627
X-85.555 Y99.684
X-85.438 Y99.75
X-85.327 Y99.827
X-85.223 Y99.914
X-85.128 Y100.009
X-85.041 Y100.112
X-84.963 Y100.223
X-84.893 Y100.345
X-84.797 Y100.548
X-84.707 Y100.788
X-84.652 Y100.978
X-84.618 Y101.146
X-84.6 Y101.291
X-84.594 Y101.441
X-84.6 Y101.576
X-84.616 Y101.713
X-84.644 Y101.845
X-84.682 Y101.975
X-84.73 Y102.101
X-84.789 Y102.222
X-84.858 Y102.338
X-84.937 Y102.45
X-85.024 Y102.553
X-85.119 Y102.649
X-85.226 Y102.741
X-85.339 Y102.823
X-85.458 Y102.896
X-85.587 Y102.961
X-85.724 Y103.017
X-85.865 Y103.062
X-86.008 Y103.095
X-86.159 Y103.118
X-86.314 Y103.128
X-86.471 Y103.126
X-86.627 Y103.111
X-86.781 Y103.084
X-86.935 Y103.044
X-87.089 Y102.991
X-87.239 Y102.924
X-87.385 Y102.846
X-87.523 Y102.756
X-87.654 Y102.655
X-87.776 Y102.544
X-87.891 Y102.422
X-87.996 Y102.291
X-88.091 Y102.15
X-88.175 Y102.001
X-88.246 Y101.845
X-88.305 Y101.685
X-88.351 Y101.521
X-88.384 Y101.354
X-88.402 Y101.184
X-88.408 Y101.013
X-88.399 Y100.841
X-88.377 Y100.67
X-88.341 Y100.501
X-88.291 Y100.334
X-88.228 Y100.172
X-88.153 Y100.016
X-88.065 Y99.868
X-87.966 Y99.727
X-87.857 Y99.594
X-87.736 Y99.471
X-87.606 Y99.357
X-87.466 Y99.253
X-87.318 Y99.161
X-87.163 Y99.081
X-87.002 Y99.014
X-86.837 Y98.96
X-86.668 Y98.919
X-86.497 Y98.892
X-86.326 Y98.88
X-86.153
X-85.981 Y98.895
X-85.809 Y98.924
X-85.64 Y98.966
X-85.475 Y99.022
X-85.315 Y99.091
X-85.161 Y99.173
X-85.014 Y99.267
X-84.875 Y99.372
X-84.743 Y99.49
X-84.608 Y99.631
X-84.469 Y99.801
X-84.343 Y99.986
X-84.23 Y100.183
X-84.135 Y100.385
X-84.058 Y100.588
X-83.999 Y100.792
X-83.958 Y100.994
X-83.934 Y101.196
X-83.926 Y101.394
X-83.934 Y101.59
X-83.958 Y101.781
X-83.996 Y101.968
X-84.049 Y102.151
X-84.116 Y102.328
X-84.197 Y102.498
X-84.291 Y102.662
X-84.399 Y102.819
X-84.52 Y102.966
X-84.652 Y103.104
X-84.797 Y103.233
X-84.952 Y103.35
X-85.118 Y103.455
X-85.292 Y103.547
X-85.476 Y103.626
X-85.667 Y103.69
X-85.865 Y103.739
X-86.067 Y103.773
X-86.272 Y103.79
X-86.48
X-86.689 Y103.774
X-86.898 Y103.741
X-87.105 Y103.691
X-87.308 Y103.624
X-87.506 Y103.54
X-87.698 Y103.441
X-87.883 Y103.325
X-88.058 Y103.195
X-88.223 Y103.05
X-88.377 Y102.891
X-88.518 Y102.72
X-88.646 Y102.537
X-88.759 Y102.344
X-88.856 Y102.143
X-88.937 Y101.934
X-89 Y101.719
X-89.047 Y101.499
X-89.076 Y101.275
X-89.086 Y101.05
X-89.079 Y100.823
X-89.053 Y100.598
X-89.009 Y100.375
X-88.948 Y100.156
X-88.869 Y99.943
X-88.774 Y99.737
X-88.662 Y99.54
X-88.534 Y99.352
X-88.392 Y99.174
X-88.236 Y99.008
X-88.067 Y98.856
X-87.885 Y98.717
X-87.694 Y98.593
X-87.492 Y98.485
X-87.283 Y98.393
X-87.068 Y98.319
X-86.848 Y98.262
X-86.623 Y98.223
X-86.396 Y98.202
X-86.168 Y98.199
X-85.941 Y98.215
X-85.715 Y98.249
X-85.492 Y98.301
X-85.274 Y98.371
X-85.063 Y98.458
X-84.858 Y98.562
X-84.658 Y98.685
X-84.461 Y98.829
X-84.27 Y98.994
X-84.087 Y99.179
X-83.917 Y99.382
X-83.763 Y99.599
X-83.626 Y99.829
X-83.508 Y100.067
X-83.411 Y100.313
X-83.334 Y100.564
X-83.279 Y100.817
X-83.244 Y101.072
X-83.23 Y101.326
X-83.236 Y101.579
X-83.262 Y101.828
X-83.308 Y102.073
X-83.373 Y102.312
X-83.457 Y102.545
X-83.56 Y102.77
X-83.679 Y102.986
X-83.817 Y103.192
X-83.97 Y103.387
X-84.139 Y103.569
X-84.324 Y103.738
X-84.522 Y103.893
X-84.733 Y104.031
X-84.956 Y104.154
X-85.189 Y104.258
X-85.432 Y104.344
X-85.682 Y104.411
X-85.938 Y104.458
X-86.199 Y104.484
X-86.463 Y104.489
X-86.728 Y104.473
X-86.992 Y104.435
X-87.253 Y104.376
X-87.511 Y104.296
X-87.762 Y104.195
X-88.006 Y104.074
X-88.24 Y103.932
X-88.463 Y103.772
X-88.673 Y103.594
X-88.87 Y103.398
X-89.05 Y103.187
X-89.213 Y102.961
X-89.358 Y102.723
X-89.483 Y102.473
X-89.589 Y102.213
X-89.673 Y101.945
X-89.736 Y101.67
X-89.776 Y101.391
X-89.794 Y101.109
X-89.79 Y100.826
X-89.762 Y100.544
X-89.712 Y100.265
X-89.64 Y99.991
X-89.546 Y99.723
X-89.431 Y99.464
X-89.295 Y99.214
X-89.139 Y98.976
X-88.965 Y98.751
X-88.773 Y98.541
X-88.565 Y98.347
X-88.341 Y98.17
X-88.104 Y98.011
X-87.856 Y97.872
X-87.597 Y97.753
X-87.329 Y97.656
X-87.054 Y97.58
X-86.774 Y97.527
X-86.491 Y97.496
X-86.206 Y97.488
X-85.921 Y97.503
X-85.638 Y97.541
X-85.358 Y97.601
X-85.084 Y97.684
X-84.815 Y97.79
X-84.552 Y97.918
X-84.296 Y98.07
X-84.049 Y98.245
X-83.811 Y98.443
X-83.556 Y98.699
X-83.39 Y98.916
X-83.142 Y99.242
X-82.78 Y100.121
X-82.659 Y101.049
X-82.783 Y101.977
X-83.137 Y102.831
X-83.704 Y103.573
X-84.464 Y104.156
X-85.319 Y104.509
X-86.246 Y104.631
X-87.172 Y104.511
X-88.052 Y104.146
X-88.796 Y103.572
X-89.362 Y102.831
X-89.717 Y101.977
X-89.841 Y101.049
X-89.721 Y100.121
X-89.357 Y99.242
X-88.782 Y98.495
X-88.052 Y97.935
X-87.174 Y97.57
X-86.246 Y97.45
X-85.317 Y97.573
X-84.464 Y97.925
X-83.7 Y98.513
X-83.556 Y98.699
X-83.544 Y98.727 Z-1.194
X-83.534 Y98.75 Z-1.177
X-83.527 Y98.765 Z-1.151
X-83.524 Y98.771 Z-1.121
G0 Z2
X-86.468 Y120.115
Z0.102
G1 Z-0.098 F500
G3 X-86.032 Y121.965 Z-0.202 I0.218 J0.925 F1000
X-86.468 Y120.115 Z-0.306 I-0.218 J-0.925
X-86.032 Y121.965 Z-0.411 I0.218 J0.925
X-86.468 Y120.115 Z-0.515 I-0.218 J-0.925
X-86.032 Y121.965 Z-0.619 I0.218 J0.925
X-86.468 Y120.115 Z-0.723 I-0.218 J-0.925
X-86.032 Y121.965 Z-0.828 I0.218 J0.925
X-86.468 Y120.115 Z-0.932 I-0.218 J-0.925
X-86.032 Y121.965 Z-1.036 I0.218 J0.925
X-86.468 Y120.115 Z-1.14 I-0.218 J-0.925
X-85.3 Y121.04 Z-1.2 I0.218 J0.925
X-87.2 I-0.95 J0
X-85.3 I0.95 J0
G1 X-85.278 Y121.469
X-85.247 Y121.572
X-85.242 Y121.707
X-85.268 Y121.839
X-85.32 Y121.964
X-85.391 Y122.079
X-85.479 Y122.181
X-85.58 Y122.271
X-85.691 Y122.347
X-85.811 Y122.41
X-85.937 Y122.458
X-86.067 Y122.492
X-86.201 Y122.513
X-86.336 Y122.519
X-86.471 Y122.512
X-86.604 Y122.492
X-86.735 Y122.458
X-86.862 Y122.413
X-86.984 Y122.355
X-87.1 Y122.287
X-87.21 Y122.208
X-87.312 Y122.119
X-87.405 Y122.021
X-87.489 Y121.916
X-87.563 Y121.803
X-87.626 Y121.684
X-87.679 Y121.559
X-87.72 Y121.431
X-87.749 Y121.299
X-87.767 Y121.165
X-87.772 Y121.03
X-87.766 Y120.895
X-87.747 Y120.762
X-87.717 Y120.63
X-87.675 Y120.502
X-87.622 Y120.377
X-87.558 Y120.259
X-87.484 Y120.146
X-87.4 Y120.04
X-87.307 Y119.942
X-87.206 Y119.853
X-87.097 Y119.773
X-86.982 Y119.703
X-86.861 Y119.643
X-86.735 Y119.594
X-86.605 Y119.557
X-86.473 Y119.531
X-86.338 Y119.518
X-86.203 Y119.516
X-86.069 Y119.526
X-85.936 Y119.548
X-85.805 Y119.581
X-85.678 Y119.626
X-85.555 Y119.683
X-85.438 Y119.749
X-85.327 Y119.826
X-85.223 Y119.913
X-85.127 Y120.008
X-85.04 Y120.111
X-84.963 Y120.222
X-84.893 Y120.344
X-84.797 Y120.547
X-84.706 Y120.787
X-84.651 Y120.977
X-84.617 Y121.145
X-84.6 Y121.29
X-84.594 Y121.44
X-84.599 Y121.575
X-84.616 Y121.712
X-84.643 Y121.844
X-84.681 Y121.974
X-84.73 Y122.1
X-84.789 Y122.221
X-84.858 Y122.337
X-84.937 Y122.449
X-85.024 Y122.552
X-85.119 Y122.648
X-85.226 Y122.74
X-85.339 Y122.822
X-85.457 Y122.895
X-85.586 Y122.96
X-85.724 Y123.016
X-85.864 Y123.061
X-86.008 Y123.094
X-86.158 Y123.117
X-86.313 Y123.127
X-86.47 Y123.125
X-86.626 Y123.11
X-86.781 Y123.083
X-86.935 Y123.043
X-87.088 Y122.99
X-87.238 Y122.923
X-87.384 Y122.845
X-87.523 Y122.755
X-87.653 Y122.654
X-87.776 Y122.543
X-87.89 Y122.421
X-87.995 Y122.29
X-88.09 Y122.149
X-88.174 Y122
X-88.246 Y121.845
X-88.305 Y121.684
X-88.351 Y121.52
X-88.383 Y121.353
X-88.402 Y121.184
X-88.407 Y121.012
X-88.399 Y120.84
X-88.376 Y120.669
X-88.34 Y120.5
X-88.291 Y120.333
X-88.228 Y120.171
X-88.152 Y120.015
X-88.065 Y119.867
X-87.966 Y119.726
X-87.856 Y119.593
X-87.736 Y119.47
X-87.605 Y119.356
X-87.466 Y119.253
X-87.318 Y119.16
X-87.163 Y119.08
X-87.002 Y119.013
X-86.836 Y118.959
X-86.668 Y118.918
X-86.497 Y118.892
X-86.325 Y118.879
X-86.153 Y118.88
X-85.98 Y118.894
X-85.809 Y118.923
X-85.64 Y118.965
X-85.475 Y119.021
X-85.315 Y119.09
X-85.16 Y119.172
X-85.013 Y119.266
X-84.875 Y119.371
X-84.743 Y119.489
X-84.607 Y119.63
X-84.469 Y119.801
X-84.342 Y119.985
X-84.229 Y120.182
X-84.134 Y120.384
X-84.057 Y120.588
X-83.999 Y120.791
X-83.958 Y120.994
X-83.934 Y121.195
X-83.926 Y121.393
X-83.934 Y121.589
X-83.957 Y121.78
X-83.996 Y121.967
X-84.049 Y122.15
X-84.116 Y122.327
X-84.196 Y122.497
X-84.291 Y122.661
X-84.399 Y122.818
X-84.519 Y122.965
X-84.652 Y123.103
X-84.796 Y123.232
X-84.952 Y123.349
X-85.117 Y123.454
X-85.292 Y123.546
X-85.476 Y123.625
X-85.667 Y123.689
X-85.864 Y123.738
X-86.066 Y123.772
X-86.272 Y123.789
X-86.479
X-86.688 Y123.773
X-86.897 Y123.74
X-87.104 Y123.69
X-87.308 Y123.623
X-87.506 Y123.539
X-87.698 Y123.44
X-87.882 Y123.324
X-88.057 Y123.194
X-88.223 Y123.049
X-88.377 Y122.89
X-88.518 Y122.719
X-88.646 Y122.536
X-88.758 Y122.344
X-88.856 Y122.142
X-88.936 Y121.933
X-89 Y121.718
X-89.046 Y121.498
X-89.075 Y121.274
X-89.086 Y121.049
X-89.078 Y120.822
X-89.053 Y120.597
X-89.009 Y120.374
X-88.948 Y120.155
X-88.869 Y119.942
X-88.773 Y119.736
X-88.661 Y119.539
X-88.534 Y119.351
X-88.392 Y119.173
X-88.235 Y119.008
X-88.066 Y118.855
X-87.885 Y118.716
X-87.693 Y118.592
X-87.492 Y118.484
X-87.283 Y118.392
X-87.068 Y118.318
X-86.847 Y118.261
X-86.623 Y118.222
X-86.396 Y118.201
X-86.168 Y118.198
X-85.94 Y118.214
X-85.714 Y118.248
X-85.491 Y118.3
X-85.274 Y118.37
X-85.062 Y118.457
X-84.858 Y118.561
X-84.658 Y118.684
X-84.461 Y118.828
X-84.269 Y118.993
X-84.087 Y119.178
X-83.917 Y119.381
X-83.762 Y119.598
X-83.625 Y119.828
X-83.508 Y120.066
X-83.411 Y120.312
X-83.334 Y120.563
X-83.278 Y120.817
X-83.243 Y121.071
X-83.229 Y121.325
X-83.236 Y121.578
X-83.262 Y121.827
X-83.308 Y122.072
X-83.373 Y122.311
X-83.457 Y122.544
X-83.559 Y122.769
X-83.679 Y122.985
X-83.816 Y123.191
X-83.97 Y123.386
X-84.139 Y123.568
X-84.323 Y123.737
X-84.521 Y123.892
X-84.732 Y124.031
X-84.955 Y124.153
X-85.189 Y124.257
X-85.431 Y124.343
X-85.681 Y124.41
X-85.938 Y124.457
X-86.198 Y124.483
X-86.462 Y124.488
X-86.727 Y124.472
X-86.991 Y124.434
X-87.253 Y124.375
X-87.51 Y124.295
X-87.762 Y124.194
X-88.005 Y124.073
X-88.24 Y123.931
X-88.463 Y123.771
X-88.673 Y123.593
X-88.869 Y123.397
X-89.049 Y123.186
X-89.213 Y122.96
X-89.357 Y122.722
X-89.483 Y122.472
X-89.588 Y122.212
X-89.673 Y121.944
X-89.735 Y121.67
X-89.776 Y121.39
X-89.794 Y121.108
X-89.789 Y120.825
X-89.762 Y120.543
X-89.712 Y120.264
X-89.64 Y119.99
X-89.546 Y119.722
X-89.43 Y119.463
X-89.294 Y119.213
X-89.139 Y118.975
X-88.965 Y118.751
X-88.773 Y118.54
X-88.564 Y118.346
X-88.341 Y118.169
X-88.104 Y118.01
X-87.855 Y117.871
X-87.596 Y117.752
X-87.329 Y117.655
X-87.054 Y117.579
X-86.774 Y117.526
X-86.49 Y117.495
X-86.205 Y117.487
X-85.92 Y117.502
X-85.637 Y117.54
X-85.358 Y117.6
X-85.083 Y117.683
X-84.814 Y117.789
X-84.551 Y117.918
X-84.296 Y118.069
X-84.048 Y118.244
X-83.811 Y118.442
X-83.566 Y118.687
X-83.39 Y118.916
X-83.131 Y119.263
X-82.779 Y120.119
X-82.659 Y121.046
X-82.782 Y121.973
X-83.136 Y122.828
X-83.715 Y123.584
X-84.464 Y124.155
X-85.319 Y124.508
X-86.246 Y124.631
X-87.174 Y124.51
X-88.052 Y124.146
X-88.783 Y123.585
X-89.346 Y122.858
X-89.444 Y122.639
X-89.718 Y121.973
X-89.841 Y121.043
X-89.72 Y120.118
X-89.359 Y119.243
X-88.793 Y118.506
X-88.052 Y117.935
X-87.174 Y117.571
X-86.246 Y117.45
X-85.319 Y117.573
X-84.464 Y117.926
X-83.705 Y118.508
X-83.566 Y118.687
X-83.553 Y118.714 Z-1.194
X-83.543 Y118.738 Z-1.177
X-83.536 Y118.753 Z-1.151
X-83.534 Y118.758 Z-1.121
G0 Z2
X-58.968 Y100.116
Z0.102
G1 Z-0.098 F500
G3 X-58.533 Y101.965 Z-0.202 I0.218 J0.925 F1000
X-58.968 Y100.116 Z-0.306 I-0.218 J-0.925
X-58.533 Y101.965 Z-0.411 I0.218 J0.925
X-58.968 Y100.116 Z-0.515 I-0.218 J-0.925
X-58.533 Y101.965 Z-0.619 I0.218 J0.925
X-58.968 Y100.116 Z-0.723 I-0.218 J-0.925
X-58.533 Y101.965 Z-0.828 I0.218 J0.925
X-58.968 Y100.116 Z-0.932 I-0.218 J-0.925
X-58.533 Y101.965 Z-1.036 I0.218 J0.925
X-58.968 Y100.116 Z-1.14 I-0.218 J-0.925
X-57.801 Y101.041 Z-1.2 I0.218 J0.925
X-59.701 I-0.95 J0
X-57.801 I0.95 J0
G1 X-57.779 Y101.47
X-57.748 Y101.573
X-57.743 Y101.708
X-57.769 Y101.84
X-57.82 Y101.965
X-57.892 Y102.08
X-57.98 Y102.182
X-58.08 Y102.272
X-58.192 Y102.348
X-58.312 Y102.411
X-58.438 Y102.459
X-58.568 Y102.493
X-58.702 Y102.514
X-58.836 Y102.52
X-58.971 Y102.513
X-59.105 Y102.493
X-59.236 Y102.459
X-59.363 Y102.414
X-59.485 Y102.356
X-59.601 Y102.288
X-59.711 Y102.209
X-59.812 Y102.12
X-59.905 Y102.022
X-59.989 Y101.917
X-60.063 Y101.804
X-60.127 Y101.684
X-60.179 Y101.56
X-60.22 Y101.431
X-60.25 Y101.3
X-60.268 Y101.166
X-60.273 Y101.031
X-60.267 Y100.896
X-60.248 Y100.762
X-60.218 Y100.631
X-60.176 Y100.503
X-60.123 Y100.378
X-60.059 Y100.259
X-59.985 Y100.147
X-59.901 Y100.041
X-59.808 Y99.943
X-59.707 Y99.854
X-59.598 Y99.774
X-59.483 Y99.704
X-59.362 Y99.644
X-59.236 Y99.595
X-59.106 Y99.558
X-58.973 Y99.532
X-58.839 Y99.519
X-58.704 Y99.517
X-58.57 Y99.527
X-58.436 Y99.549
X-58.306 Y99.582
X-58.178 Y99.627
X-58.056 Y99.684
X-57.938 Y99.75
X-57.827 Y99.827
X-57.724 Y99.914
X-57.628 Y100.009
X-57.541 Y100.112
X-57.464 Y100.223
X-57.394 Y100.345
X-57.298 Y100.548
X-57.207 Y100.788
X-57.152 Y100.978
X-57.118 Y101.146
X-57.1 Y101.291
X-57.094 Y101.441
X-57.1 Y101.576
X-57.117 Y101.713
X-57.144 Y101.845
X-57.182 Y101.975
X-57.231 Y102.101
X-57.29 Y102.222
X-57.358 Y102.338
X-57.438 Y102.45
X-57.524 Y102.553
X-57.619 Y102.649
X-57.726 Y102.741
X-57.84 Y102.823
X-57.958 Y102.896
X-58.087 Y102.961
X-58.225 Y103.017
X-58.365 Y103.062
X-58.509 Y103.095
X-58.659 Y103.118
X-58.814 Y103.128
X-58.971 Y103.126
X-59.127 Y103.111
X-59.281 Y103.084
X-59.436 Y103.044
X-59.589 Y102.991
X-59.739 Y102.924
X-59.885 Y102.846
X-60.023 Y102.756
X-60.154 Y102.655
X-60.277 Y102.544
X-60.391 Y102.422
X-60.496 Y102.291
X-60.591 Y102.15
X-60.675 Y102.001
X-60.747 Y101.845
X-60.806 Y101.685
X-60.851 Y101.521
X-60.884 Y101.354
X-60.903 Y101.184
X-60.908 Y101.013
X-60.9 Y100.841
X-60.877 Y100.67
X-60.841 Y100.501
X-60.791 Y100.334
X-60.728 Y100.172
X-60.653 Y100.016
X-60.565 Y99.868
X-60.467 Y99.727
X-60.357 Y99.594
X-60.236 Y99.471
X-60.106 Y99.357
X-59.966 Y99.253
X-59.819 Y99.161
X-59.664 Y99.081
X-59.503 Y99.014
X-59.337 Y98.96
X-59.169 Y98.919
X-58.998 Y98.892
X-58.826 Y98.88
X-58.653
X-58.481 Y98.895
X-58.31 Y98.924
X-58.141 Y98.966
X-57.976 Y99.022
X-57.815 Y99.091
X-57.661 Y99.173
X-57.514 Y99.267
X-57.375 Y99.372
X-57.243 Y99.49
X-57.108 Y99.631
X-56.97 Y99.801
X-56.843 Y99.986
X-56.73 Y100.183
X-56.635 Y100.384
X-56.558 Y100.588
X-56.5 Y100.792
X-56.459 Y100.994
X-56.434 Y101.196
X-56.427 Y101.394
X-56.435 Y101.59
X-56.458 Y101.781
X-56.496 Y101.968
X-56.549 Y102.151
X-56.616 Y102.328
X-56.697 Y102.498
X-56.792 Y102.662
X-56.9 Y102.819
X-57.02 Y102.966
X-57.152 Y103.104
X-57.297 Y103.233
X-57.453 Y103.35
X-57.618 Y103.455
X-57.793 Y103.547
X-57.976 Y103.626
X-58.168 Y103.69
X-58.365 Y103.739
X-58.567 Y103.773
X-58.772 Y103.79
X-58.98
X-59.189 Y103.774
X-59.398 Y103.741
X-59.605 Y103.691
X-59.808 Y103.624
X-60.007 Y103.54
X-60.199 Y103.441
X-60.383 Y103.325
X-60.558 Y103.195
X-60.723 Y103.05
X-60.877 Y102.891
X-61.019 Y102.72
X-61.146 Y102.537
X-61.259 Y102.344
X-61.356 Y102.143
X-61.437 Y101.934
X-61.501 Y101.719
X-61.547 Y101.499
X-61.576 Y101.275
X-61.587 Y101.05
X-61.579 Y100.823
X-61.553 Y100.598
X-61.51 Y100.375
X-61.448 Y100.156
X-61.369 Y99.943
X-61.274 Y99.737
X-61.162 Y99.54
X-61.035 Y99.352
X-60.892 Y99.174
X-60.736 Y99.008
X-60.567 Y98.856
X-60.386 Y98.717
X-60.194 Y98.593
X-59.993 Y98.485
X-59.784 Y98.393
X-59.568 Y98.319
X-59.348 Y98.262
X-59.124 Y98.223
X-58.897 Y98.202
X-58.669 Y98.199
X-58.441 Y98.215
X-58.215 Y98.249
X-57.992 Y98.301
X-57.774 Y98.371
X-57.563 Y98.458
X-57.358 Y98.562
X-57.159 Y98.685
X-56.961 Y98.829
X-56.77 Y98.994
X-56.588 Y99.179
X-56.418 Y99.382
X-56.263 Y99.599
X-56.126 Y99.829
X-56.009 Y100.067
X-55.911 Y100.313
X-55.835 Y100.564
X-55.779 Y100.817
X-55.744 Y101.072
X-55.73 Y101.326
X-55.736 Y101.579
X-55.763 Y101.828
X-55.809 Y102.073
X-55.874 Y102.312
X-55.958 Y102.545
X-56.06 Y102.77
X-56.18 Y102.986
X-56.317 Y103.192
X-56.47 Y103.387
X-56.64 Y103.569
X-56.824 Y103.738
X-57.022 Y103.893
X-57.233 Y104.031
X-57.456 Y104.154
X-57.689 Y104.258
X-57.932 Y104.344
X-58.182 Y104.411
X-58.438 Y104.458
X-58.699 Y104.484
X-58.963 Y104.489
X-59.228 Y104.473
X-59.492 Y104.435
X-59.754 Y104.376
X-60.011 Y104.296
X-60.263 Y104.195
X-60.506 Y104.074
X-60.74 Y103.932
X-60.963 Y103.772
X-61.174 Y103.593
X-61.37 Y103.398
X-61.55 Y103.187
X-61.713 Y102.961
X-61.858 Y102.723
X-61.984 Y102.473
X-62.089 Y102.213
X-62.173 Y101.945
X-62.236 Y101.67
X-62.277 Y101.391
X-62.295 Y101.109
X-62.29 Y100.826
X-62.263 Y100.544
X-62.213 Y100.265
X-62.14 Y99.991
X-62.046 Y99.723
X-61.931 Y99.464
X-61.795 Y99.214
X-61.64 Y98.976
X-61.465 Y98.751
X-61.273 Y98.541
X-61.065 Y98.347
X-60.842 Y98.17
X-60.605 Y98.011
X-60.356 Y97.872
X-60.097 Y97.753
X-59.829 Y97.656
X-59.555 Y97.58
X-59.275 Y97.527
X-58.991 Y97.496
X-58.706 Y97.488
X-58.421 Y97.503
X-58.138 Y97.541
X-57.859 Y97.601
X-57.584 Y97.684
X-57.315 Y97.79
X-57.052 Y97.918
X-56.796 Y98.07
X-56.549 Y98.245
X-56.312 Y98.443
X-56.054 Y98.702
X-55.865 Y98.949
X-55.643 Y99.242
X-55.279 Y100.121
X-55.159 Y101.049
X-55.283 Y101.977
X-55.638 Y102.831
X-56.207 Y103.575
X-56.956 Y104.151
X-57.833 Y104.512
X-58.738 Y104.631
X-59.665 Y104.512
X-60.544 Y104.152
X-61.275 Y103.592
X-61.52 Y103.282
X-61.862 Y102.831
X-62.217 Y101.977
X-62.341 Y101.049
X-62.221 Y100.121
X-61.858 Y99.242
X-61.282 Y98.495
X-60.544 Y97.929
X-59.665 Y97.569
X-58.738 Y97.45
X-57.81 Y97.575
X-56.956 Y97.93
X-56.224 Y98.489
X-56.054 Y98.702
X-56.042 Y98.73 Z-1.194
X-56.031 Y98.753 Z-1.177
X-56.024 Y98.768 Z-1.151
X-56.022 Y98.774 Z-1.121
G0 Z2
X-58.967 Y120.116
Z0.102
G1 Z-0.098 F500
G3 X-58.532 Y121.965 Z-0.202 I0.218 J0.925 F1000
X-58.967 Y120.116 Z-0.306 I-0.218 J-0.925
X-58.532 Y121.965 Z-0.411 I0.218 J0.925
X-58.967 Y120.116 Z-0.515 I-0.218 J-0.925
X-58.532 Y121.965 Z-0.619 I0.218 J0.925
X-58.967 Y120.116 Z-0.723 I-0.218 J-0.925
X-58.532 Y121.965 Z-0.828 I0.218 J0.925
X-58.967 Y120.116 Z-0.932 I-0.218 J-0.925
X-58.532 Y121.965 Z-1.036 I0.218 J0.925
X-58.967 Y120.116 Z-1.14 I-0.218 J-0.925
X-57.8 Y121.041 Z-1.2 I0.218 J0.925
X-59.7 I-0.95 J0
X-57.8 I0.95 J0
G1 X-57.778 Y121.47
X-57.747 Y121.573
X-57.741 Y121.708
X-57.768 Y121.84
X-57.819 Y121.965
X-57.891 Y122.079
X-57.979 Y122.182
X-58.079 Y122.272
X-58.191 Y122.348
X-58.31 Y122.41
X-58.436 Y122.459
X-58.567 Y122.493
X-58.7 Y122.513
X-58.835 Y122.52
X-58.97 Y122.513
X-59.104 Y122.492
X-59.234 Y122.459
X-59.362 Y122.413
X-59.484 Y122.356
X-59.6 Y122.288
X-59.709 Y122.208
X-59.811 Y122.12
X-59.904 Y122.022
X-59.988 Y121.916
X-60.062 Y121.803
X-60.126 Y121.684
X-60.178 Y121.56
X-60.219 Y121.431
X-60.249 Y121.3
X-60.266 Y121.166
X-60.272 Y121.031
X-60.266 Y120.896
X-60.247 Y120.762
X-60.217 Y120.631
X-60.175 Y120.502
X-60.122 Y120.378
X-60.058 Y120.259
X-59.984 Y120.146
X-59.9 Y120.041
X-59.807 Y119.943
X-59.706 Y119.853
X-59.597 Y119.773
X-59.482 Y119.703
X-59.361 Y119.644
X-59.235 Y119.595
X-59.105 Y119.558
X-58.972 Y119.532
X-58.838 Y119.518
X-58.703 Y119.516
X-58.568 Y119.527
X-58.435 Y119.548
X-58.304 Y119.582
X-58.177 Y119.627
X-58.054 Y119.683
X-57.937 Y119.75
X-57.826 Y119.827
X-57.722 Y119.913
X-57.627 Y120.009
X-57.54 Y120.112
X-57.463 Y120.223
X-57.392 Y120.345
X-57.296 Y120.548
X-57.206 Y120.788
X-57.151 Y120.978
X-57.117 Y121.145
X-57.099 Y121.291
X-57.093 Y121.441
X-57.099 Y121.576
X-57.116 Y121.713
X-57.143 Y121.845
X-57.181 Y121.975
X-57.23 Y122.1
X-57.288 Y122.222
X-57.357 Y122.338
X-57.437 Y122.449
X-57.523 Y122.553
X-57.618 Y122.649
X-57.725 Y122.741
X-57.838 Y122.823
X-57.957 Y122.895
X-58.086 Y122.961
X-58.224 Y123.017
X-58.364 Y123.062
X-58.508 Y123.095
X-58.658 Y123.117
X-58.813 Y123.128
X-58.97 Y123.126
X-59.126 Y123.111
X-59.28 Y123.084
X-59.435 Y123.044
X-59.588 Y122.99
X-59.738 Y122.924
X-59.884 Y122.845
X-60.022 Y122.755
X-60.153 Y122.655
X-60.276 Y122.544
X-60.39 Y122.422
X-60.495 Y122.29
X-60.59 Y122.15
X-60.674 Y122.001
X-60.746 Y121.845
X-60.805 Y121.685
X-60.85 Y121.52
X-60.883 Y121.353
X-60.902 Y121.184
X-60.907 Y121.013
X-60.898 Y120.841
X-60.876 Y120.67
X-60.84 Y120.5
X-60.79 Y120.334
X-60.727 Y120.172
X-60.652 Y120.016
X-60.564 Y119.867
X-60.465 Y119.726
X-60.356 Y119.594
X-60.235 Y119.471
X-60.105 Y119.357
X-59.965 Y119.253
X-59.818 Y119.161
X-59.663 Y119.081
X-59.502 Y119.014
X-59.336 Y118.96
X-59.167 Y118.919
X-58.997 Y118.892
X-58.825 Y118.879
X-58.652 Y118.88
X-58.48 Y118.895
X-58.308 Y118.924
X-58.14 Y118.966
X-57.974 Y119.022
X-57.814 Y119.091
X-57.66 Y119.173
X-57.513 Y119.266
X-57.374 Y119.371
X-57.242 Y119.489
X-57.107 Y119.631
X-56.969 Y119.801
X-56.842 Y119.986
X-56.729 Y120.182
X-56.634 Y120.384
X-56.557 Y120.588
X-56.498 Y120.791
X-56.457 Y120.994
X-56.433 Y121.196
X-56.425 Y121.394
X-56.433 Y121.589
X-56.457 Y121.781
X-56.495 Y121.968
X-56.548 Y122.151
X-56.615 Y122.328
X-56.696 Y122.498
X-56.791 Y122.662
X-56.899 Y122.818
X-57.019 Y122.966
X-57.151 Y123.104
X-57.296 Y123.233
X-57.452 Y123.35
X-57.617 Y123.455
X-57.792 Y123.547
X-57.975 Y123.626
X-58.166 Y123.69
X-58.364 Y123.739
X-58.566 Y123.772
X-58.771 Y123.79
X-58.979
X-59.188 Y123.774
X-59.397 Y123.741
X-59.604 Y123.691
X-59.807 Y123.624
X-60.006 Y123.54
X-60.197 Y123.44
X-60.382 Y123.325
X-60.557 Y123.194
X-60.722 Y123.05
X-60.876 Y122.891
X-61.018 Y122.72
X-61.145 Y122.537
X-61.258 Y122.344
X-61.355 Y122.143
X-61.436 Y121.934
X-61.5 Y121.719
X-61.546 Y121.499
X-61.575 Y121.275
X-61.585 Y121.049
X-61.578 Y120.823
X-61.552 Y120.597
X-61.509 Y120.374
X-61.447 Y120.156
X-61.368 Y119.943
X-61.273 Y119.737
X-61.161 Y119.539
X-61.034 Y119.351
X-60.891 Y119.174
X-60.735 Y119.008
X-60.566 Y118.855
X-60.385 Y118.716
X-60.193 Y118.592
X-59.992 Y118.484
X-59.783 Y118.393
X-59.567 Y118.318
X-59.347 Y118.262
X-59.122 Y118.223
X-58.896 Y118.202
X-58.667 Y118.199
X-58.44 Y118.215
X-58.214 Y118.249
X-57.991 Y118.301
X-57.773 Y118.371
X-57.562 Y118.458
X-57.357 Y118.562
X-57.157 Y118.685
X-56.96 Y118.829
X-56.769 Y118.994
X-56.587 Y119.179
X-56.416 Y119.381
X-56.262 Y119.599
X-56.125 Y119.828
X-56.008 Y120.067
X-55.91 Y120.313
X-55.834 Y120.564
X-55.778 Y120.817
X-55.743 Y121.072
X-55.729 Y121.326
X-55.735 Y121.578
X-55.762 Y121.828
X-55.807 Y122.072
X-55.873 Y122.312
X-55.957 Y122.545
X-56.059 Y122.769
X-56.179 Y122.985
X-56.316 Y123.191
X-56.469 Y123.386
X-56.639 Y123.569
X-56.823 Y123.738
X-57.021 Y123.892
X-57.232 Y124.031
X-57.455 Y124.153
X-57.688 Y124.258
X-57.931 Y124.344
X-58.181 Y124.411
X-58.437 Y124.457
X-58.698 Y124.484
X-58.962 Y124.489
X-59.227 Y124.473
X-59.491 Y124.435
X-59.753 Y124.376
X-60.01 Y124.296
X-60.261 Y124.195
X-60.505 Y124.073
X-60.739 Y123.932
X-60.962 Y123.772
X-61.173 Y123.593
X-61.369 Y123.398
X-61.549 Y123.187
X-61.712 Y122.961
X-61.857 Y122.722
X-61.983 Y122.472
X-62.088 Y122.213
X-62.172 Y121.945
X-62.235 Y121.67
X-62.275 Y121.391
X-62.294 Y121.109
X-62.289 Y120.826
X-62.261 Y120.544
X-62.211 Y120.265
X-62.139 Y119.991
X-62.045 Y119.723
X-61.93 Y119.464
X-61.794 Y119.214
X-61.638 Y118.976
X-61.464 Y118.751
X-61.272 Y118.541
X-61.064 Y118.346
X-60.84 Y118.169
X-60.604 Y118.011
X-60.355 Y117.872
X-60.096 Y117.753
X-59.828 Y117.656
X-59.553 Y117.58
X-59.273 Y117.526
X-58.99 Y117.496
X-58.705 Y117.488
X-58.42 Y117.503
X-58.137 Y117.541
X-57.857 Y117.601
X-57.583 Y117.684
X-57.314 Y117.79
X-57.051 Y117.918
X-56.795 Y118.07
X-56.548 Y118.244
X-56.31 Y118.442
X-56.064 Y118.689
X-55.857 Y118.959
X-55.631 Y119.263
X-55.28 Y120.118
X-55.159 Y121.046
X-55.278 Y121.955
X-55.646 Y122.846
X-56.221 Y123.589
X-56.948 Y124.146
X-57.834 Y124.513
X-58.738 Y124.631
X-59.665 Y124.512
X-60.552 Y124.146
X-61.287 Y123.582
X-61.864 Y122.828
X-62.218 Y121.973
X-62.341 Y121.046
X-62.217 Y120.106
X-61.869 Y119.263
X-61.618 Y118.926
X-61.3 Y118.513
X-60.544 Y117.93
X-59.665 Y117.569
X-58.738 Y117.45
X-57.81 Y117.575
X-56.956 Y117.93
X-56.207 Y118.506
X-56.064 Y118.689
X-56.052 Y118.716 Z-1.194
X-56.041 Y118.739 Z-1.177
X-56.034 Y118.755 Z-1.151
X-56.032 Y118.76 Z-1.121
G0 Z2
X-85.069 Y102.919
Z-0.6
G1 Z-0.8 F500
X-85.063 Y102.923 Z-0.852
X-85.047 Y102.936 Z-0.9
X-85.022 Y102.955 Z-0.941
X-84.99 Y102.981 Z-0.973
X-84.952 Y103.011 Z-0.993
X-84.911 Y103.043 Z-1
G3 X-84.124 Y103.811 I-3.153 J4.016
G1 X-84.042 Y103.918 F1000
X-84.049 Y104.014
X-84.088 Y104.101
X-84.153 Y104.172
X-84.367 Y104.33
X-85.282 Y104.705
X-86.246 Y104.831
X-87.247 Y104.698
X-88.15 Y104.321
X-88.938 Y103.713
X-89.541 Y102.921
X-89.911 Y102.025
X-90.041 Y101.049
X-89.915 Y100.072
X-89.532 Y99.144
X-88.933 Y98.363
X-88.174 Y97.777
X-88.077 Y97.727
X-87.226 Y97.377
X-86.246 Y97.25
X-85.27 Y97.379
X-84.346 Y97.762
X-83.566 Y98.363
X-82.967 Y99.144
X-82.585 Y100.072
X-82.459 Y101.049
X-82.589 Y102.025
X-82.963 Y102.929
X-83.559 Y103.71
X-84.153 Y104.172
X-84.18 Y104.184 Z-0.994
X-84.203 Y104.194 Z-0.977
X-84.219 Y104.201 Z-0.951
X-84.224 Y104.204 Z-0.921
G0 Z2
X-88.37 Y121.696
Z-0.6
G1 Z-0.8 F500
X-88.376 Y121.7 Z-0.852
X-88.392 Y121.712 Z-0.9
X-88.417 Y121.731 Z-0.941
X-88.45 Y121.756 Z-0.973
X-88.489 Y121.785 Z-0.993
X-88.53 Y121.816 Z-1
G3 X-89.476 Y122.377 I-3.063 J-4.085
G1 X-89.601 Y122.429 F1000
X-89.691 Y122.397
X-89.766 Y122.337
X-89.817 Y122.256
X-89.912 Y122.022
X-90.041 Y121.046
X-89.907 Y120.045
X-89.529 Y119.138
X-88.928 Y118.358
X-88.15 Y117.76
X-87.222 Y117.376
X-86.246 Y117.25
X-85.27 Y117.378
X-84.349 Y117.76
X-83.565 Y118.365
X-83 Y119.099
X-82.957 Y119.166
X-82.586 Y120.069
X-82.459 Y121.046
X-82.593 Y122.038
X-82.961 Y122.926
X-83.565 Y123.717
X-84.367 Y124.33
X-85.27 Y124.703
X-86.25 Y124.831
X-87.247 Y124.698
X-88.141 Y124.325
X-88.941 Y123.71
X-89.506 Y122.975
X-89.56 Y122.877
X-89.817 Y122.256
X-89.822 Y122.227 Z-0.994
X-89.827 Y122.203 Z-0.978
X-89.83 Y122.186 Z-0.954
Y122.179 Z-0.921
G0 Z2
X-59.405 Y98.92
Z-0.6
G1 Z-0.8 F500
X-59.409 Y98.915 Z-0.852
X-59.421 Y98.899 Z-0.9
X-59.44 Y98.874 Z-0.941
X-59.465 Y98.84 Z-0.973
X-59.494 Y98.802 Z-0.993
X-59.525 Y98.76 Z-1
G3 X-60.086 Y97.814 I4.085 J-3.063
G1 X-60.138 Y97.69 F1000
X-60.106 Y97.599
X-60.046 Y97.524
X-59.965 Y97.473
X-59.71 Y97.374
X-58.738 Y97.25
X-57.778 Y97.376
X-56.858 Y97.756
X-56.066 Y98.363
X-55.467 Y99.146
X-55.085 Y100.072
X-54.959 Y101.049
X-55.089 Y102.025
X-55.467 Y102.935
X-56.069 Y103.72
X-56.871 Y104.332
X-57.786 Y104.706
X-58.738 Y104.831
X-59.722 Y104.704
X-60.65 Y104.321
X-61.423 Y103.728
X-62.037 Y102.929
X-62.413 Y102.018
X-62.541 Y101.049
X-62.408 Y100.048
X-62.033 Y99.144
X-61.423 Y98.353
X-60.641 Y97.755
X-59.965 Y97.473
X-59.937 Y97.468 Z-0.994
X-59.912 Y97.464 Z-0.978
X-59.895 Y97.461 Z-0.954
X-59.888 Z-0.921
G0 Z2
X-56.63 Y120.386
Z-0.6
G1 Z-0.8 F500
X-56.624 Y120.381 Z-0.852
X-56.608 Y120.369 Z-0.9
X-56.583 Y120.35 Z-0.941
X-56.55 Y120.326 Z-0.973
X-56.511 Y120.297 Z-0.993
X-56.47 Y120.266 Z-1
G3 X-55.524 Y119.704 I3.063 J4.085
G1 X-55.399 Y119.653 F1000
X-55.309 Y119.684
X-55.234 Y119.744
X-55.183 Y119.825
X-55.087 Y120.067
X-54.959 Y121.046
X-55.088 Y122.022
X-55.467 Y122.935
X-56.053 Y123.703
X-56.248 Y123.861
X-56.863 Y124.328
X-57.761 Y124.701
X-58.75 Y124.831
X-59.738 Y124.7
X-60.641 Y124.326
X-61.423 Y123.728
X-62.039 Y122.924
X-62.41 Y122.028
X-62.541 Y121.046
X-62.407 Y120.045
X-62.029 Y119.138
X-61.423 Y118.353
X-60.641 Y117.755
X-59.738 Y117.381
X-58.738 Y117.25
X-57.761 Y117.381
X-56.858 Y117.755
X-56.077 Y118.354
X-55.467 Y119.146
X-55.183 Y119.825
X-55.178 Y119.854 Z-0.994
X-55.173 Y119.878 Z-0.978
X-55.17 Y119.895 Z-0.954
Y119.902 Z-0.921
G0 Z2
X-86.36 Y98.622
Z-0.4
G1 Z-0.6 F500
X-86.363 Y98.616 Z-0.652
X-86.37 Y98.597 Z-0.7
X-86.382 Y98.567 Z-0.741
X-86.398 Y98.529 Z-0.773
X-86.416 Y98.484 Z-0.793
X-86.435 Y98.436 Z-0.8
G3 X-86.732 Y97.377 I4.739 J-1.902
G1 X-86.75 Y97.243 F1000
X-86.696 Y97.167
X-86.621 Y97.112
X-86.531 Y97.085
X-86.246 Y97.05
X-85.199 Y97.191
X-84.261 Y97.582
X-83.439 Y98.208
X-82.793 Y99.047
X-82.392 Y100.023
X-82.259 Y101.049
X-82.395 Y102.074
X-82.789 Y103.026
X-83.422 Y103.855
X-84.171 Y104.436
X-84.295 Y104.516
X-85.221 Y104.897
X-86.246 Y105.031
X-87.296 Y104.892
X-88.255 Y104.491
X-89.078 Y103.856
X-89.71 Y103.03
X-90.105 Y102.074
X-90.241 Y101.049
X-90.102 Y99.999
X-89.708 Y99.047
X-89.085 Y98.234
X-88.627 Y97.875
X-88.241 Y97.582
X-87.271 Y97.182
X-86.531 Y97.085
X-86.512 Y97.084 Z-0.798
X-86.482 Y97.088 Z-0.782
X-86.461 Y97.091 Z-0.755
X-86.454 Y97.092 Z-0.721
G0 Z2
X-86.36 Y118.622
Z-0.4
G1 Z-0.6 F500
X-86.363 Y118.616 Z-0.652
X-86.37 Y118.597 Z-0.7
X-86.382 Y118.567 Z-0.741
X-86.398 Y118.529 Z-0.773
X-86.416 Y118.484 Z-0.793
X-86.435 Y118.436 Z-0.8
G3 X-86.732 Y117.377 I4.739 J-1.902
G1 X-86.75 Y117.243 F1000
X-86.696 Y117.167
X-86.621 Y117.112
X-86.531 Y117.085
X-86.246 Y117.05
X-85.221 Y117.184
X-84.248 Y117.588
X-83.422 Y118.227
X-82.805 Y119.028
X-82.609 Y119.485
X-82.397 Y120
X-82.259 Y121.046
X-82.395 Y122.071
X-82.782 Y123.014
X-82.902 Y123.181
X-83.42 Y123.854
X-84.269 Y124.505
X-85.221 Y124.896
X-86.267 Y125.031
X-87.296 Y124.892
X-88.248 Y124.495
X-89.08 Y123.854
X-89.713 Y123.023
X-90.105 Y122.071
X-90.241 Y121.046
X-90.102 Y119.996
X-89.705 Y119.044
X-89.076 Y118.223
X-88.248 Y117.587
X-87.271 Y117.182
X-86.531 Y117.085
X-86.512 Y117.084 Z-0.798
X-86.482 Y117.088 Z-0.782
X-86.461 Y117.091 Z-0.755
X-86.454 Y117.092 Z-0.721
G0 Z2
X-56.6 Y102.154
Z-0.4
G1 Z-0.6 F500
X-56.593 Y102.155 Z-0.652
X-56.574 Y102.158 Z-0.7
X-56.542 Y102.163 Z-0.741
X-56.501 Y102.168 Z-0.773
X-56.453 Y102.175 Z-0.793
X-56.402 Y102.183 Z-0.8
G3 X-55.336 Y102.455 I-0.722 J5.055
G1 X-55.211 Y102.506 F1000
X-55.172 Y102.591
X-55.162 Y102.684
X-55.183 Y102.775
X-55.303 Y103.051
X-55.924 Y103.859
X-56.765 Y104.503
X-57.712 Y104.895
X-58.738 Y105.031
X-59.787 Y104.895
X-60.739 Y104.5
X-61.581 Y103.853
X-62.204 Y103.04
X-62.605 Y102.074
X-62.741 Y101.049
X-62.603 Y100
X-62.204 Y99.041
X-61.565 Y98.213
X-60.739 Y97.581
X-59.801 Y97.191
X-58.738 Y97.05
X-57.699 Y97.191
X-56.759 Y97.582
X-55.955 Y98.195
X-55.857 Y98.307
X-55.293 Y99.047
X-54.891 Y100.023
X-54.759 Y101.049
X-54.895 Y102.074
X-55.183 Y102.775
X-55.201 Y102.799 Z-0.794
X-55.216 Y102.82 Z-0.777
X-55.225 Y102.833 Z-0.751
X-55.229 Y102.838 Z-0.721
G0 Z2
X-56.6 Y122.154
Z-0.4
G1 Z-0.6 F500
X-56.593 Y122.155 Z-0.652
X-56.574 Y122.158 Z-0.7
X-56.542 Y122.163 Z-0.741
X-56.501 Y122.168 Z-0.773
X-56.453 Y122.175 Z-0.793
X-56.402 Y122.183 Z-0.8
G3 X-55.336 Y122.455 I-0.722 J5.055
G1 X-55.212 Y122.506 F1000
X-55.172 Y122.591
X-55.162 Y122.684
X-55.183 Y122.775
X-55.303 Y123.051
X-55.919 Y123.854
X-56.761 Y124.5
X-57.712 Y124.895
X-58.738 Y125.031
X-59.787 Y124.894
X-60.739 Y124.5
X-61.58 Y123.854
X-62.204 Y123.04
X-62.605 Y122.071
X-62.741 Y121.046
X-62.605 Y120.01
X-62.204 Y119.041
X-61.561 Y118.208
X-60.739 Y117.58
X-59.785 Y117.186
X-58.738 Y117.05
X-57.712 Y117.187
X-56.761 Y117.582
X-55.932 Y118.216
X-55.294 Y119.044
X-54.899 Y119.996
X-54.759 Y121.046
X-54.894 Y122.071
X-55.183 Y122.775
X-55.201 Y122.799 Z-0.794
X-55.216 Y122.82 Z-0.777
X-55.225 Y122.834 Z-0.751
X-55.229 Y122.838 Z-0.721
G0 Z2
X-86.412 Y100.105
Z-0.5
G1 Z-0.7 F500
G3 X-86.089 Y101.977 Z-0.804 I0.162 J0.936 F1000
X-86.412 Y100.105 Z-0.908 I-0.162 J-0.936
X-86.089 Y101.977 Z-1.013 I0.162 J0.936
X-86.412 Y100.105 Z-1.117 I-0.162 J-0.936
X-86.089 Y101.977 Z-1.221 I0.162 J0.936
X-86.412 Y100.105 Z-1.325 I-0.162 J-0.936
X-86.089 Y101.977 Z-1.43 I0.162 J0.936
X-86.412 Y100.105 Z-1.534 I-0.162 J-0.936
X-86.089 Y101.977 Z-1.638 I0.162 J0.936
X-86.412 Y100.105 Z-1.742 I-0.162 J-0.936
X-85.3 Y101.041 Z-1.8 I0.162 J0.936
X-87.2 I-0.95 J0
X-85.3 I0.95 J0
G1 X-85.278 Y101.47
X-85.248 Y101.573
X-85.242 Y101.708
X-85.269 Y101.841
X-85.32 Y101.965
X-85.392 Y102.08
X-85.479 Y102.183
X-85.58 Y102.272
X-85.692 Y102.349
X-85.811 Y102.411
X-85.937 Y102.459
X-86.068 Y102.494
X-86.201 Y102.514
X-86.336 Y102.52
X-86.471 Y102.513
X-86.604 Y102.493
X-86.735 Y102.46
X-86.862 Y102.414
X-86.985 Y102.357
X-87.101 Y102.288
X-87.21 Y102.209
X-87.312 Y102.12
X-87.405 Y102.023
X-87.489 Y101.917
X-87.563 Y101.804
X-87.627 Y101.685
X-87.679 Y101.56
X-87.72 Y101.432
X-87.75 Y101.3
X-87.767 Y101.166
X-87.773 Y101.031
X-87.766 Y100.897
X-87.748 Y100.763
X-87.718 Y100.631
X-87.676 Y100.503
X-87.623 Y100.379
X-87.559 Y100.26
X-87.485 Y100.147
X-87.401 Y100.041
X-87.308 Y99.943
X-87.207 Y99.854
X-87.098 Y99.774
X-86.983 Y99.704
X-86.861 Y99.644
X-86.735 Y99.596
X-86.606 Y99.558
X-86.473 Y99.533
X-86.339 Y99.519
X-86.204 Y99.517
X-86.069 Y99.527
X-85.936 Y99.549
X-85.805 Y99.583
X-85.678 Y99.628
X-85.555 Y99.684
X-85.438 Y99.751
X-85.327 Y99.828
X-85.223 Y99.914
X-85.128 Y100.009
X-85.041 Y100.113
X-84.963 Y100.223
X-84.893 Y100.345
X-84.797 Y100.548
X-84.707 Y100.788
X-84.652 Y100.978
X-84.618 Y101.146
X-84.6 Y101.292
X-84.594 Y101.441
X-84.6 Y101.576
X-84.616 Y101.713
X-84.644 Y101.846
X-84.682 Y101.975
X-84.73 Y102.101
X-84.789 Y102.223
X-84.858 Y102.339
X-84.937 Y102.45
X-85.024 Y102.553
X-85.119 Y102.649
X-85.226 Y102.741
X-85.339 Y102.823
X-85.458 Y102.896
X-85.587 Y102.961
X-85.724 Y103.018
X-85.865 Y103.062
X-86.008 Y103.096
X-86.159 Y103.118
X-86.314 Y103.128
X-86.471 Y103.126
X-86.627 Y103.112
X-86.781 Y103.084
X-86.935 Y103.044
X-87.089 Y102.991
X-87.239 Y102.925
X-87.385 Y102.846
X-87.523 Y102.756
X-87.654 Y102.655
X-87.776 Y102.544
X-87.891 Y102.423
X-87.996 Y102.291
X-88.091 Y102.15
X-88.175 Y102.001
X-88.246 Y101.846
X-88.305 Y101.685
X-88.351 Y101.521
X-88.384 Y101.354
X-88.402 Y101.185
X-88.408 Y101.014
X-88.399 Y100.842
X-88.377 Y100.67
X-88.341 Y100.501
X-88.291 Y100.334
X-88.228 Y100.173
X-88.153 Y100.017
X-88.065 Y99.868
X-87.966 Y99.727
X-87.857 Y99.595
X-87.736 Y99.471
X-87.606 Y99.357
X-87.466 Y99.254
X-87.318 Y99.162
X-87.163 Y99.082
X-87.002 Y99.014
X-86.837 Y98.96
X-86.668 Y98.92
X-86.497 Y98.893
X-86.326 Y98.88
X-86.153 Y98.881
X-85.981 Y98.896
X-85.809 Y98.924
X-85.64 Y98.967
X-85.475 Y99.023
X-85.315 Y99.092
X-85.161 Y99.173
X-85.014 Y99.267
X-84.875 Y99.372
X-84.743 Y99.49
X-84.608 Y99.632
X-84.469 Y99.802
X-84.343 Y99.987
X-84.23 Y100.183
X-84.135 Y100.385
X-84.058 Y100.589
X-83.999 Y100.792
X-83.958 Y100.995
X-83.934 Y101.196
X-83.926 Y101.395
X-83.934 Y101.59
X-83.958 Y101.782
X-83.996 Y101.969
X-84.049 Y102.151
X-84.116 Y102.328
X-84.197 Y102.498
X-84.292 Y102.663
X-84.399 Y102.819
X-84.52 Y102.966
X-84.652 Y103.105
X-84.797 Y103.233
X-84.952 Y103.35
X-85.118 Y103.455
X-85.293 Y103.547
X-85.476 Y103.626
X-85.667 Y103.69
X-85.865 Y103.74
X-86.067 Y103.773
X-86.272 Y103.79
X-86.48 Y103.791
X-86.689 Y103.775
X-86.898 Y103.741
X-87.105 Y103.691
X-87.308 Y103.624
X-87.506 Y103.541
X-87.698 Y103.441
X-87.883 Y103.326
X-88.058 Y103.195
X-88.223 Y103.05
X-88.377 Y102.892
X-88.518 Y102.72
X-88.646 Y102.538
X-88.759 Y102.345
X-88.856 Y102.143
X-88.937 Y101.934
X-89 Y101.719
X-89.047 Y101.499
X-89.076 Y101.276
X-89.086 Y101.05
X-89.079 Y100.824
X-89.053 Y100.598
X-89.009 Y100.375
X-88.948 Y100.156
X-88.869 Y99.943
X-88.774 Y99.738
X-88.662 Y99.54
X-88.534 Y99.352
X-88.392 Y99.174
X-88.236 Y99.009
X-88.067 Y98.856
X-87.885 Y98.717
X-87.694 Y98.593
X-87.492 Y98.485
X-87.283 Y98.393
X-87.068 Y98.319
X-86.848 Y98.262
X-86.623 Y98.223
X-86.396 Y98.202
X-86.168 Y98.2
X-85.941 Y98.215
X-85.715 Y98.249
X-85.492 Y98.302
X-85.274 Y98.371
X-85.063 Y98.458
X-84.858 Y98.562
X-84.658 Y98.685
X-84.461 Y98.829
X-84.27 Y98.994
X-84.087 Y99.179
X-83.917 Y99.382
X-83.763 Y99.6
X-83.626 Y99.829
X-83.508 Y100.068
X-83.411 Y100.314
X-83.334 Y100.564
X-83.279 Y100.818
X-83.244 Y101.072
X-83.23 Y101.327
X-83.239 Y101.541
X-83.302 Y101.928
X-83.403 Y102.172
X-83.703 Y102.758
X-83.878 Y102.985
X-84.269 Y103.371
X-84.469 Y103.539
X-84.562 Y103.606
X-85.245 Y103.943
X-85.367 Y103.991
X-86.253 Y104.127
X-87.149 Y103.986
X-87.393 Y103.883
X-87.979 Y103.579
X-88.272 Y103.333
X-88.647 Y102.953
X-88.798 Y102.758
X-89.099 Y102.172
X-89.198 Y101.928
X-89.337 Y101.049
X-89.197 Y100.145
X-89.106 Y99.926
X-88.808 Y99.34
X-88.66 Y99.144
X-88.272 Y98.752
X-88.053 Y98.558
X-87.979 Y98.502
X-87.393 Y98.198
X-87.149 Y98.096
X-86.246 Y97.954
X-85.343 Y98.098
X-84.855 Y98.326
X-84.562 Y98.475
X-84.367 Y98.624
X-84.123 Y98.851
X-83.84 Y99.144
X-83.683 Y99.356
X-83.39 Y99.939
X-83.299 Y100.162
X-83.163 Y101.049
X-83.239 Y101.541
X-83.25 Y101.568 Z-1.794
X-83.26 Y101.592 Z-1.777
X-83.266 Y101.607 Z-1.751
X-83.269 Y101.613 Z-1.721
G0 Z2
X-86.411 Y120.104
Z-0.5
G1 Z-0.7 F500
G3 X-86.088 Y121.976 Z-0.804 I0.162 J0.936 F1000
X-86.411 Y120.104 Z-0.908 I-0.162 J-0.936
X-86.088 Y121.976 Z-1.013 I0.162 J0.936
X-86.411 Y120.104 Z-1.117 I-0.162 J-0.936
X-86.088 Y121.976 Z-1.221 I0.162 J0.936
X-86.411 Y120.104 Z-1.325 I-0.162 J-0.936
X-86.088 Y121.976 Z-1.43 I0.162 J0.936
X-86.411 Y120.104 Z-1.534 I-0.162 J-0.936
X-86.088 Y121.976 Z-1.638 I0.162 J0.936
X-86.411 Y120.104 Z-1.742 I-0.162 J-0.936
X-85.3 Y121.04 Z-1.8 I0.162 J0.936
X-87.2 I-0.95 J0
X-85.3 I0.95 J0
G1 X-85.278 Y121.469
X-85.247 Y121.572
X-85.242 Y121.707
X-85.268 Y121.84
X-85.32 Y121.964
X-85.391 Y122.079
X-85.479 Y122.182
X-85.58 Y122.271
X-85.691 Y122.348
X-85.811 Y122.41
X-85.937 Y122.458
X-86.067 Y122.493
X-86.201 Y122.513
X-86.336 Y122.519
X-86.47 Y122.512
X-86.604 Y122.492
X-86.735 Y122.459
X-86.862 Y122.413
X-86.984 Y122.356
X-87.1 Y122.287
X-87.21 Y122.208
X-87.311 Y122.119
X-87.405 Y122.022
X-87.488 Y121.916
X-87.562 Y121.803
X-87.626 Y121.684
X-87.678 Y121.559
X-87.72 Y121.431
X-87.749 Y121.299
X-87.767 Y121.165
X-87.772 Y121.03
X-87.766 Y120.895
X-87.747 Y120.762
X-87.717 Y120.63
X-87.675 Y120.502
X-87.622 Y120.378
X-87.558 Y120.259
X-87.484 Y120.146
X-87.4 Y120.04
X-87.307 Y119.942
X-87.206 Y119.853
X-87.097 Y119.773
X-86.982 Y119.703
X-86.861 Y119.643
X-86.735 Y119.595
X-86.605 Y119.557
X-86.473 Y119.532
X-86.338 Y119.518
X-86.203 Y119.516
X-86.069 Y119.526
X-85.935 Y119.548
X-85.805 Y119.582
X-85.677 Y119.627
X-85.555 Y119.683
X-85.437 Y119.75
X-85.326 Y119.827
X-85.223 Y119.913
X-85.127 Y120.008
X-85.04 Y120.112
X-84.963 Y120.222
X-84.893 Y120.344
X-84.797 Y120.547
X-84.706 Y120.787
X-84.651 Y120.977
X-84.617 Y121.145
X-84.599 Y121.291
X-84.593 Y121.44
X-84.599 Y121.575
X-84.616 Y121.712
X-84.643 Y121.845
X-84.681 Y121.974
X-84.73 Y122.1
X-84.789 Y122.221
X-84.858 Y122.338
X-84.937 Y122.449
X-85.024 Y122.552
X-85.119 Y122.648
X-85.226 Y122.74
X-85.339 Y122.822
X-85.457 Y122.895
X-85.586 Y122.96
X-85.724 Y123.017
X-85.864 Y123.061
X-86.008 Y123.095
X-86.158 Y123.117
X-86.313 Y123.127
X-86.47 Y123.125
X-86.626 Y123.11
X-86.781 Y123.083
X-86.935 Y123.043
X-87.088 Y122.99
X-87.238 Y122.924
X-87.384 Y122.845
X-87.523 Y122.755
X-87.653 Y122.654
X-87.776 Y122.543
X-87.89 Y122.422
X-87.995 Y122.29
X-88.09 Y122.149
X-88.174 Y122
X-88.246 Y121.845
X-88.305 Y121.684
X-88.351 Y121.52
X-88.383 Y121.353
X-88.402 Y121.184
X-88.407 Y121.013
X-88.399 Y120.841
X-88.376 Y120.669
X-88.34 Y120.5
X-88.29 Y120.333
X-88.227 Y120.171
X-88.152 Y120.016
X-88.064 Y119.867
X-87.966 Y119.726
X-87.856 Y119.594
X-87.735 Y119.47
X-87.605 Y119.356
X-87.465 Y119.253
X-87.318 Y119.161
X-87.163 Y119.081
X-87.002 Y119.013
X-86.836 Y118.959
X-86.668 Y118.919
X-86.497 Y118.892
X-86.325 Y118.879
X-86.152 Y118.88
X-85.98 Y118.895
X-85.809 Y118.923
X-85.64 Y118.966
X-85.475 Y119.022
X-85.314 Y119.091
X-85.16 Y119.172
X-85.013 Y119.266
X-84.875 Y119.371
X-84.742 Y119.489
X-84.607 Y119.631
X-84.469 Y119.801
X-84.342 Y119.986
X-84.229 Y120.182
X-84.134 Y120.384
X-84.057 Y120.588
X-83.999 Y120.791
X-83.958 Y120.994
X-83.933 Y121.195
X-83.926 Y121.394
X-83.934 Y121.589
X-83.957 Y121.781
X-83.995 Y121.968
X-84.048 Y122.15
X-84.115 Y122.327
X-84.196 Y122.497
X-84.291 Y122.661
X-84.399 Y122.818
X-84.519 Y122.965
X-84.652 Y123.104
X-84.796 Y123.232
X-84.952 Y123.349
X-85.117 Y123.454
X-85.292 Y123.546
X-85.475 Y123.625
X-85.667 Y123.689
X-85.864 Y123.739
X-86.066 Y123.772
X-86.271 Y123.789
X-86.479 Y123.79
X-86.688 Y123.774
X-86.897 Y123.74
X-87.104 Y123.69
X-87.307 Y123.623
X-87.506 Y123.54
X-87.698 Y123.44
X-87.882 Y123.325
X-88.057 Y123.194
X-88.223 Y123.049
X-88.376 Y122.891
X-88.518 Y122.719
X-88.645 Y122.537
X-88.758 Y122.344
X-88.855 Y122.142
X-88.936 Y121.933
X-89 Y121.718
X-89.046 Y121.498
X-89.075 Y121.275
X-89.086 Y121.049
X-89.078 Y120.822
X-89.053 Y120.597
X-89.009 Y120.374
X-88.947 Y120.155
X-88.869 Y119.942
X-88.773 Y119.736
X-88.661 Y119.539
X-88.534 Y119.351
X-88.392 Y119.173
X-88.235 Y119.008
X-88.066 Y118.855
X-87.885 Y118.716
X-87.693 Y118.592
X-87.492 Y118.484
X-87.283 Y118.392
X-87.067 Y118.318
X-86.847 Y118.261
X-86.623 Y118.222
X-86.396 Y118.201
X-86.168 Y118.199
X-85.94 Y118.214
X-85.714 Y118.248
X-85.491 Y118.301
X-85.273 Y118.37
X-85.062 Y118.457
X-84.858 Y118.561
X-84.658 Y118.684
X-84.461 Y118.828
X-84.269 Y118.993
X-84.087 Y119.178
X-83.917 Y119.381
X-83.762 Y119.599
X-83.625 Y119.828
X-83.508 Y120.067
X-83.41 Y120.313
X-83.334 Y120.563
X-83.278 Y120.817
X-83.243 Y121.071
X-83.229 Y121.326
X-83.238 Y121.536
X-83.307 Y121.949
X-83.414 Y122.193
X-83.699 Y122.752
X-83.878 Y122.983
X-84.269 Y123.37
X-84.529 Y123.585
X-85.148 Y123.899
X-85.367 Y123.991
X-86.246 Y124.127
X-87.149 Y123.986
X-87.452 Y123.854
X-87.979 Y123.579
X-88.272 Y123.335
X-88.628 Y122.975
X-88.814 Y122.73
X-89.132 Y122.096
X-89.193 Y121.949
X-89.337 Y121.046
X-89.196 Y120.142
X-89.068 Y119.849
X-88.793 Y119.318
X-88.467 Y118.942
X-88.174 Y118.654
X-87.95 Y118.482
X-87.376 Y118.189
X-87.135 Y118.091
X-86.246 Y117.954
X-85.343 Y118.098
X-84.855 Y118.326
X-84.551 Y118.482
X-84.301 Y118.677
X-83.878 Y119.098
X-83.683 Y119.356
X-83.343 Y120.045
X-83.304 Y120.142
X-83.163 Y121.046
X-83.238 Y121.536
X-83.25 Y121.564 Z-1.794
X-83.259 Y121.587 Z-1.777
X-83.266 Y121.603 Z-1.751
X-83.268 Y121.608 Z-1.721
G0 Z2
X-58.912 Y100.104
Z-0.5
G1 Z-0.7 F500
G3 X-58.588 Y101.977 Z-0.804 I0.162 J0.936 F1000
X-58.912 Y100.104 Z-0.908 I-0.162 J-0.936
X-58.588 Y101.977 Z-1.013 I0.162 J0.936
X-58.912 Y100.104 Z-1.117 I-0.162 J-0.936
X-58.588 Y101.977 Z-1.221 I0.162 J0.936
X-58.912 Y100.104 Z-1.325 I-0.162 J-0.936
X-58.588 Y101.977 Z-1.43 I0.162 J0.936
X-58.912 Y100.104 Z-1.534 I-0.162 J-0.936
X-58.588 Y101.977 Z-1.638 I0.162 J0.936
X-58.912 Y100.104 Z-1.742 I-0.162 J-0.936
X-57.8 Y101.04 Z-1.8 I0.162 J0.936
X-59.7 I-0.95 J0
X-57.8 I0.95 J0
G1 X-57.778 Y101.47
X-57.747 Y101.573
X-57.742 Y101.707
X-57.768 Y101.84
X-57.82 Y101.965
X-57.891 Y102.079
X-57.979 Y102.182
X-58.08 Y102.272
X-58.191 Y102.348
X-58.311 Y102.41
X-58.437 Y102.459
X-58.567 Y102.493
X-58.701 Y102.513
X-58.836 Y102.52
X-58.97 Y102.513
X-59.104 Y102.492
X-59.235 Y102.459
X-59.362 Y102.413
X-59.484 Y102.356
X-59.6 Y102.287
X-59.71 Y102.208
X-59.812 Y102.12
X-59.905 Y102.022
X-59.989 Y101.916
X-60.063 Y101.803
X-60.126 Y101.684
X-60.179 Y101.56
X-60.22 Y101.431
X-60.249 Y101.299
X-60.267 Y101.166
X-60.272 Y101.031
X-60.266 Y100.896
X-60.247 Y100.762
X-60.217 Y100.631
X-60.175 Y100.502
X-60.122 Y100.378
X-60.058 Y100.259
X-59.984 Y100.146
X-59.9 Y100.04
X-59.807 Y99.943
X-59.706 Y99.853
X-59.597 Y99.773
X-59.482 Y99.703
X-59.361 Y99.644
X-59.235 Y99.595
X-59.105 Y99.558
X-58.973 Y99.532
X-58.838 Y99.518
X-58.703 Y99.516
X-58.569 Y99.526
X-58.436 Y99.548
X-58.305 Y99.582
X-58.178 Y99.627
X-58.055 Y99.683
X-57.937 Y99.75
X-57.827 Y99.827
X-57.723 Y99.913
X-57.627 Y100.009
X-57.54 Y100.112
X-57.463 Y100.222
X-57.393 Y100.344
X-57.297 Y100.548
X-57.206 Y100.788
X-57.151 Y100.978
X-57.117 Y101.145
X-57.1 Y101.291
X-57.094 Y101.441
X-57.099 Y101.576
X-57.116 Y101.713
X-57.143 Y101.845
X-57.181 Y101.974
X-57.23 Y102.1
X-57.289 Y102.222
X-57.358 Y102.338
X-57.437 Y102.449
X-57.524 Y102.553
X-57.619 Y102.649
X-57.726 Y102.74
X-57.839 Y102.823
X-57.957 Y102.895
X-58.086 Y102.961
X-58.224 Y103.017
X-58.364 Y103.062
X-58.508 Y103.095
X-58.658 Y103.117
X-58.813 Y103.128
X-58.97 Y103.125
X-59.126 Y103.111
X-59.281 Y103.084
X-59.435 Y103.044
X-59.588 Y102.99
X-59.738 Y102.924
X-59.884 Y102.845
X-60.023 Y102.755
X-60.153 Y102.655
X-60.276 Y102.544
X-60.39 Y102.422
X-60.495 Y102.29
X-60.59 Y102.149
X-60.674 Y102.001
X-60.746 Y101.845
X-60.805 Y101.685
X-60.851 Y101.52
X-60.883 Y101.353
X-60.902 Y101.184
X-60.907 Y101.013
X-60.899 Y100.841
X-60.876 Y100.67
X-60.84 Y100.5
X-60.791 Y100.334
X-60.728 Y100.172
X-60.652 Y100.016
X-60.565 Y99.867
X-60.466 Y99.726
X-60.356 Y99.594
X-60.236 Y99.47
X-60.105 Y99.356
X-59.966 Y99.253
X-59.818 Y99.161
X-59.663 Y99.081
X-59.502 Y99.014
X-59.336 Y98.959
X-59.168 Y98.919
X-58.997 Y98.892
X-58.825 Y98.879
X-58.653 Y98.88
X-58.48 Y98.895
X-58.309 Y98.924
X-58.14 Y98.966
X-57.975 Y99.022
X-57.814 Y99.091
X-57.66 Y99.173
X-57.513 Y99.266
X-57.375 Y99.371
X-57.242 Y99.489
X-57.107 Y99.631
X-56.969 Y99.801
X-56.842 Y99.986
X-56.729 Y100.182
X-56.634 Y100.384
X-56.557 Y100.588
X-56.499 Y100.791
X-56.458 Y100.994
X-56.434 Y101.195
X-56.426 Y101.394
X-56.434 Y101.589
X-56.457 Y101.781
X-56.496 Y101.968
X-56.548 Y102.15
X-56.616 Y102.327
X-56.696 Y102.498
X-56.791 Y102.662
X-56.899 Y102.818
X-57.019 Y102.966
X-57.152 Y103.104
X-57.296 Y103.232
X-57.452 Y103.35
X-57.617 Y103.455
X-57.792 Y103.547
X-57.976 Y103.625
X-58.167 Y103.69
X-58.364 Y103.739
X-58.566 Y103.772
X-58.771 Y103.789
X-58.979 Y103.79
X-59.188 Y103.774
X-59.397 Y103.741
X-59.604 Y103.69
X-59.808 Y103.623
X-60.006 Y103.54
X-60.198 Y103.44
X-60.382 Y103.325
X-60.557 Y103.194
X-60.723 Y103.049
X-60.877 Y102.891
X-61.018 Y102.72
X-61.146 Y102.537
X-61.258 Y102.344
X-61.355 Y102.143
X-61.436 Y101.934
X-61.5 Y101.719
X-61.546 Y101.499
X-61.575 Y101.275
X-61.586 Y101.049
X-61.578 Y100.823
X-61.553 Y100.597
X-61.509 Y100.374
X-61.447 Y100.156
X-61.369 Y99.943
X-61.273 Y99.737
X-61.161 Y99.539
X-61.034 Y99.351
X-60.892 Y99.174
X-60.735 Y99.008
X-60.566 Y98.855
X-60.385 Y98.716
X-60.193 Y98.592
X-59.992 Y98.484
X-59.783 Y98.393
X-59.568 Y98.318
X-59.347 Y98.261
X-59.123 Y98.222
X-58.896 Y98.202
X-58.668 Y98.199
X-58.44 Y98.215
X-58.214 Y98.249
X-57.991 Y98.301
X-57.774 Y98.371
X-57.562 Y98.458
X-57.358 Y98.562
X-57.158 Y98.685
X-56.961 Y98.829
X-56.769 Y98.994
X-56.587 Y99.179
X-56.417 Y99.381
X-56.262 Y99.599
X-56.125 Y99.828
X-56.008 Y100.067
X-55.911 Y100.313
X-55.834 Y100.564
X-55.778 Y100.817
X-55.743 Y101.072
X-55.729 Y101.326
X-55.739 Y101.537
X-55.802 Y101.928
X-55.905 Y102.172
X-56.202 Y102.758
X-56.353 Y102.953
X-56.74 Y103.344
X-56.969 Y103.539
X-57.029 Y103.585
X-57.615 Y103.885
X-57.859 Y103.988
X-58.75 Y104.127
X-59.665 Y103.981
X-60.185 Y103.735
X-60.446 Y103.601
X-60.739 Y103.368
X-61.147 Y102.953
X-61.297 Y102.758
X-61.618 Y102.129
X-61.698 Y101.928
X-61.837 Y101.049
X-61.697 Y100.145
X-61.557 Y99.828
X-61.308 Y99.34
X-61.13 Y99.11
X-60.739 Y98.714
X-60.544 Y98.552
X-60.409 Y98.461
X-59.86 Y98.189
X-59.641 Y98.093
X-58.738 Y97.954
X-57.859 Y98.093
X-57.517 Y98.243
X-57.029 Y98.496
X-56.831 Y98.656
X-56.526 Y98.949
X-56.34 Y99.144
X-56.192 Y99.34
X-55.897 Y99.926
X-55.812 Y100.121
X-55.759 Y100.414
X-55.663 Y101.049
X-55.739 Y101.537
X-55.75 Y101.565 Z-1.794
X-55.76 Y101.588 Z-1.777
X-55.766 Y101.604 Z-1.751
X-55.768 Y101.609 Z-1.721
G0 Z2
X-58.912 Y120.105
Z-0.5
G1 Z-0.7 F500
G3 X-58.588 Y121.977 Z-0.804 I0.162 J0.936 F1000
X-58.912 Y120.105 Z-0.908 I-0.162 J-0.936
X-58.588 Y121.977 Z-1.013 I0.162 J0.936
X-58.912 Y120.105 Z-1.117 I-0.162 J-0.936
X-58.588 Y121.977 Z-1.221 I0.162 J0.936
X-58.912 Y120.105 Z-1.325 I-0.162 J-0.936
X-58.588 Y121.977 Z-1.43 I0.162 J0.936
X-58.912 Y120.105 Z-1.534 I-0.162 J-0.936
X-58.588 Y121.977 Z-1.638 I0.162 J0.936
X-58.912 Y120.105 Z-1.742 I-0.162 J-0.936
X-57.8 Y121.041 Z-1.8 I0.162 J0.936
X-59.7 I-0.95 J0
X-57.8 I0.95 J0
G1 X-57.778 Y121.47
X-57.747 Y121.573
X-57.742 Y121.708
X-57.768 Y121.841
X-57.82 Y121.965
X-57.891 Y122.08
X-57.979 Y122.183
X-58.08 Y122.272
X-58.191 Y122.349
X-58.311 Y122.411
X-58.437 Y122.459
X-58.568 Y122.494
X-58.701 Y122.514
X-58.836 Y122.52
X-58.971 Y122.513
X-59.104 Y122.493
X-59.235 Y122.46
X-59.362 Y122.414
X-59.484 Y122.357
X-59.601 Y122.288
X-59.71 Y122.209
X-59.812 Y122.12
X-59.905 Y122.023
X-59.989 Y121.917
X-60.063 Y121.804
X-60.126 Y121.685
X-60.179 Y121.56
X-60.22 Y121.432
X-60.249 Y121.3
X-60.267 Y121.166
X-60.273 Y121.031
X-60.266 Y120.896
X-60.248 Y120.763
X-60.217 Y120.631
X-60.176 Y120.503
X-60.122 Y120.379
X-60.059 Y120.26
X-59.984 Y120.147
X-59.901 Y120.041
X-59.808 Y119.943
X-59.706 Y119.854
X-59.598 Y119.774
X-59.482 Y119.704
X-59.361 Y119.644
X-59.235 Y119.596
X-59.105 Y119.558
X-58.973 Y119.533
X-58.839 Y119.519
X-58.704 Y119.517
X-58.569 Y119.527
X-58.436 Y119.549
X-58.305 Y119.583
X-58.178 Y119.628
X-58.055 Y119.684
X-57.938 Y119.751
X-57.827 Y119.828
X-57.723 Y119.914
X-57.627 Y120.009
X-57.541 Y120.113
X-57.463 Y120.223
X-57.393 Y120.345
X-57.297 Y120.548
X-57.206 Y120.788
X-57.151 Y120.978
X-57.117 Y121.146
X-57.1 Y121.292
X-57.094 Y121.441
X-57.099 Y121.576
X-57.116 Y121.713
X-57.143 Y121.846
X-57.181 Y121.975
X-57.23 Y122.101
X-57.289 Y122.223
X-57.358 Y122.339
X-57.437 Y122.45
X-57.524 Y122.553
X-57.619 Y122.649
X-57.726 Y122.741
X-57.839 Y122.823
X-57.958 Y122.896
X-58.087 Y122.961
X-58.224 Y123.018
X-58.365 Y123.062
X-58.508 Y123.096
X-58.658 Y123.118
X-58.813 Y123.128
X-58.971 Y123.126
X-59.127 Y123.111
X-59.281 Y123.084
X-59.435 Y123.044
X-59.588 Y122.991
X-59.739 Y122.925
X-59.884 Y122.846
X-60.023 Y122.756
X-60.154 Y122.655
X-60.276 Y122.544
X-60.39 Y122.423
X-60.496 Y122.291
X-60.59 Y122.15
X-60.674 Y122.001
X-60.746 Y121.846
X-60.805 Y121.685
X-60.851 Y121.521
X-60.883 Y121.354
X-60.902 Y121.185
X-60.908 Y121.014
X-60.899 Y120.842
X-60.877 Y120.67
X-60.841 Y120.501
X-60.791 Y120.334
X-60.728 Y120.172
X-60.652 Y120.017
X-60.565 Y119.868
X-60.466 Y119.727
X-60.356 Y119.595
X-60.236 Y119.471
X-60.105 Y119.357
X-59.966 Y119.254
X-59.818 Y119.162
X-59.663 Y119.082
X-59.502 Y119.014
X-59.337 Y118.96
X-59.168 Y118.92
X-58.997 Y118.893
X-58.825 Y118.88
X-58.653 Y118.881
X-58.48 Y118.896
X-58.309 Y118.924
X-58.14 Y118.967
X-57.975 Y119.023
X-57.815 Y119.092
X-57.66 Y119.173
X-57.514 Y119.267
X-57.375 Y119.372
X-57.243 Y119.49
X-57.107 Y119.632
X-56.969 Y119.802
X-56.842 Y119.987
X-56.73 Y120.183
X-56.634 Y120.385
X-56.558 Y120.589
X-56.499 Y120.792
X-56.458 Y120.995
X-56.434 Y121.196
X-56.426 Y121.395
X-56.434 Y121.59
X-56.458 Y121.782
X-56.496 Y121.969
X-56.549 Y122.151
X-56.616 Y122.328
X-56.697 Y122.498
X-56.791 Y122.662
X-56.899 Y122.819
X-57.019 Y122.966
X-57.152 Y123.105
X-57.297 Y123.233
X-57.452 Y123.35
X-57.618 Y123.455
X-57.792 Y123.547
X-57.976 Y123.626
X-58.167 Y123.69
X-58.364 Y123.74
X-58.566 Y123.773
X-58.772 Y123.79
X-58.98 Y123.791
X-59.189 Y123.775
X-59.397 Y123.741
X-59.604 Y123.691
X-59.808 Y123.624
X-60.006 Y123.541
X-60.198 Y123.441
X-60.382 Y123.326
X-60.558 Y123.195
X-60.723 Y123.05
X-60.877 Y122.892
X-61.018 Y122.72
X-61.146 Y122.538
X-61.259 Y122.345
X-61.356 Y122.143
X-61.436 Y121.934
X-61.5 Y121.719
X-61.547 Y121.499
X-61.575 Y121.276
X-61.586 Y121.05
X-61.579 Y120.823
X-61.553 Y120.598
X-61.509 Y120.375
X-61.448 Y120.156
X-61.369 Y119.943
X-61.273 Y119.738
X-61.162 Y119.54
X-61.034 Y119.352
X-60.892 Y119.174
X-60.736 Y119.009
X-60.566 Y118.856
X-60.385 Y118.717
X-60.193 Y118.593
X-59.992 Y118.485
X-59.783 Y118.393
X-59.568 Y118.319
X-59.347 Y118.262
X-59.123 Y118.223
X-58.896 Y118.202
X-58.668 Y118.2
X-58.44 Y118.215
X-58.214 Y118.249
X-57.992 Y118.302
X-57.774 Y118.371
X-57.562 Y118.458
X-57.358 Y118.562
X-57.158 Y118.685
X-56.961 Y118.829
X-56.77 Y118.994
X-56.587 Y119.179
X-56.417 Y119.382
X-56.262 Y119.6
X-56.126 Y119.829
X-56.008 Y120.068
X-55.911 Y120.314
X-55.834 Y120.564
X-55.779 Y120.818
X-55.744 Y121.072
X-55.73 Y121.327
X-55.739 Y121.539
X-55.808 Y121.949
X-55.914 Y122.193
X-56.186 Y122.73
X-56.371 Y122.975
X-56.763 Y123.365
X-56.997 Y123.561
X-57.165 Y123.658
X-57.615 Y123.885
X-57.859 Y123.988
X-58.738 Y124.127
X-59.641 Y123.989
X-59.958 Y123.85
X-60.446 Y123.602
X-60.742 Y123.365
X-61.035 Y123.072
X-61.281 Y122.779
X-61.389 Y122.584
X-61.632 Y122.096
X-61.693 Y121.949
X-61.837 Y121.046
X-61.696 Y120.142
X-61.564 Y119.849
X-61.289 Y119.312
X-61.09 Y119.068
X-60.7 Y118.677
X-60.446 Y118.48
X-59.958 Y118.234
X-59.635 Y118.091
X-58.738 Y117.954
X-57.865 Y118.091
X-57.615 Y118.196
X-57.029 Y118.496
X-56.802 Y118.677
X-56.504 Y118.97
X-56.193 Y119.338
X-55.843 Y120.045
X-55.804 Y120.142
X-55.663 Y121.046
X-55.739 Y121.539
X-55.75 Y121.566 Z-1.794
X-55.76 Y121.59 Z-1.777
X-55.766 Y121.606 Z-1.751
X-55.768 Y121.611 Z-1.721
G0 Z2
X-84.711 Y101.901
Z-1.2
G1 Z-1.4 F500
X-84.704 Y101.902 Z-1.452
X-84.684 Y101.905 Z-1.5
X-84.653 Y101.91 Z-1.541
X-84.612 Y101.916 Z-1.573
X-84.564 Y101.922 Z-1.593
X-84.513 Y101.93 Z-1.6
G3 X-83.447 Y102.202 I-0.722 J5.055
G1 X-83.386 Y102.227 F1000
X-83.366 Y102.269
X-83.36 Y102.316
X-83.371 Y102.362
X-83.488 Y102.636
X-83.995 Y103.297
X-84.66 Y103.807
X-85.441 Y104.127
X-86.246 Y104.231
X-87.068 Y104.125
X-87.857 Y103.797
X-88.514 Y103.288
X-89.014 Y102.636
X-89.335 Y101.854
X-89.441 Y101.049
X-89.333 Y100.219
X-89.009 Y99.437
X-88.496 Y98.776
X-87.852 Y98.281
X-87.076 Y97.959
X-86.246 Y97.85
X-85.413 Y97.962
X-84.66 Y98.275
X-84.003 Y98.777
X-83.488 Y99.444
X-83.167 Y100.219
X-83.059 Y101.049
X-83.171 Y101.879
X-83.371 Y102.362
X-83.388 Y102.386 Z-1.594
X-83.403 Y102.407 Z-1.577
X-83.413 Y102.42 Z-1.551
X-83.416 Y102.425 Z-1.521
G0 Z2
X-84.711 Y121.901
Z-1.2
G1 Z-1.4 F500
X-84.704 Y121.902 Z-1.452
X-84.684 Y121.905 Z-1.5
X-84.653 Y121.91 Z-1.541
X-84.612 Y121.915 Z-1.573
X-84.564 Y121.922 Z-1.593
X-84.513 Y121.93 Z-1.6
G3 X-83.447 Y122.202 I-0.722 J5.055
G1 X-83.386 Y122.227 F1000
X-83.366 Y122.269
X-83.36 Y122.316
X-83.371 Y122.362
X-83.488 Y122.638
X-84.001 Y123.303
X-84.66 Y123.807
X-85.441 Y124.127
X-86.222 Y124.23
X-86.319 Y124.225
X-87.076 Y124.123
X-87.833 Y123.81
X-88.499 Y123.303
X-89.016 Y122.633
X-89.336 Y121.851
X-89.441 Y121.046
X-89.333 Y120.215
X-89.02 Y119.459
X-88.496 Y118.775
X-87.86 Y118.287
X-87.076 Y117.959
X-86.246 Y117.85
X-85.416 Y117.961
X-84.64 Y118.287
X-84.003 Y118.775
X-83.479 Y119.459
X-83.168 Y120.216
X-83.059 Y121.046
X-83.17 Y121.876
X-83.371 Y122.362
X-83.388 Y122.386 Z-1.594
X-83.403 Y122.407 Z-1.577
X-83.413 Y122.42 Z-1.551
X-83.416 Y122.425 Z-1.521
G0 Z2
X-60.265 Y101.943
Z-1.2
G1 Z-1.4 F500
X-60.269 Y101.948 Z-1.452
X-60.282 Y101.964 Z-1.5
X-60.301 Y101.989 Z-1.541
X-60.327 Y102.022 Z-1.573
X-60.357 Y102.06 Z-1.593
X-60.389 Y102.1 Z-1.6
G3 X-61.157 Y102.887 I-4.016 J-3.153
G1 X-61.209 Y102.928 F1000
X-61.253 Y102.927
X-61.295 Y102.912
X-61.327 Y102.882
X-61.52 Y102.622
X-61.835 Y101.854
X-61.941 Y101.049
X-61.833 Y100.219
X-61.509 Y99.437
X-61.001 Y98.78
X-60.349 Y98.279
X-59.567 Y97.956
X-58.738 Y97.85
X-57.908 Y97.963
X-57.152 Y98.28
X-56.505 Y98.775
X-55.98 Y99.457
X-55.667 Y100.219
X-55.559 Y101.049
X-55.671 Y101.879
X-55.975 Y102.613
X-56.077 Y102.758
X-56.489 Y103.291
X-57.127 Y103.785
X-57.224 Y103.835
X-57.933 Y104.125
X-58.738 Y104.231
X-59.567 Y104.125
X-60.349 Y103.802
X-61.013 Y103.289
X-61.327 Y102.882
X-61.34 Y102.855 Z-1.594
X-61.35 Y102.832 Z-1.577
X-61.357 Y102.816 Z-1.551
X-61.359 Y102.811 Z-1.521
G0 Z2
X-58.774 Y119.277
Z-1.2
G1 Z-1.4 F500
X-58.777 Y119.271 Z-1.452
X-58.784 Y119.252 Z-1.5
X-58.796 Y119.223 Z-1.541
X-58.811 Y119.185 Z-1.573
X-58.829 Y119.14 Z-1.593
X-58.849 Y119.092 Z-1.6
G3 X-59.146 Y118.033 I4.739 J-1.902
G1 X-59.155 Y117.967 F1000
X-59.132 Y117.929
X-59.097 Y117.901
X-59.055 Y117.888
X-58.738 Y117.85
X-57.908 Y117.963
X-57.161 Y118.273
X-56.504 Y118.775
X-55.979 Y119.459
X-55.667 Y120.215
X-55.56 Y121.06
X-55.668 Y121.87
X-55.984 Y122.633
X-56.505 Y123.306
X-57.151 Y123.802
X-57.932 Y124.125
X-58.738 Y124.231
X-59.567 Y124.125
X-60.349 Y123.801
X-61.01 Y123.293
X-61.52 Y122.624
X-61.836 Y121.851
X-61.941 Y121.046
X-61.829 Y120.201
X-61.506 Y119.433
X-60.996 Y118.775
X-60.349 Y118.279
X-59.567 Y117.956
X-59.055 Y117.888
X-59.036 Y117.887 Z-1.598
X-59.006 Y117.891 Z-1.582
X-58.985 Y117.894 Z-1.555
X-58.978 Y117.895 Z-1.521
G0 Z2
X-87.822 Y101.987
Z-1
G1 Z-1.2 F500
X-87.826 Y101.992 Z-1.252
X-87.838 Y102.008 Z-1.3
X-87.858 Y102.033 Z-1.341
X-87.883 Y102.065 Z-1.373
X-87.913 Y102.103 Z-1.393
X-87.945 Y102.144 Z-1.4
G3 X-88.714 Y102.931 I-4.016 J-3.153
G1 X-88.821 Y103.013 F1000
X-88.911 Y103.004
X-88.994 Y102.967
X-89.06 Y102.905
X-89.187 Y102.733
X-89.529 Y101.903
X-89.641 Y101.041
X-89.527 Y100.17
X-89.184 Y99.34
X-88.659 Y98.656
X-87.979 Y98.127
X-87.882 Y98.075
X-87.131 Y97.766
X-86.246 Y97.65
X-85.367 Y97.766
X-84.562 Y98.1
X-83.84 Y98.656
X-83.316 Y99.34
X-82.973 Y100.17
X-82.859 Y101.049
X-82.977 Y101.928
X-83.316 Y102.741
X-83.856 Y103.442
X-84.562 Y103.981
X-85.343 Y104.306
X-85.441 Y104.327
X-86.246 Y104.431
X-87.129 Y104.316
X-87.955 Y103.972
X-88.644 Y103.442
X-89.06 Y102.905
X-89.072 Y102.877 Z-1.394
X-89.083 Y102.854 Z-1.377
X-89.09 Y102.839 Z-1.351
X-89.092 Y102.833 Z-1.321
G0 Z2
X-87.196 Y119.469
Z-1
G1 Z-1.2 F500
X-87.201 Y119.465 Z-1.252
X-87.217 Y119.452 Z-1.3
X-87.242 Y119.433 Z-1.341
X-87.275 Y119.407 Z-1.373
X-87.313 Y119.377 Z-1.393
X-87.353 Y119.345 Z-1.4
G3 X-88.14 Y118.577 I3.153 J-4.016
G1 X-88.223 Y118.47 F1000
X-88.214 Y118.379
X-88.176 Y118.297
X-88.114 Y118.231
X-87.95 Y118.107
X-87.125 Y117.764
X-86.246 Y117.65
X-85.367 Y117.767
X-84.538 Y118.115
X-83.848 Y118.649
X-83.305 Y119.361
X-82.974 Y120.167
X-82.859 Y121.046
X-82.97 Y121.9
X-83.314 Y122.735
X-83.854 Y123.44
X-84.562 Y123.981
X-85.367 Y124.315
X-86.246 Y124.431
X-87.125 Y124.317
X-87.955 Y123.971
X-88.641 Y123.444
X-89.19 Y122.73
X-89.53 Y121.9
X-89.641 Y121.047
X-89.526 Y120.167
X-89.187 Y119.344
X-88.639 Y118.635
X-88.114 Y118.231
X-88.087 Y118.218 Z-1.394
X-88.064 Y118.208 Z-1.377
X-88.048 Y118.201 Z-1.351
X-88.043 Y118.199 Z-1.321
G0 Z2
X-57.804 Y102.612
Z-1
G1 Z-1.2 F500
X-57.799 Y102.616 Z-1.252
X-57.783 Y102.629 Z-1.3
X-57.758 Y102.648 Z-1.341
X-57.725 Y102.674 Z-1.373
X-57.687 Y102.704 Z-1.393
X-57.647 Y102.736 Z-1.4
G3 X-56.86 Y103.504 I-3.153 J4.016
G1 X-56.777 Y103.611 F1000
X-56.786 Y103.702
X-56.824 Y103.784
X-56.886 Y103.851
X-57.053 Y103.976
X-57.873 Y104.316
X-58.738 Y104.431
X-59.636 Y104.313
X-60.446 Y103.977
X-61.144 Y103.442
X-61.687 Y102.736
X-62.025 Y101.922
X-62.141 Y101.049
X-62.027 Y100.17
X-61.682 Y99.34
X-61.16 Y98.656
X-60.446 Y98.104
X-59.615 Y97.762
X-58.738 Y97.65
X-57.873 Y97.765
X-57.053 Y98.104
X-56.34 Y98.656
X-55.816 Y99.34
X-55.475 Y100.163
X-55.359 Y101.049
X-55.477 Y101.928
X-55.812 Y102.733
X-56.356 Y103.442
X-56.886 Y103.851
X-56.913 Y103.863 Z-1.394
X-56.936 Y103.873 Z-1.377
X-56.952 Y103.88 Z-1.351
X-56.957 Y103.883 Z-1.321
G0 Z2
X-58.717 Y122.875
Z-1
G1 Z-1.2 F500
X-58.714 Y122.881 Z-1.252
X-58.707 Y122.9 Z-1.3
X-58.695 Y122.929 Z-1.341
X-58.679 Y122.968 Z-1.373
X-58.661 Y123.012 Z-1.393
X-58.642 Y123.06 Z-1.4
G3 X-58.345 Y124.119 I-4.739 J1.902
G1 X-58.327 Y124.253 F1000
X-58.38 Y124.327
X-58.454 Y124.38
X-58.541 Y124.406
X-58.738 Y124.431
X-59.616 Y124.319
X-60.446 Y123.977
X-61.153 Y123.432
X-61.69 Y122.73
X-62.03 Y121.9
X-62.141 Y121.046
X-62.026 Y120.167
X-61.682 Y119.337
X-61.156 Y118.652
X-60.446 Y118.104
X-59.616 Y117.763
X-58.738 Y117.65
X-57.859 Y117.769
X-57.054 Y118.104
X-56.346 Y118.651
X-55.805 Y119.361
X-55.472 Y120.174
X-55.359 Y121.046
X-55.476 Y121.925
X-55.81 Y122.73
X-56.346 Y123.431
X-57.053 Y123.976
X-57.883 Y124.319
X-58.541 Y124.406
X-58.56 Y124.407 Z-1.398
X-58.59 Y124.403 Z-1.382
X-58.611 Y124.399 Z-1.355
X-58.618 Y124.398 Z-1.321
G0 Z2
X-85.551 Y100.398
Z-1.1
G1 Z-1.3 F500
G3 X-86.95 Y101.684 Z-1.404 I-0.699 J0.643 F1000
X-85.551 Y100.398 Z-1.508 I0.699 J-0.643
X-86.95 Y101.684 Z-1.613 I-0.699 J0.643
X-85.551 Y100.398 Z-1.717 I0.699 J-0.643
X-86.95 Y101.684 Z-1.821 I-0.699 J0.643
X-85.551 Y100.398 Z-1.925 I0.699 J-0.643
X-85.3 Y101.041 Z-1.95 I-0.699 J0.643
X-87.2 I-0.95 J0
X-85.3 I0.95 J0
G1 X-85.278 Y101.47
X-85.248 Y101.573
X-85.242 Y101.708
X-85.269 Y101.841
X-85.32 Y101.965
X-85.392 Y102.08
X-85.479 Y102.183
X-85.58 Y102.272
X-85.692 Y102.349
X-85.811 Y102.411
X-85.937 Y102.459
X-86.068 Y102.494
X-86.201 Y102.514
X-86.336 Y102.52
X-86.471 Y102.513
X-86.604 Y102.493
X-86.735 Y102.46
X-86.862 Y102.414
X-86.985 Y102.357
X-87.101 Y102.288
X-87.21 Y102.209
X-87.312 Y102.12
X-87.405 Y102.023
X-87.489 Y101.917
X-87.563 Y101.804
X-87.627 Y101.685
X-87.679 Y101.56
X-87.72 Y101.432
X-87.75 Y101.3
X-87.767 Y101.166
X-87.773 Y101.031
X-87.766 Y100.897
X-87.748 Y100.763
X-87.718 Y100.631
X-87.676 Y100.503
X-87.623 Y100.379
X-87.559 Y100.26
X-87.485 Y100.147
X-87.401 Y100.041
X-87.308 Y99.943
X-87.207 Y99.854
X-87.098 Y99.774
X-86.983 Y99.704
X-86.861 Y99.644
X-86.735 Y99.596
X-86.606 Y99.558
X-86.473 Y99.533
X-86.339 Y99.519
X-86.204 Y99.517
X-86.069 Y99.527
X-85.936 Y99.549
X-85.805 Y99.583
X-85.678 Y99.628
X-85.555 Y99.684
X-85.438 Y99.751
X-85.327 Y99.828
X-85.223 Y99.914
X-85.128 Y100.009
X-85.041 Y100.113
X-84.963 Y100.223
X-84.893 Y100.345
X-84.797 Y100.548
X-84.707 Y100.788
X-84.652 Y100.978
X-84.618 Y101.146
X-84.6 Y101.292
X-84.594 Y101.441
X-84.6 Y101.576
X-84.616 Y101.713
X-84.644 Y101.846
X-84.682 Y101.975
X-84.73 Y102.101
X-84.789 Y102.223
X-84.858 Y102.339
X-84.937 Y102.45
X-85.024 Y102.553
X-85.119 Y102.649
X-85.226 Y102.741
X-85.339 Y102.823
X-85.458 Y102.896
X-85.587 Y102.961
X-85.724 Y103.018
X-85.865 Y103.062
X-86.008 Y103.096
X-86.159 Y103.118
X-86.314 Y103.128
X-86.471 Y103.126
X-86.627 Y103.112
X-86.781 Y103.084
X-86.935 Y103.044
X-87.089 Y102.991
X-87.239 Y102.925
X-87.385 Y102.846
X-87.523 Y102.756
X-87.654 Y102.655
X-87.776 Y102.544
X-87.891 Y102.423
X-87.996 Y102.291
X-88.091 Y102.15
X-88.175 Y102.001
X-88.246 Y101.846
X-88.305 Y101.685
X-88.351 Y101.521
X-88.384 Y101.354
X-88.402 Y101.185
X-88.408 Y101.014
X-88.399 Y100.842
X-88.377 Y100.67
X-88.341 Y100.501
X-88.291 Y100.334
X-88.228 Y100.173
X-88.153 Y100.017
X-88.065 Y99.868
X-87.966 Y99.727
X-87.857 Y99.595
X-87.736 Y99.471
X-87.606 Y99.357
X-87.466 Y99.254
X-87.318 Y99.162
X-87.163 Y99.082
X-87.002 Y99.014
X-86.837 Y98.96
X-86.668 Y98.92
X-86.497 Y98.893
X-86.326 Y98.88
X-86.153 Y98.881
X-85.981 Y98.896
X-85.809 Y98.924
X-85.64 Y98.967
X-85.475 Y99.023
X-85.315 Y99.092
X-85.161 Y99.173
X-85.014 Y99.267
X-84.875 Y99.372
X-84.743 Y99.49
X-84.608 Y99.632
X-84.469 Y99.802
X-84.343 Y99.987
X-84.23 Y100.183
X-84.135 Y100.385
X-84.058 Y100.589
X-83.999 Y100.792
X-83.958 Y100.995
X-83.934 Y101.196
X-83.926 Y101.395
X-83.934 Y101.59
X-83.958 Y101.782
X-83.996 Y101.969
X-84.049 Y102.151
X-84.116 Y102.328
X-84.197 Y102.498
X-84.292 Y102.663
X-84.399 Y102.819
X-84.52 Y102.966
X-84.652 Y103.105
X-84.797 Y103.233
X-84.952 Y103.35
X-85.118 Y103.455
X-85.293 Y103.547
X-85.476 Y103.626
X-85.667 Y103.69
X-85.865 Y103.74
X-86.067 Y103.773
X-86.272 Y103.79
X-86.48 Y103.791
X-86.689 Y103.775
X-86.898 Y103.741
X-87.105 Y103.691
X-87.308 Y103.624
X-87.506 Y103.541
X-87.698 Y103.441
X-87.883 Y103.326
X-88.058 Y103.195
X-88.223 Y103.05
X-88.377 Y102.892
X-88.518 Y102.72
X-88.646 Y102.538
X-88.759 Y102.345
X-88.856 Y102.143
X-88.937 Y101.934
X-89 Y101.719
X-89.047 Y101.499
X-89.076 Y101.276
X-89.086 Y101.05
X-89.079 Y100.824
X-89.053 Y100.598
X-89.009 Y100.375
X-88.948 Y100.156
X-88.869 Y99.943
X-88.774 Y99.738
X-88.662 Y99.54
X-88.534 Y99.352
X-88.392 Y99.174
X-88.236 Y99.009
X-88.067 Y98.856
X-87.885 Y98.717
X-87.694 Y98.593
X-87.492 Y98.485
X-87.283 Y98.393
X-87.068 Y98.319
X-86.848 Y98.262
X-86.623 Y98.223
X-86.396 Y98.202
X-86.168 Y98.2
X-85.941 Y98.215
X-85.715 Y98.249
X-85.492 Y98.302
X-85.274 Y98.371
X-85.063 Y98.458
X-84.858 Y98.562
X-84.658 Y98.685
X-84.461 Y98.829
X-84.27 Y98.994
X-84.087 Y99.179
X-83.917 Y99.382
X-83.763 Y99.6
X-83.626 Y99.829
X-83.508 Y100.068
X-83.411 Y100.314
X-83.334 Y100.564
X-83.279 Y100.818
X-83.244 Y101.072
X-83.23 Y101.327
X-83.239 Y101.541
X-83.302 Y101.928
X-83.403 Y102.172
X-83.703 Y102.758
X-83.878 Y102.985
X-84.269 Y103.371
X-84.469 Y103.539
X-84.562 Y103.606
X-85.245 Y103.943
X-85.367 Y103.991
X-86.253 Y104.127
X-87.149 Y103.986
X-87.393 Y103.883
X-87.979 Y103.579
X-88.272 Y103.333
X-88.647 Y102.953
X-88.798 Y102.758
X-89.099 Y102.172
X-89.198 Y101.928
X-89.337 Y101.049
X-89.197 Y100.145
X-89.106 Y99.926
X-88.808 Y99.34
X-88.66 Y99.144
X-88.272 Y98.752
X-88.053 Y98.558
X-87.979 Y98.502
X-87.393 Y98.198
X-87.149 Y98.096
X-86.246 Y97.954
X-85.343 Y98.098
X-84.855 Y98.326
X-84.562 Y98.475
X-84.367 Y98.624
X-84.123 Y98.851
X-83.84 Y99.144
X-83.683 Y99.356
X-83.39 Y99.939
X-83.299 Y100.162
X-83.163 Y101.049
X-83.239 Y101.541
X-83.25 Y101.568 Z-1.944
X-83.26 Y101.592 Z-1.927
X-83.266 Y101.607 Z-1.901
X-83.269 Y101.613 Z-1.871
G0 Z2
X-85.551 Y120.397
Z-1.1
G1 Z-1.3 F500
G3 X-85.651 Y121.778 Z-1.354 I-0.699 J0.643 F1000
X-87.023 Y121.592 Z-1.408 I-0.599 J-0.738
X-86.753 Y120.234 Z-1.462 I0.773 J-0.552
X-85.414 Y120.588 Z-1.517 I0.503 J0.806
X-87.085 Y121.492 Z-1.621 I-0.836 J0.452
X-85.414 Y120.588 Z-1.725 I0.836 J-0.452
X-87.085 Y121.492 Z-1.829 I-0.836 J0.452
X-85.414 Y120.588 Z-1.934 I0.836 J-0.452
X-85.3 Y121.04 Z-1.95 I-0.836 J0.452
X-87.2 I-0.95 J0
X-85.3 I0.95 J0
G1 X-85.278 Y121.469
X-85.247 Y121.572
X-85.242 Y121.707
X-85.268 Y121.84
X-85.32 Y121.964
X-85.391 Y122.079
X-85.479 Y122.182
X-85.58 Y122.271
X-85.691 Y122.348
X-85.811 Y122.41
X-85.937 Y122.458
X-86.067 Y122.493
X-86.201 Y122.513
X-86.336 Y122.519
X-86.47 Y122.512
X-86.604 Y122.492
X-86.735 Y122.459
X-86.862 Y122.413
X-86.984 Y122.356
X-87.1 Y122.287
X-87.21 Y122.208
X-87.311 Y122.119
X-87.405 Y122.022
X-87.488 Y121.916
X-87.562 Y121.803
X-87.626 Y121.684
X-87.678 Y121.559
X-87.72 Y121.431
X-87.749 Y121.299
X-87.767 Y121.165
X-87.772 Y121.03
X-87.766 Y120.895
X-87.747 Y120.762
X-87.717 Y120.63
X-87.675 Y120.502
X-87.622 Y120.378
X-87.558 Y120.259
X-87.484 Y120.146
X-87.4 Y120.04
X-87.307 Y119.942
X-87.206 Y119.853
X-87.097 Y119.773
X-86.982 Y119.703
X-86.861 Y119.643
X-86.735 Y119.595
X-86.605 Y119.557
X-86.473 Y119.532
X-86.338 Y119.518
X-86.203 Y119.516
X-86.069 Y119.526
X-85.935 Y119.548
X-85.805 Y119.582
X-85.677 Y119.627
X-85.555 Y119.683
X-85.437 Y119.75
X-85.326 Y119.827
X-85.223 Y119.913
X-85.127 Y120.008
X-85.04 Y120.112
X-84.963 Y120.222
X-84.893 Y120.344
X-84.797 Y120.547
X-84.706 Y120.787
X-84.651 Y120.977
X-84.617 Y121.145
X-84.599 Y121.291
X-84.593 Y121.44
X-84.599 Y121.575
X-84.616 Y121.712
X-84.643 Y121.845
X-84.681 Y121.974
X-84.73 Y122.1
X-84.789 Y122.221
X-84.858 Y122.338
X-84.937 Y122.449
X-85.024 Y122.552
X-85.119 Y122.648
X-85.226 Y122.74
X-85.339 Y122.822
X-85.457 Y122.895
X-85.586 Y122.96
X-85.724 Y123.017
X-85.864 Y123.061
X-86.008 Y123.095
X-86.158 Y123.117
X-86.313 Y123.127
X-86.47 Y123.125
X-86.626 Y123.11
X-86.781 Y123.083
X-86.935 Y123.043
X-87.088 Y122.99
X-87.238 Y122.924
X-87.384 Y122.845
X-87.523 Y122.755
X-87.653 Y122.654
X-87.776 Y122.543
X-87.89 Y122.422
X-87.995 Y122.29
X-88.09 Y122.149
X-88.174 Y122
X-88.246 Y121.845
X-88.305 Y121.684
X-88.351 Y121.52
X-88.383 Y121.353
X-88.402 Y121.184
X-88.407 Y121.013
X-88.399 Y120.841
X-88.376 Y120.669
X-88.34 Y120.5
X-88.29 Y120.333
X-88.227 Y120.171
X-88.152 Y120.016
X-88.064 Y119.867
X-87.966 Y119.726
X-87.856 Y119.594
X-87.735 Y119.47
X-87.605 Y119.356
X-87.465 Y119.253
X-87.318 Y119.161
X-87.163 Y119.081
X-87.002 Y119.013
X-86.836 Y118.959
X-86.668 Y118.919
X-86.497 Y118.892
X-86.325 Y118.879
X-86.152 Y118.88
X-85.98 Y118.895
X-85.809 Y118.923
X-85.64 Y118.966
X-85.475 Y119.022
X-85.314 Y119.091
X-85.16 Y119.172
X-85.013 Y119.266
X-84.875 Y119.371
X-84.742 Y119.489
X-84.607 Y119.631
X-84.469 Y119.801
X-84.342 Y119.986
X-84.229 Y120.182
X-84.134 Y120.384
X-84.057 Y120.588
X-83.999 Y120.791
X-83.958 Y120.994
X-83.933 Y121.195
X-83.926 Y121.394
X-83.934 Y121.589
X-83.957 Y121.781
X-83.995 Y121.968
X-84.048 Y122.15
X-84.115 Y122.327
X-84.196 Y122.497
X-84.291 Y122.661
X-84.399 Y122.818
X-84.519 Y122.965
X-84.652 Y123.104
X-84.796 Y123.232
X-84.952 Y123.349
X-85.117 Y123.454
X-85.292 Y123.546
X-85.475 Y123.625
X-85.667 Y123.689
X-85.864 Y123.739
X-86.066 Y123.772
X-86.271 Y123.789
X-86.479 Y123.79
X-86.688 Y123.774
X-86.897 Y123.74
X-87.104 Y123.69
X-87.307 Y123.623
X-87.506 Y123.54
X-87.698 Y123.44
X-87.882 Y123.325
X-88.057 Y123.194
X-88.223 Y123.049
X-88.376 Y122.891
X-88.518 Y122.719
X-88.645 Y122.537
X-88.758 Y122.344
X-88.855 Y122.142
X-88.936 Y121.933
X-89 Y121.718
X-89.046 Y121.498
X-89.075 Y121.275
X-89.086 Y121.049
X-89.078 Y120.822
X-89.053 Y120.597
X-89.009 Y120.374
X-88.947 Y120.155
X-88.869 Y119.942
X-88.773 Y119.736
X-88.661 Y119.539
X-88.534 Y119.351
X-88.392 Y119.173
X-88.235 Y119.008
X-88.066 Y118.855
X-87.885 Y118.716
X-87.693 Y118.592
X-87.492 Y118.484
X-87.283 Y118.392
X-87.067 Y118.318
X-86.847 Y118.261
X-86.623 Y118.222
X-86.396 Y118.201
X-86.168 Y118.199
X-85.94 Y118.214
X-85.714 Y118.248
X-85.491 Y118.301
X-85.273 Y118.37
X-85.062 Y118.457
X-84.858 Y118.561
X-84.658 Y118.684
X-84.461 Y118.828
X-84.269 Y118.993
X-84.087 Y119.178
X-83.917 Y119.381
X-83.762 Y119.599
X-83.625 Y119.828
X-83.508 Y120.067
X-83.41 Y120.313
X-83.334 Y120.563
X-83.278 Y120.817
X-83.243 Y121.071
X-83.229 Y121.326
X-83.238 Y121.536
X-83.307 Y121.949
X-83.414 Y122.193
X-83.699 Y122.752
X-83.878 Y122.983
X-84.269 Y123.37
X-84.529 Y123.585
X-85.148 Y123.899
X-85.367 Y123.991
X-86.246 Y124.127
X-87.149 Y123.986
X-87.452 Y123.854
X-87.979 Y123.579
X-88.272 Y123.335
X-88.628 Y122.975
X-88.814 Y122.73
X-89.132 Y122.096
X-89.193 Y121.949
X-89.337 Y121.046
X-89.196 Y120.142
X-89.068 Y119.849
X-88.793 Y119.318
X-88.467 Y118.942
X-88.174 Y118.654
X-87.95 Y118.482
X-87.376 Y118.189
X-87.135 Y118.091
X-86.246 Y117.954
X-85.343 Y118.098
X-84.855 Y118.326
X-84.551 Y118.482
X-84.301 Y118.677
X-83.878 Y119.098
X-83.683 Y119.356
X-83.343 Y120.045
X-83.304 Y120.142
X-83.163 Y121.046
X-83.238 Y121.536
X-83.25 Y121.564 Z-1.944
X-83.259 Y121.587 Z-1.927
X-83.266 Y121.603 Z-1.901
X-83.268 Y121.608 Z-1.871
G0 Z2
X-58.051 Y100.397
Z-1.1
G1 Z-1.3 F500
G3 X-59.449 Y101.684 Z-1.404 I-0.699 J0.643 F1000
X-58.051 Y100.397 Z-1.508 I0.699 J-0.643
X-59.449 Y101.684 Z-1.613 I-0.699 J0.643
X-58.051 Y100.397 Z-1.717 I0.699 J-0.643
X-59.449 Y101.684 Z-1.821 I-0.699 J0.643
X-58.051 Y100.397 Z-1.925 I0.699 J-0.643
X-57.8 Y101.04 Z-1.95 I-0.699 J0.643
X-59.7 I-0.95 J0
X-57.8 I0.95 J0
G1 X-57.778 Y101.47
X-57.747 Y101.573
X-57.742 Y101.707
X-57.768 Y101.84
X-57.82 Y101.965
X-57.891 Y102.079
X-57.979 Y102.182
X-58.08 Y102.272
X-58.191 Y102.348
X-58.311 Y102.41
X-58.437 Y102.459
X-58.567 Y102.493
X-58.701 Y102.513
X-58.836 Y102.52
X-58.97 Y102.513
X-59.104 Y102.492
X-59.235 Y102.459
X-59.362 Y102.413
