(ADAPTIVE1)
(T11  D=2 CR=0 - ZMIN=-2 - FLAT END MILL)
G90 G94 G91.1 G40 G49 G17
G21

(01 2MM FLAT M5 COUNTERSUNK 1)
M5
M9
T11
(DIAMOND OR SPIRAL)
S20000 M3
G54
M8
G0 X-100.996 Y106.883
G43 Z15 H1
Z2
G1 Z0.4 F100
G3 X-101.01 Y106.887 Z0.324 I-0.259 J-0.914 F1000
X-101.051 Y106.897 Z0.26 I-0.245 J-0.918
X-101.114 Y106.908 Z0.216 I-0.203 J-0.928
X-101.189 Y106.916 Z0.2 I-0.141 J-0.94
X-101.321 Y105.021 Z0.15 I-0.066 J-0.948
X-101.189 Y106.916 Z0.1 I0.066 J0.948
X-101.321 Y105.021 Z0.05 I-0.066 J-0.948
X-101.189 Y106.916 Z0 I0.066 J0.948
X-101.321 Y105.021 Z-0.05 I-0.066 J-0.948
X-101.189 Y106.916 Z-0.1 I0.066 J0.948
G1 X-101.652 Y106.949
X-102.015 Y106.901
X-102.597 Y106.789
X-102.746 Y106.756
X-103.255 Y106.541
X-103.777 Y106.267
X-104.173 Y105.962
X-104.633 Y105.527
X-104.941 Y105.123
X-105.254 Y104.606
X-105.453 Y104.121
X-105.615 Y103.538
X-105.681 Y102.995
X-105.68 Y102.411
X-105.612 Y101.904
X-105.599 Y101.858
X-105.434 Y101.284
X-105.248 Y100.838
X-104.911 Y100.292
X-104.602 Y99.894
X-104.164 Y99.486
X-103.756 Y99.174
X-103.226 Y98.899
X-102.747 Y98.7
X-102.302 Y98.606
X-102.019 Y98.556
X-101.617 Y98.505
X-100.919 Y98.558
X-100.489 Y98.619
X-99.819 Y98.861
X-99.455 Y99.012
X-98.833 Y99.455
X-98.532 Y99.689
X-98.056 Y100.277
X-97.833 Y100.57
X-97.394 Y101.596
X-97.236 Y102.721
X-97.389 Y103.845
X-97.828 Y104.876
X-97.891 Y104.965
X-98.477 Y105.7
X-98.551 Y105.785
X-99.008 Y106.13
X-99.455 Y106.444
X-99.819 Y106.595
X-100.511 Y106.844
X-100.917 Y106.898
X-101.189 Y106.916
G3 X-101.994 Y106.566 Z-0.113 I-0.066 J-0.948
G1 X-105.34 Y102.422 Z-0.187
G3 X-105.514 Y101.562 Z-0.2 I0.739 J-0.597
G1 X-105.434 Y101.284
X-105.248 Y100.838
X-104.911 Y100.292
X-104.602 Y99.894
X-104.164 Y99.486
X-103.756 Y99.174
X-103.226 Y98.899
X-102.747 Y98.7
X-102.302 Y98.606
X-102.019 Y98.556
X-101.617 Y98.505
X-100.919 Y98.558
X-100.489 Y98.619
X-99.819 Y98.861
X-99.455 Y99.012
X-98.833 Y99.455
X-98.532 Y99.689
X-98.056 Y100.277
X-97.833 Y100.57
X-97.394 Y101.596
X-97.236 Y102.721
X-97.389 Y103.845
X-97.828 Y104.876
X-97.891 Y104.965
X-98.477 Y105.7
X-98.551 Y105.785
X-99.008 Y106.13
X-99.455 Y106.444
X-99.819 Y106.595
X-100.511 Y106.844
X-100.917 Y106.898
X-101.652 Y106.949
X-102.015 Y106.901
X-102.597 Y106.789
X-102.746 Y106.756
X-103.255 Y106.541
X-103.777 Y106.267
X-104.173 Y105.962
X-104.633 Y105.527
X-104.941 Y105.123
X-105.254 Y104.606
X-105.453 Y104.121
X-105.615 Y103.538
X-105.681 Y102.995
X-105.68 Y102.411
X-105.612 Y101.904
X-105.599 Y101.858
X-105.514 Y101.562
G3 X-103.689 Y102.089 Z-0.25 I0.913 J0.264
X-105.514 Y101.562 Z-0.3 I-0.913 J-0.264
G1 X-105.434 Y101.284
X-105.248 Y100.838
X-104.911 Y100.292
X-104.602 Y99.894
X-104.164 Y99.486
X-103.756 Y99.174
X-103.226 Y98.899
X-102.747 Y98.7
X-102.302 Y98.606
X-102.019 Y98.556
X-101.617 Y98.505
X-100.919 Y98.558
X-100.489 Y98.619
X-99.819 Y98.861
X-99.455 Y99.012
X-98.833 Y99.455
X-98.532 Y99.689
X-98.056 Y100.277
X-97.833 Y100.57
X-97.394 Y101.596
X-97.236 Y102.721
X-97.389 Y103.845
X-97.828 Y104.876
X-97.891 Y104.965
X-98.477 Y105.7
X-98.551 Y105.785
X-99.008 Y106.13
X-99.455 Y106.444
X-99.819 Y106.595
X-100.511 Y106.844
X-100.917 Y106.898
X-101.652 Y106.949
X-102.015 Y106.901
X-102.597 Y106.789
X-102.746 Y106.756
X-103.255 Y106.541
X-103.777 Y106.267
X-104.173 Y105.962
X-104.633 Y105.527
X-104.941 Y105.123
X-105.254 Y104.606
X-105.453 Y104.121
X-105.615 Y103.538
X-105.681 Y102.995
X-105.68 Y102.411
X-105.612 Y101.904
X-105.599 Y101.858
X-105.514 Y101.562
G3 X-105.126 Y101.576 I0.192 J0.056
G1 X-104.384 Y105.058 Z-0.4
G3 X-104.739 Y105.221 I-0.196 J0.042
G1 X-105.073 Y104.784
X-105.476 Y103.811
X-105.62 Y102.72
X-105.588 Y102.476
X-105.482 Y101.667
X-105.056 Y100.643
X-104.393 Y99.787
X-103.551 Y99.141
X-102.538 Y98.724
X-101.477 Y98.585
X-100.416 Y98.724
X-99.404 Y99.141
X-98.563 Y99.787
X-97.884 Y100.67
X-97.474 Y101.666
X-97.335 Y102.72
X-97.48 Y103.81
X-97.897 Y104.809
X-98.552 Y105.661
X-99.419 Y106.321
X-100.416 Y106.732
X-101.477 Y106.871
X-102.538 Y106.732
X-103.536 Y106.322
X-104.402 Y105.662
X-104.739 Y105.221
G3 X-104.725 Y105.099 I0.07 J-0.054
G1 X-104.425 Y104.852
G2 X-104.403 Y104.826 I-0.056 J-0.068
G1 X-104.352 Y104.727
G3 X-104.195 Y104.809 I0.078 J0.041
X-104.271 Y104.857 I-0.078 J-0.041
X-105.174 Y104.274 Z-0.5 I-0.027 J-0.95
G1 X-105.384 Y103.773
X-105.52 Y102.721
X-105.378 Y101.667
X-105.315 Y101.515
X-104.984 Y100.717
X-104.348 Y99.884
X-104.233 Y99.788
X-103.503 Y99.229
X-102.537 Y98.827
X-101.477 Y98.685
X-100.418 Y98.828
X-99.452 Y99.229
X-98.621 Y99.867
X-97.972 Y100.717
X-97.578 Y101.667
X-97.435 Y102.721
X-97.572 Y103.773
X-97.984 Y104.76
X-98.607 Y105.571
X-98.65 Y105.611
X-99.458 Y106.231
X-100.417 Y106.628
X-101.477 Y106.771
X-102.537 Y106.629
X-103.497 Y106.231
X-104.322 Y105.599
X-104.47 Y105.415
X-104.97 Y104.762
X-105.174 Y104.274
G3 X-105.05 Y104.141 I0.092 J-0.039
G1 X-104.212 Y104.427
G3 X-104.177 Y104.448 I-0.032 J0.095
G1 X-103.516 Y105.273
G3 X-103.566 Y105.431 I-0.078 J0.062
X-104.587 Y105.095 Z-0.6 I-0.265 J-0.912
G1 X-104.899 Y104.685
X-105.287 Y103.747
X-105.42 Y102.72
X-105.29 Y101.729
X-105.286 Y101.705
X-104.894 Y100.759
X-104.275 Y99.951
X-103.452 Y99.315
X-102.484 Y98.917
X-101.478 Y98.785
X-100.444 Y98.924
X-99.503 Y99.315
X-98.68 Y99.951
X-98.061 Y100.76
X-97.669 Y101.709
X-97.535 Y102.72
X-97.668 Y103.74
X-98.057 Y104.685
X-98.681 Y105.506
X-98.726 Y105.544
X-99.499 Y106.138
X-100.473 Y106.539
X-101.476 Y106.671
X-102.516 Y106.53
X-103.454 Y106.139
X-104.262 Y105.519
X-104.268 Y105.514
X-104.587 Y105.095
G3 X-104.617 Y105.04 I0.159 J-0.121
G1 X-104.739 Y104.694
X-105.243 Y103.271 Z-0.7
G3 X-105.252 Y103.231 I0.189 J-0.067
G1 X-105.32 Y102.72
X-105.289 Y102.485
X-105.191 Y101.741
X-104.802 Y100.8
X-104.198 Y100.013
X-103.411 Y99.408
X-102.462 Y99.014
X-101.477 Y98.885
X-100.492 Y99.014
X-99.543 Y99.409
X-98.756 Y100.016
X-98.154 Y100.801
X-97.764 Y101.74
X-97.635 Y102.72
X-97.771 Y103.736
X-98.147 Y104.643
X-98.756 Y105.44
X-99.573 Y106.063
X-100.491 Y106.442
X-101.477 Y106.571
X-102.463 Y106.442
X-103.383 Y106.063
X-103.642 Y105.871
X-104.198 Y105.443
X-104.809 Y104.644
X-105.185 Y103.736
X-105.252 Y103.231
G3 X-105.13 Y103.02 I0.198 J-0.026
G1 X-98.774 Y100.403 Z-0.8
G3 X-98.539 Y100.466 I0.076 J0.185
G1 X-98.233 Y100.864
X-97.86 Y101.777
X-97.735 Y102.72
X-97.863 Y103.699
X-98.244 Y104.611
X-98.82 Y105.361
X-98.867 Y105.403
X-99.592 Y105.959
X-100.493 Y106.337
X-101.477 Y106.471
X-102.461 Y106.338
X-103.364 Y105.959
X-104.109 Y105.387
X-104.174 Y105.312
X-104.725 Y104.587
X-105.093 Y103.7
X-105.22 Y102.72
X-105.096 Y101.774
X-105.015 Y101.568
X-104.722 Y100.862
X-104.113 Y100.072
X-103.339 Y99.481
X-102.462 Y99.118
X-101.477 Y98.985
X-100.493 Y99.119
X-99.596 Y99.494
X-98.843 Y100.072
X-98.539 Y100.466
G3 X-98.746 Y100.782 I-0.158 J0.122
G1 X-102.828 Y99.77 Z-0.9
G3 X-102.856 Y99.391 I0.048 J-0.194
G1 X-102.409 Y99.207
X-101.478 Y99.085
X-100.526 Y99.212
X-99.649 Y99.578
X-98.906 Y100.148
X-98.899 Y100.155
X-98.325 Y100.903
X-97.957 Y101.797
X-97.835 Y102.72
X-97.957 Y103.659
X-98.318 Y104.538
X-98.897 Y105.297
X-99.672 Y105.89
X-100.544 Y106.249
X-101.476 Y106.371
X-102.436 Y106.241
X-103.313 Y105.873
X-104.058 Y105.299
X-104.638 Y104.537
X-104.997 Y103.672
X-105.12 Y102.72
X-104.997 Y101.784
X-104.631 Y100.903
X-104.063 Y100.164
X-104.015 Y100.121
X-103.305 Y99.577
X-102.856 Y99.391
G3 X-102.604 Y99.673 I0.076 J0.185
G1 X-104.583 Y103.266 Z-1
G3 X-104.956 Y103.196 I-0.175 J-0.096
G1 X-105.02 Y102.719
X-104.991 Y102.493
X-104.901 Y101.815
X-104.553 Y100.972
X-104.464 Y100.849
X-103.971 Y100.212
X-103.264 Y99.67
X-103.122 Y99.606
X-102.388 Y99.304
X-101.477 Y99.185
X-100.566 Y99.304
X-99.723 Y99.652
X-98.962 Y100.236
X-98.421 Y100.941
X-98.06 Y101.8
X-98.053 Y101.826
X-97.936 Y102.719
X-98.062 Y103.662
X-98.409 Y104.499
X-98.979 Y105.239
X-99.722 Y105.803
X-100.566 Y106.151
X-101.477 Y106.271
X-102.388 Y106.152
X-103.233 Y105.804
X-103.641 Y105.496
X-103.975 Y105.24
X-104.547 Y104.499
X-104.894 Y103.662
X-104.956 Y103.196
G3 X-104.589 Y103.063 I0.198 J-0.027
G1 X-103.271 Y105.164 Z-1.1
G3 X-103.562 Y105.429 I-0.169 J0.106
G1 X-103.922 Y105.151
X-104.465 Y104.439
X-104.802 Y103.625
X-104.92 Y102.72
X-104.806 Y101.849
X-104.716 Y101.624
X-104.463 Y101.014
X-103.9 Y100.283
X-103.203 Y99.748
X-102.351 Y99.399
X-101.477 Y99.285
X-100.603 Y99.4
X-99.753 Y99.748
X-99.054 Y100.284
X-98.492 Y101.015
X-98.15 Y101.851
X-98.035 Y102.72
X-98.154 Y103.625
X-98.49 Y104.436
X-99.054 Y105.172
X-99.759 Y105.711
X-100.603 Y106.056
X-101.477 Y106.171
X-102.351 Y106.056
X-103.195 Y105.712
X-103.562 Y105.429
G3 X-103.567 Y105.307 I0.048 J-0.063
G1 X-103.282 Y105.046
X-103.149 Y104.94
G3 X-103.053 Y105.065 I0.048 J0.063
X-103.078 Y105.078 I-0.048 J-0.063
X-104.102 Y104.747 Z-1.2 I-0.27 J-0.911
G1 X-104.378 Y104.388
X-104.708 Y103.591
X-104.82 Y102.72
X-104.707 Y101.862
X-104.37 Y101.052
X-103.851 Y100.375
X-103.155 Y99.837
X-102.335 Y99.497
X-101.477 Y99.385
X-100.621 Y99.497
X-99.799 Y99.838
X-99.104 Y100.376
X-98.586 Y101.052
X-98.255 Y101.846
X-98.136 Y102.72
X-98.256 Y103.611
X-98.578 Y104.388
X-99.128 Y105.103
X-99.798 Y105.618
X-100.602 Y105.953
X-101.477 Y106.071
X-102.353 Y105.953
X-103.156 Y105.619
X-103.827 Y105.104
X-104.102 Y104.747
G3 X-104.076 Y104.63 I0.062 J-0.048
G1 X-103.737 Y104.452
X-103.586 Y104.383
G3 X-103.525 Y104.527 I0.031 J0.072
X-103.554 Y104.534 I-0.031 J-0.072
X-104.453 Y103.943 Z-1.3 I-0.019 J-0.95
G1 X-104.613 Y103.552
X-104.72 Y102.72
X-104.692 Y102.502
X-104.611 Y101.89
X-104.282 Y101.1
X-103.767 Y100.431
X-103.109 Y99.926
X-102.313 Y99.594
X-101.477 Y99.485
X-100.641 Y99.595
X-99.846 Y99.927
X-99.188 Y100.432
X-98.674 Y101.1
X-98.345 Y101.89
X-98.235 Y102.72
X-98.343 Y103.552
X-98.667 Y104.343
X-99.177 Y105.012
X-99.872 Y105.544
X-100.641 Y105.861
X-101.477 Y105.971
X-102.313 Y105.862
X-103.111 Y105.528
X-103.777 Y105.013
X-104.289 Y104.344
X-104.453 Y103.943
G3 X-104.46 Y103.812 I0.185 J-0.076
G1 X-104.417 Y103.665
X-103.451 Y100.366 Z-1.4
G3 X-103.381 Y100.264 I0.192 J0.056
G1 X-103.044 Y100.003
X-102.277 Y99.69
X-101.477 Y99.585
X-100.677 Y99.69
X-99.91 Y100.004
X-99.245 Y100.519
X-98.753 Y101.162
X-98.44 Y101.926
X-98.335 Y102.72
X-98.445 Y103.55
X-98.766 Y104.313
X-99.266 Y104.959
X-99.909 Y105.451
X-100.677 Y105.766
X-101.477 Y105.871
X-102.277 Y105.766
X-103.045 Y105.452
X-103.689 Y104.959
X-104.19 Y104.312
X-104.511 Y103.55
X-104.62 Y102.72
X-104.516 Y101.924
X-104.417 Y101.68
X-104.203 Y101.163
X-103.711 Y100.518
X-103.381 Y100.264
G3 X-103.059 Y100.42 I0.122 J0.158
G1 X-103.002 Y104.951 Z-1.5
G3 X-103.324 Y105.112 I-0.2 J0.003
G1 X-103.64 Y104.867
X-104.112 Y104.252
X-104.418 Y103.514
X-104.52 Y102.721
X-104.412 Y101.927
X-104.106 Y101.196
X-103.634 Y100.582
X-102.99 Y100.088
X-102.275 Y99.792
X-101.477 Y99.685
X-100.679 Y99.793
X-99.965 Y100.088
X-99.321 Y100.582
X-98.848 Y101.198
X-98.543 Y101.928
X-98.435 Y102.721
X-98.538 Y103.514
X-98.842 Y104.25
X-99.315 Y104.866
X-99.959 Y105.365
X-100.679 Y105.663
X-101.477 Y105.771
X-102.275 Y105.664
X-102.997 Y105.365
X-103.324 Y105.112
G3 X-103.36 Y104.832 I0.122 J-0.158
G1 X-99.987 Y100.45 Z-1.6
G3 X-99.707 Y100.413 I0.158 J0.122
G1 X-99.39 Y100.656
X-98.922 Y101.273
X-98.636 Y101.964
X-98.535 Y102.721
X-98.633 Y103.477
X-98.931 Y104.203
X-99.385 Y104.794
X-99.614 Y104.976
X-100.021 Y105.283
X-100.716 Y105.571
X-101.477 Y105.671
X-102.238 Y105.571
X-102.933 Y105.284
X-103.546 Y104.819
X-103.58 Y104.782
X-104.025 Y104.203
X-104.323 Y103.477
X-104.42 Y102.72
X-104.393 Y102.511
X-104.32 Y101.964
X-104.034 Y101.273
X-103.565 Y100.655
X-102.932 Y100.172
X-102.238 Y99.885
X-101.477 Y99.785
X-100.716 Y99.885
X-100.022 Y100.172
X-99.707 Y100.413
G3 X-99.655 Y100.672 I-0.122 J0.159
G1 X-102.298 Y105.26 Z-1.7
G3 X-102.547 Y105.345 I-0.173 J-0.1
G1 X-102.894 Y105.203
X-103.484 Y104.754
X-103.948 Y104.156
X-104.23 Y103.476
X-104.33 Y102.72
X-104.235 Y101.999
X-104.119 Y101.712
X-103.942 Y101.292
X-103.507 Y100.725
X-103.338 Y100.589
X-102.919 Y100.268
X-102.201 Y99.97
X-101.477 Y99.875
X-100.753 Y99.97
X-100.036 Y100.268
X-99.461 Y100.71
X-99.014 Y101.292
X-98.72 Y102.001
X-98.625 Y102.72
X-98.726 Y103.476
X-99.007 Y104.155
X-99.471 Y104.754
X-100.061 Y105.203
X-100.752 Y105.486
X-101.477 Y105.581
X-102.202 Y105.486
X-102.547 Y105.345
G3 X-102.445 Y104.962 I0.076 J-0.185
G1 X-101.241 Y105.118 Z-1.8
G3 X-101.25 Y105.515 I-0.026 J0.198
G1 X-101.654 Y105.548
X-101.853 Y105.522
X-102.511 Y105.351
X-102.718 Y105.263
X-103.351 Y104.844
X-103.408 Y104.8
X-103.96 Y104.099
X-103.974 Y104.067
X-104.25 Y103.267
X-104.279 Y103.033
X-104.275 Y102.374
X-104.249 Y102.174
X-104.112 Y101.775
X-103.961 Y101.362
X-103.431 Y100.678
X-103.348 Y100.61
X-102.686 Y100.178
X-102.452 Y100.086
X-101.82 Y99.93
X-101.62 Y99.906
X-100.785 Y99.978
X-99.984 Y100.325
X-99.777 Y100.487
X-99.335 Y100.894
X-99.172 Y101.105
X-98.856 Y101.692
X-98.781 Y101.874
X-98.64 Y102.72
X-98.787 Y103.596
X-98.883 Y103.818
X-99.185 Y104.37
X-99.339 Y104.566
X-99.85 Y105.032
X-99.967 Y105.122
X-100.785 Y105.478
X-101.25 Y105.515
G3 X-101.404 Y103.622 Z-1.85 I-0.077 J-0.947
X-101.25 Y105.515 Z-1.9 I0.077 J0.947
G1 X-101.654 Y105.548
X-101.853 Y105.522
X-102.511 Y105.351
X-102.718 Y105.263
X-103.351 Y104.844
X-103.408 Y104.8
X-103.96 Y104.099
X-103.974 Y104.067
X-104.25 Y103.267
X-104.279 Y103.033
X-104.275 Y102.374
X-104.249 Y102.174
X-104.112 Y101.775
X-103.961 Y101.362
X-103.431 Y100.678
X-103.348 Y100.61
X-102.686 Y100.178
X-102.452 Y100.086
X-101.82 Y99.93
X-101.62 Y99.906
X-100.785 Y99.978
X-99.984 Y100.325
X-99.777 Y100.487
X-99.335 Y100.894
X-99.172 Y101.105
X-98.856 Y101.692
X-98.781 Y101.874
X-98.64 Y102.72
X-98.787 Y103.596
X-98.883 Y103.818
X-99.185 Y104.37
X-99.339 Y104.566
X-99.85 Y105.032
X-99.967 Y105.122
X-100.785 Y105.478
X-101.25 Y105.515
G3 X-101.343 Y105.501 I-0.016 J-0.199
G1 X-102.267 Y105.121
X-102.315 Y105.101 Z-1.893
X-102.36 Y105.083 Z-1.873
X-102.398 Y105.067 Z-1.841
X-102.428 Y105.055 Z-1.8
X-102.446 Y105.047 Z-1.752
X-102.452 Y105.045 Z-1.7
G0 Z15

(02 2MM FLAT M5 COUNTERSUNK 2)
M8
G0 X-73.496 Y106.883
Z15
Z2
G1 Z0.4 F100
G3 X-73.51 Y106.887 Z0.324 I-0.259 J-0.914 F1000
X-73.551 Y106.897 Z0.26 I-0.245 J-0.918
X-73.614 Y106.908 Z0.216 I-0.203 J-0.928
X-73.689 Y106.916 Z0.2 I-0.141 J-0.94
X-73.821 Y105.021 Z0.15 I-0.066 J-0.948
X-73.689 Y106.916 Z0.1 I0.066 J0.948
X-73.821 Y105.021 Z0.05 I-0.066 J-0.948
X-73.689 Y106.916 Z0 I0.066 J0.948
X-73.821 Y105.021 Z-0.05 I-0.066 J-0.948
X-73.689 Y106.916 Z-0.1 I0.066 J0.948
G1 X-74.152 Y106.949
X-74.515 Y106.901
X-75.097 Y106.789
X-75.246 Y106.756
X-75.755 Y106.541
X-76.277 Y106.267
X-76.673 Y105.962
X-77.133 Y105.527
X-77.441 Y105.123
X-77.754 Y104.606
X-77.953 Y104.121
X-78.115 Y103.538
X-78.181 Y102.995
X-78.18 Y102.411
X-78.112 Y101.904
X-78.099 Y101.858
X-77.934 Y101.284
X-77.748 Y100.838
X-77.411 Y100.292
X-77.102 Y99.894
X-76.664 Y99.486
X-76.256 Y99.174
X-75.726 Y98.899
X-75.247 Y98.7
X-74.802 Y98.606
X-74.519 Y98.556
X-74.117 Y98.505
X-73.419 Y98.558
X-72.989 Y98.619
X-72.319 Y98.861
X-71.955 Y99.012
X-71.333 Y99.455
X-71.032 Y99.689
X-70.556 Y100.277
X-70.333 Y100.57
X-69.894 Y101.596
X-69.736 Y102.721
X-69.889 Y103.845
X-70.328 Y104.876
X-70.391 Y104.965
X-70.977 Y105.7
X-71.051 Y105.785
X-71.508 Y106.13
X-71.955 Y106.444
X-72.319 Y106.595
X-73.011 Y106.844
X-73.417 Y106.898
X-73.689 Y106.916
G3 X-73.821 Y105.021 Z-0.15 I-0.066 J-0.948
X-73.689 Y106.916 Z-0.2 I0.066 J0.948
G1 X-74.152 Y106.949
X-74.515 Y106.901
X-75.097 Y106.789
X-75.246 Y106.756
X-75.755 Y106.541
X-76.277 Y106.267
X-76.673 Y105.962
X-77.133 Y105.527
X-77.441 Y105.123
X-77.754 Y104.606
X-77.953 Y104.121
X-78.115 Y103.538
X-78.181 Y102.995
X-78.18 Y102.411
X-78.112 Y101.904
X-78.099 Y101.858
X-77.934 Y101.284
X-77.748 Y100.838
X-77.411 Y100.292
X-77.102 Y99.894
X-76.664 Y99.486
X-76.256 Y99.174
X-75.726 Y98.899
X-75.247 Y98.7
X-74.802 Y98.606
X-74.519 Y98.556
X-74.117 Y98.505
X-73.419 Y98.558
X-72.989 Y98.619
X-72.319 Y98.861
X-71.955 Y99.012
X-71.333 Y99.455
X-71.032 Y99.689
X-70.556 Y100.277
X-70.333 Y100.57
X-69.894 Y101.596
X-69.736 Y102.721
X-69.889 Y103.845
X-70.328 Y104.876
X-70.391 Y104.965
X-70.977 Y105.7
X-71.051 Y105.785
X-71.508 Y106.13
X-71.955 Y106.444
X-72.319 Y106.595
X-73.011 Y106.844
X-73.417 Y106.898
X-73.689 Y106.916
G3 X-73.821 Y105.021 Z-0.25 I-0.066 J-0.948
X-73.689 Y106.916 Z-0.3 I0.066 J0.948
G1 X-74.152 Y106.949
X-74.515 Y106.901
X-75.097 Y106.789
X-75.246 Y106.756
X-75.755 Y106.541
X-76.277 Y106.267
X-76.673 Y105.962
X-77.133 Y105.527
X-77.441 Y105.123
X-77.754 Y104.606
X-77.953 Y104.121
X-78.115 Y103.538
X-78.181 Y102.995
X-78.18 Y102.411
X-78.112 Y101.904
X-78.099 Y101.858
X-77.934 Y101.284
X-77.748 Y100.838
X-77.411 Y100.292
X-77.102 Y99.894
X-76.664 Y99.486
X-76.256 Y99.174
X-75.726 Y98.899
X-75.247 Y98.7
X-74.802 Y98.606
X-74.519 Y98.556
X-74.117 Y98.505
X-73.419 Y98.558
X-72.989 Y98.619
X-72.319 Y98.861
X-71.955 Y99.012
X-71.333 Y99.455
X-71.032 Y99.689
X-70.556 Y100.277
X-70.333 Y100.57
X-69.894 Y101.596
X-69.736 Y102.721
X-69.889 Y103.845
X-70.328 Y104.876
X-70.391 Y104.965
X-70.977 Y105.7
X-71.051 Y105.785
X-71.508 Y106.13
X-71.955 Y106.444
X-72.319 Y106.595
X-73.011 Y106.844
X-73.417 Y106.898
X-73.689 Y106.916
G3 X-73.886 Y106.636 I-0.014 J-0.2
G1 X-71.064 Y100.27 Z-0.4
G3 X-70.723 Y100.229 I0.183 J0.081
G1 X-70.384 Y100.67
X-69.974 Y101.666
X-69.835 Y102.72
X-69.98 Y103.81
X-70.397 Y104.809
X-71.052 Y105.661
X-71.919 Y106.321
X-72.916 Y106.732
X-73.977 Y106.871
X-75.038 Y106.732
X-76.036 Y106.322
X-76.902 Y105.662
X-77.573 Y104.784
X-77.976 Y103.811
X-78.12 Y102.72
X-78.088 Y102.476
X-77.982 Y101.667
X-77.556 Y100.643
X-76.893 Y99.787
X-76.051 Y99.141
X-75.038 Y98.724
X-73.977 Y98.585
X-72.916 Y98.724
X-71.904 Y99.141
X-71.063 Y99.787
X-70.723 Y100.229
G3 X-70.781 Y100.524 I-0.159 J0.122
G1 X-77.389 Y104.369 Z-0.5
G3 X-77.674 Y104.274 I-0.101 J-0.173
G1 X-77.884 Y103.773
X-78.02 Y102.721
X-77.878 Y101.667
X-77.815 Y101.515
X-77.484 Y100.717
X-76.848 Y99.884
X-76.733 Y99.788
X-76.003 Y99.229
X-75.037 Y98.827
X-73.977 Y98.685
X-72.918 Y98.828
X-71.952 Y99.229
X-71.121 Y99.867
X-70.472 Y100.717
X-70.078 Y101.667
X-69.935 Y102.721
X-70.072 Y103.773
X-70.484 Y104.76
X-71.107 Y105.571
X-71.15 Y105.611
X-71.958 Y106.231
X-72.917 Y106.628
X-73.977 Y106.771
X-75.037 Y106.629
X-75.997 Y106.231
X-76.822 Y105.599
X-76.97 Y105.415
X-77.47 Y104.762
X-77.674 Y104.274
G3 X-77.416 Y104.011 I0.185 J-0.077
G1 X-72.492 Y105.969 Z-0.6
G3 X-72.49 Y106.34 I-0.074 J0.186
G1 X-72.973 Y106.539
X-73.976 Y106.671
X-75.016 Y106.53
X-75.954 Y106.139
X-76.762 Y105.519
X-76.768 Y105.514
X-77.399 Y104.685
X-77.787 Y103.747
X-77.92 Y102.72
X-77.79 Y101.729
X-77.786 Y101.705
X-77.394 Y100.759
X-76.775 Y99.951
X-75.952 Y99.315
X-74.984 Y98.917
X-73.978 Y98.785
X-72.944 Y98.924
X-72.003 Y99.315
X-71.18 Y99.951
X-70.561 Y100.76
X-70.169 Y101.709
X-70.035 Y102.72
X-70.168 Y103.74
X-70.557 Y104.685
X-71.181 Y105.506
X-71.226 Y105.544
X-71.999 Y106.138
X-72.49 Y106.34
G3 X-72.751 Y106.231 I-0.076 J-0.185
G1 X-75.547 Y99.473 Z-0.7
G3 X-75.439 Y99.212 I0.185 J-0.076
G1 X-74.962 Y99.014
X-73.977 Y98.885
X-72.992 Y99.014
X-72.043 Y99.409
X-71.256 Y100.016
X-70.654 Y100.801
X-70.264 Y101.74
X-70.135 Y102.72
X-70.271 Y103.736
X-70.647 Y104.643
X-71.256 Y105.44
X-72.073 Y106.063
X-72.991 Y106.442
X-73.977 Y106.571
X-74.963 Y106.442
X-75.883 Y106.063
X-76.142 Y105.871
X-76.698 Y105.443
X-77.309 Y104.644
X-77.685 Y103.736
X-77.82 Y102.72
X-77.789 Y102.485
X-77.691 Y101.741
X-77.302 Y100.8
X-76.698 Y100.013
X-75.911 Y99.408
X-75.439 Y99.212
G3 X-75.307 Y99.204 I0.077 J0.185
G1 X-75.116 Y99.259
X-71.143 Y100.396 Z-0.8
G3 X-71.039 Y100.466 I-0.055 J0.192
G1 X-70.733 Y100.864
X-70.36 Y101.777
X-70.235 Y102.72
X-70.363 Y103.699
X-70.744 Y104.611
X-71.32 Y105.361
X-71.367 Y105.403
X-72.092 Y105.959
X-72.993 Y106.337
X-73.977 Y106.471
X-74.961 Y106.338
X-75.864 Y105.959
X-76.609 Y105.387
X-76.674 Y105.312
X-77.225 Y104.587
X-77.593 Y103.7
X-77.72 Y102.72
X-77.596 Y101.774
X-77.515 Y101.568
X-77.222 Y100.862
X-76.613 Y100.072
X-75.839 Y99.481
X-74.962 Y99.118
X-73.977 Y98.985
X-72.993 Y99.119
X-72.096 Y99.494
X-71.343 Y100.072
X-71.039 Y100.466
G3 X-71 Y100.617 I-0.158 J0.122
G1 X-71.034 Y100.85
X-71.712 Y105.467 Z-0.9
G3 X-71.788 Y105.597 I-0.198 J-0.029
G1 X-72.172 Y105.89
X-73.044 Y106.249
X-73.976 Y106.371
X-74.936 Y106.241
X-75.813 Y105.873
X-76.558 Y105.299
X-77.138 Y104.537
X-77.497 Y103.672
X-77.62 Y102.72
X-77.497 Y101.784
X-77.131 Y100.903
X-76.563 Y100.164
X-76.515 Y100.121
X-75.805 Y99.577
X-74.909 Y99.207
X-73.978 Y99.085
X-73.026 Y99.212
X-72.149 Y99.578
X-71.406 Y100.148
X-71.399 Y100.155
X-70.825 Y100.903
X-70.457 Y101.797
X-70.335 Y102.72
X-70.457 Y103.659
X-70.818 Y104.538
X-71.397 Y105.297
X-71.788 Y105.597
G3 X-71.988 Y105.622 I-0.121 J-0.159
G1 X-77.336 Y103.354 Z-1
G3 X-77.456 Y103.196 I0.078 J-0.184
G1 X-77.52 Y102.719
X-77.491 Y102.493
X-77.401 Y101.815
X-77.053 Y100.972
X-76.964 Y100.849
X-76.471 Y100.212
X-75.764 Y99.67
X-75.622 Y99.606
X-74.888 Y99.304
X-73.977 Y99.185
X-73.066 Y99.304
X-72.223 Y99.652
X-71.462 Y100.236
X-70.921 Y100.941
X-70.56 Y101.8
X-70.553 Y101.826
X-70.436 Y102.719
X-70.562 Y103.662
X-70.909 Y104.499
X-71.479 Y105.239
X-72.222 Y105.803
X-73.066 Y106.151
X-73.977 Y106.271
X-74.888 Y106.152
X-75.733 Y105.804
X-76.141 Y105.496
X-76.475 Y105.24
X-77.047 Y104.499
X-77.394 Y103.662
X-77.456 Y103.196
G3 X-77.089 Y103.063 I0.198 J-0.027
G1 X-75.771 Y105.164 Z-1.1
G3 X-76.062 Y105.429 I-0.169 J0.106
G1 X-76.422 Y105.151
X-76.965 Y104.439
X-77.302 Y103.625
X-77.42 Y102.72
X-77.306 Y101.849
X-77.216 Y101.624
X-76.963 Y101.014
X-76.4 Y100.283
X-75.703 Y99.748
X-74.851 Y99.399
X-73.977 Y99.285
X-73.103 Y99.4
X-72.253 Y99.748
X-71.554 Y100.284
X-70.992 Y101.015
X-70.65 Y101.851
X-70.535 Y102.72
X-70.654 Y103.625
X-70.99 Y104.436
X-71.554 Y105.172
X-72.259 Y105.711
X-73.103 Y106.056
X-73.977 Y106.171
X-74.851 Y106.056
X-75.695 Y105.712
X-76.062 Y105.429
G3 X-76.113 Y105.17 I0.122 J-0.158
G1 X-72.958 Y99.752 Z-1.2
G3 X-72.709 Y99.668 I0.173 J0.101
G1 X-72.299 Y99.838
X-71.604 Y100.376
X-71.086 Y101.052
X-70.755 Y101.846
X-70.636 Y102.72
X-70.756 Y103.611
X-71.078 Y104.388
X-71.628 Y105.103
X-72.298 Y105.618
X-73.102 Y105.953
X-73.977 Y106.071
X-74.853 Y105.953
X-75.656 Y105.619
X-76.327 Y105.104
X-76.878 Y104.388
X-77.208 Y103.591
X-77.32 Y102.72
X-77.207 Y101.862
X-76.87 Y101.052
X-76.351 Y100.375
X-75.655 Y99.837
X-74.835 Y99.497
X-73.977 Y99.385
X-73.121 Y99.497
X-72.709 Y99.668
G3 X-72.587 Y99.829 I-0.077 J0.185
G1 X-71.95 Y105.097 Z-1.3
G3 X-72.027 Y105.279 I-0.199 J0.024
G1 X-72.372 Y105.544
X-73.141 Y105.861
X-73.977 Y105.971
X-74.813 Y105.862
X-75.611 Y105.528
X-76.277 Y105.013
X-76.789 Y104.344
X-77.113 Y103.552
X-77.22 Y102.72
X-77.192 Y102.502
X-77.111 Y101.89
X-76.782 Y101.1
X-76.267 Y100.431
X-75.609 Y99.926
X-74.813 Y99.594
X-73.977 Y99.485
X-73.141 Y99.595
X-72.346 Y99.927
X-71.688 Y100.432
X-71.174 Y101.1
X-70.845 Y101.89
X-70.735 Y102.72
X-70.843 Y103.552
X-71.167 Y104.343
X-71.677 Y105.012
X-72.027 Y105.279
G3 X-72.314 Y105.008 I-0.122 J-0.159
G1 X-71.457 Y103.745 Z-1.4
G3 X-71.107 Y103.935 I0.165 J0.112
G1 X-71.266 Y104.313
X-71.766 Y104.959
X-72.409 Y105.451
X-73.177 Y105.766
X-73.977 Y105.871
X-74.777 Y105.766
X-75.545 Y105.452
X-76.189 Y104.959
X-76.69 Y104.312
X-77.011 Y103.55
X-77.12 Y102.72
X-77.016 Y101.924
X-76.917 Y101.68
X-76.703 Y101.163
X-76.211 Y100.518
X-75.544 Y100.003
X-74.777 Y99.69
X-73.977 Y99.585
X-73.177 Y99.69
X-72.41 Y100.004
X-71.745 Y100.519
X-71.253 Y101.162
X-70.94 Y101.926
X-70.835 Y102.72
X-70.945 Y103.55
X-71.107 Y103.935
G3 X-71.413 Y104.016 I-0.184 J-0.077
G1 X-75.811 Y100.652 Z-1.5
G3 Y100.334 I0.122 J-0.159
G1 X-75.49 Y100.088
X-74.775 Y99.792
X-73.977 Y99.685
X-73.179 Y99.793
X-72.465 Y100.088
X-71.821 Y100.582
X-71.348 Y101.198
X-71.043 Y101.928
X-70.935 Y102.721
X-71.038 Y103.514
X-71.342 Y104.25
X-71.815 Y104.866
X-72.459 Y105.365
X-73.179 Y105.663
X-73.977 Y105.771
X-74.775 Y105.664
X-75.497 Y105.365
X-76.14 Y104.867
X-76.612 Y104.252
X-76.918 Y103.514
X-77.02 Y102.721
X-76.912 Y101.927
X-76.606 Y101.196
X-76.134 Y100.582
X-75.811 Y100.334
G3 X-75.49 Y100.49 I0.122 J0.159
G1 X-75.418 Y104.889 Z-1.6
G3 X-75.739 Y105.052 I-0.2 J0.003
G1 X-76.046 Y104.819
X-76.08 Y104.782
X-76.525 Y104.203
X-76.823 Y103.477
X-76.92 Y102.72
X-76.893 Y102.511
X-76.82 Y101.964
X-76.534 Y101.273
X-76.065 Y100.655
X-75.432 Y100.172
X-74.738 Y99.885
X-73.977 Y99.785
X-73.216 Y99.885
X-72.522 Y100.172
X-71.89 Y100.656
X-71.422 Y101.273
X-71.136 Y101.964
X-71.035 Y102.721
X-71.133 Y103.477
X-71.431 Y104.203
X-71.885 Y104.794
X-72.114 Y104.976
X-72.521 Y105.283
X-73.216 Y105.571
X-73.977 Y105.671
X-74.738 Y105.571
X-75.433 Y105.284
X-75.739 Y105.052
G3 X-75.791 Y104.793 I0.121 J-0.159
G1 X-73.142 Y100.205 Z-1.7
G3 X-72.892 Y100.12 I0.173 J0.1
G1 X-72.536 Y100.268
X-71.961 Y100.71
X-71.514 Y101.292
X-71.22 Y102.001
X-71.125 Y102.72
X-71.226 Y103.476
X-71.507 Y104.155
X-71.971 Y104.754
X-72.561 Y105.203
X-73.252 Y105.486
X-73.977 Y105.581
X-74.702 Y105.486
X-75.394 Y105.203
X-75.984 Y104.754
X-76.448 Y104.156
X-76.73 Y103.476
X-76.83 Y102.72
X-76.735 Y101.999
X-76.619 Y101.712
X-76.442 Y101.292
X-76.007 Y100.725
X-75.838 Y100.589
X-75.419 Y100.268
X-74.701 Y99.97
X-73.977 Y99.875
X-73.253 Y99.97
X-72.892 Y100.12
G3 X-72.948 Y100.504 I-0.077 J0.185
G1 X-75.376 Y100.753 Z-1.8
G3 X-75.506 Y100.387 I-0.02 J-0.199
G1 X-75.186 Y100.178
X-74.952 Y100.086
X-74.32 Y99.93
X-74.12 Y99.906
X-73.285 Y99.978
X-72.484 Y100.325
X-72.277 Y100.487
X-71.835 Y100.894
X-71.672 Y101.105
X-71.356 Y101.692
X-71.281 Y101.874
X-71.14 Y102.72
X-71.287 Y103.596
X-71.383 Y103.818
X-71.685 Y104.37
X-71.839 Y104.566
X-72.35 Y105.032
X-72.467 Y105.122
X-73.285 Y105.478
X-74.154 Y105.548
X-74.353 Y105.522
X-75.011 Y105.351
X-75.218 Y105.263
X-75.851 Y104.844
X-75.908 Y104.8
X-76.46 Y104.099
X-76.474 Y104.067
X-76.75 Y103.267
X-76.779 Y103.033
X-76.775 Y102.374
X-76.749 Y102.174
X-76.612 Y101.775
X-76.461 Y101.362
X-75.931 Y100.678
X-75.848 Y100.61
X-75.506 Y100.387
G3 X-74.467 Y101.977 Z-1.85 I0.519 J0.795
X-75.506 Y100.387 Z-1.9 I-0.519 J-0.795
G1 X-75.186 Y100.178
X-74.952 Y100.086
X-74.32 Y99.93
X-74.12 Y99.906
X-73.285 Y99.978
X-72.484 Y100.325
X-72.277 Y100.487
X-71.835 Y100.894
X-71.672 Y101.105
X-71.356 Y101.692
X-71.281 Y101.874
X-71.14 Y102.72
X-71.287 Y103.596
X-71.383 Y103.818
X-71.685 Y104.37
X-71.839 Y104.566
X-72.35 Y105.032
X-72.467 Y105.122
X-73.285 Y105.478
X-74.154 Y105.548
X-74.353 Y105.522
X-75.011 Y105.351
X-75.218 Y105.263
X-75.851 Y104.844
X-75.908 Y104.8
X-76.46 Y104.099
X-76.474 Y104.067
X-76.75 Y103.267
X-76.779 Y103.033
X-76.775 Y102.374
X-76.749 Y102.174
X-76.612 Y101.775
X-76.461 Y101.362
X-75.931 Y100.678
X-75.848 Y100.61
X-75.506 Y100.387
G3 X-75.418 Y100.355 I0.109 J0.167
G1 X-74.424 Y100.248
X-74.372 Y100.242 Z-1.893
X-74.324 Y100.237 Z-1.873
X-74.283 Y100.233 Z-1.841
X-74.252 Y100.229 Z-1.8
X-74.232 Y100.227 Z-1.752
X-74.225 Z-1.7
G0 Z15

(03 2MM FLAT M5 COUNTERSUNK 3)
M8
G0 X-73.86 Y78.545
Z15
Z2
G1 Z0.4 F100
G3 X-73.845 Y78.543 Z0.324 I0.125 J0.942 F1000
X-73.803 Y78.539 Z0.26 I0.11 J0.944
X-73.739 Y78.537 Z0.216 I0.068 J0.948
X-73.664 Y78.54 Z0.2 I0.004 J0.95
X-73.807 Y80.434 Z0.15 I-0.071 J0.947
X-73.664 Y78.54 Z0.1 I0.071 J-0.947
X-73.807 Y80.434 Z0.05 I-0.071 J0.947
X-73.664 Y78.54 Z0 I0.071 J-0.947
X-73.807 Y80.434 Z-0.05 I-0.071 J0.947
X-73.664 Y78.54 Z-0.1 I0.071 J-0.947
G1 X-73.419 Y78.558
X-72.989 Y78.619
X-72.319 Y78.861
X-71.955 Y79.012
X-71.333 Y79.455
X-71.032 Y79.689
X-70.556 Y80.277
X-70.333 Y80.57
X-69.894 Y81.596
X-69.736 Y82.721
X-69.889 Y83.845
X-70.329 Y84.876
X-70.391 Y84.965
X-70.977 Y85.7
X-71.051 Y85.785
X-71.508 Y86.13
X-71.955 Y86.444
X-72.319 Y86.595
X-73.011 Y86.844
X-73.417 Y86.898
X-74.152 Y86.949
X-74.515 Y86.901
X-75.097 Y86.789
X-75.246 Y86.756
X-75.754 Y86.542
X-76.277 Y86.267
X-76.673 Y85.962
X-77.133 Y85.527
X-77.441 Y85.123
X-77.754 Y84.606
X-77.953 Y84.121
X-78.115 Y83.538
X-78.181 Y82.995
X-78.18 Y82.411
X-78.112 Y81.904
X-78.099 Y81.858
X-77.934 Y81.284
X-77.748 Y80.838
X-77.411 Y80.292
X-77.102 Y79.894
X-76.664 Y79.486
X-76.256 Y79.174
X-75.726 Y78.899
X-75.247 Y78.7
X-74.802 Y78.606
X-74.519 Y78.556
X-74.117 Y78.505
X-73.664 Y78.54
G3 X-73.807 Y80.434 Z-0.15 I-0.071 J0.947
X-73.664 Y78.54 Z-0.2 I0.071 J-0.947
G1 X-73.419 Y78.558
X-72.989 Y78.619
X-72.319 Y78.861
X-71.955 Y79.012
X-71.333 Y79.455
X-71.032 Y79.689
X-70.556 Y80.277
X-70.333 Y80.57
X-69.894 Y81.596
X-69.736 Y82.721
X-69.889 Y83.845
X-70.329 Y84.876
X-70.391 Y84.965
X-70.977 Y85.7
X-71.051 Y85.785
X-71.508 Y86.13
X-71.955 Y86.444
X-72.319 Y86.595
X-73.011 Y86.844
X-73.417 Y86.898
X-74.152 Y86.949
X-74.515 Y86.901
X-75.097 Y86.789
X-75.246 Y86.756
X-75.754 Y86.542
X-76.277 Y86.267
X-76.673 Y85.962
X-77.133 Y85.527
X-77.441 Y85.123
X-77.754 Y84.606
X-77.953 Y84.121
X-78.115 Y83.538
X-78.181 Y82.995
X-78.18 Y82.411
X-78.112 Y81.904
X-78.099 Y81.858
X-77.934 Y81.284
X-77.748 Y80.838
X-77.411 Y80.292
X-77.102 Y79.894
X-76.664 Y79.486
X-76.256 Y79.174
X-75.726 Y78.899
X-75.247 Y78.7
X-74.802 Y78.606
X-74.519 Y78.556
X-74.117 Y78.505
X-73.664 Y78.54
G3 X-73.807 Y80.434 Z-0.25 I-0.071 J0.947
X-73.664 Y78.54 Z-0.3 I0.071 J-0.947
G1 X-73.419 Y78.558
X-72.989 Y78.619
X-72.319 Y78.861
X-71.955 Y79.012
X-71.333 Y79.455
X-71.032 Y79.689
X-70.556 Y80.277
X-70.333 Y80.57
X-69.894 Y81.596
X-69.736 Y82.721
X-69.889 Y83.845
X-70.329 Y84.876
X-70.391 Y84.965
X-70.977 Y85.7
X-71.051 Y85.785
X-71.508 Y86.13
X-71.955 Y86.444
X-72.319 Y86.595
X-73.011 Y86.844
X-73.417 Y86.898
X-74.152 Y86.949
X-74.515 Y86.901
X-75.097 Y86.789
X-75.246 Y86.756
X-75.754 Y86.542
X-76.277 Y86.267
X-76.673 Y85.962
X-77.133 Y85.527
X-77.441 Y85.123
X-77.754 Y84.606
X-77.953 Y84.121
X-78.115 Y83.538
X-78.181 Y82.995
X-78.18 Y82.411
X-78.112 Y81.904
X-78.099 Y81.858
X-77.934 Y81.284
X-77.748 Y80.838
X-77.411 Y80.292
X-77.102 Y79.894
X-76.664 Y79.486
X-76.256 Y79.174
X-75.726 Y78.899
X-75.247 Y78.7
X-74.802 Y78.606
X-74.519 Y78.556
X-74.117 Y78.505
X-73.664 Y78.54
G3 X-73.502 Y78.833 I-0.015 J0.199
G1 X-76.904 Y85.194 Z-0.4
G3 X-77.239 Y85.221 I-0.176 J-0.094
G1 X-77.573 Y84.784
X-77.976 Y83.811
X-78.12 Y82.72
X-78.088 Y82.476
X-77.982 Y81.667
X-77.556 Y80.643
X-76.893 Y79.787
X-76.051 Y79.141
X-75.038 Y78.724
X-73.977 Y78.585
X-72.916 Y78.724
X-71.904 Y79.141
X-71.063 Y79.787
X-70.384 Y80.67
X-69.974 Y81.666
X-69.835 Y82.72
X-69.98 Y83.81
X-70.397 Y84.809
X-71.052 Y85.661
X-71.919 Y86.322
X-72.916 Y86.732
X-73.977 Y86.871
X-75.038 Y86.732
X-76.036 Y86.322
X-76.902 Y85.662
X-77.239 Y85.221
G3 X-77.225 Y85.099 I0.07 J-0.054
G1 X-76.925 Y84.853
G2 X-76.903 Y84.826 I-0.056 J-0.068
G1 X-76.852 Y84.728
G3 X-76.695 Y84.81 I0.078 J0.041
X-76.771 Y84.857 I-0.078 J-0.041
X-77.674 Y84.274 Z-0.5 I-0.027 J-0.95
G1 X-77.884 Y83.773
X-78.02 Y82.721
X-77.878 Y81.667
X-77.815 Y81.515
X-77.484 Y80.717
X-76.848 Y79.884
X-76.733 Y79.788
X-76.003 Y79.229
X-75.037 Y78.827
X-73.977 Y78.685
X-72.918 Y78.828
X-71.952 Y79.229
X-71.121 Y79.867
X-70.472 Y80.717
X-70.078 Y81.667
X-69.935 Y82.721
X-70.072 Y83.774
X-70.484 Y84.76
X-71.107 Y85.571
X-71.15 Y85.611
X-71.958 Y86.231
X-72.917 Y86.628
X-73.977 Y86.771
X-75.037 Y86.629
X-75.997 Y86.231
X-76.822 Y85.599
X-76.97 Y85.415
X-77.47 Y84.762
X-77.674 Y84.274
G3 X-77.416 Y84.011 I0.185 J-0.077
G1 X-72.492 Y85.969 Z-0.6
G3 X-72.49 Y86.34 I-0.074 J0.186
G1 X-72.973 Y86.539
X-73.976 Y86.671
X-75.015 Y86.53
X-75.954 Y86.139
X-76.762 Y85.519
X-76.768 Y85.514
X-77.399 Y84.685
X-77.787 Y83.747
X-77.92 Y82.72
X-77.79 Y81.729
X-77.786 Y81.705
X-77.394 Y80.759
X-76.775 Y79.951
X-75.952 Y79.315
X-74.984 Y78.917
X-73.978 Y78.785
X-72.944 Y78.924
X-72.003 Y79.315
X-71.18 Y79.951
X-70.561 Y80.76
X-70.169 Y81.709
X-70.035 Y82.72
X-70.168 Y83.74
X-70.557 Y84.685
X-71.181 Y85.506
X-71.226 Y85.544
X-71.999 Y86.138
X-72.49 Y86.34
G3 X-72.668 Y86.327 I-0.076 J-0.185
G1 X-72.793 Y86.253
X-77.656 Y83.377 Z-0.7
G3 X-77.752 Y83.231 I0.102 J-0.172
G1 X-77.82 Y82.72
X-77.789 Y82.485
X-77.691 Y81.741
X-77.302 Y80.8
X-76.698 Y80.013
X-75.911 Y79.408
X-74.962 Y79.014
X-73.977 Y78.885
X-72.992 Y79.014
X-72.043 Y79.409
X-71.256 Y80.016
X-70.653 Y80.801
X-70.264 Y81.741
X-70.135 Y82.72
X-70.271 Y83.736
X-70.647 Y84.644
X-71.256 Y85.44
X-72.073 Y86.063
X-72.991 Y86.442
X-73.977 Y86.571
X-74.963 Y86.442
X-75.883 Y86.063
X-76.142 Y85.871
X-76.698 Y85.443
X-77.309 Y84.644
X-77.685 Y83.736
X-77.752 Y83.231
G3 X-77.63 Y83.02 I0.198 J-0.026
G1 X-71.274 Y80.403 Z-0.8
G3 X-71.039 Y80.466 I0.076 J0.185
G1 X-70.733 Y80.864
X-70.36 Y81.777
X-70.235 Y82.72
X-70.363 Y83.699
X-70.744 Y84.611
X-71.32 Y85.361
X-71.367 Y85.403
X-72.092 Y85.959
X-72.993 Y86.337
X-73.977 Y86.471
X-74.961 Y86.338
X-75.863 Y85.959
X-76.609 Y85.387
X-76.674 Y85.312
X-77.225 Y84.587
X-77.593 Y83.7
X-77.72 Y82.721
X-77.587 Y81.741
X-77.516 Y81.571
X-77.222 Y80.862
X-76.613 Y80.072
X-75.839 Y79.481
X-74.962 Y79.118
X-73.977 Y78.985
X-72.993 Y79.119
X-72.096 Y79.494
X-71.342 Y80.072
X-71.039 Y80.466
G3 X-71.04 Y80.711 I-0.158 J0.122
G1 X-75.14 Y85.995 Z-0.9
G3 X-75.375 Y86.056 I-0.158 J-0.123
G1 X-75.813 Y85.873
X-76.558 Y85.299
X-77.138 Y84.538
X-77.497 Y83.672
X-77.62 Y82.72
X-77.497 Y81.784
X-77.131 Y80.903
X-76.563 Y80.164
X-76.515 Y80.121
X-75.805 Y79.577
X-74.909 Y79.207
X-73.978 Y79.085
X-73.026 Y79.212
X-72.149 Y79.578
X-71.406 Y80.148
X-71.399 Y80.155
X-70.825 Y80.903
X-70.457 Y81.797
X-70.335 Y82.72
X-70.457 Y83.659
X-70.818 Y84.538
X-71.397 Y85.298
X-72.172 Y85.89
X-73.044 Y86.249
X-73.976 Y86.371
X-74.936 Y86.241
X-75.375 Y86.056
G3 X-75.445 Y86.008 I0.077 J-0.184
G1 X-75.627 Y85.811
X-77.189 Y84.117 Z-1
G3 X-77.227 Y84.057 I0.147 J-0.136
G1 X-77.403 Y83.626
X-77.52 Y82.72
X-77.491 Y82.493
X-77.401 Y81.815
X-77.053 Y80.972
X-76.964 Y80.849
X-76.471 Y80.212
X-75.764 Y79.67
X-75.622 Y79.606
X-74.888 Y79.304
X-73.977 Y79.185
X-73.066 Y79.304
X-72.223 Y79.652
X-71.462 Y80.236
X-70.921 Y80.941
X-70.56 Y81.8
X-70.553 Y81.826
X-70.435 Y82.72
X-70.562 Y83.662
X-70.909 Y84.499
X-71.479 Y85.239
X-72.222 Y85.803
X-73.066 Y86.151
X-73.977 Y86.271
X-74.888 Y86.152
X-75.733 Y85.804
X-76.141 Y85.496
X-76.475 Y85.24
X-77.046 Y84.5
X-77.227 Y84.057
G3 X-77.017 Y83.782 I0.185 J-0.076
G1 X-71.407 Y84.484 Z-1.1
G3 X-71.273 Y84.805 I-0.025 J0.198
G1 X-71.554 Y85.172
X-72.26 Y85.711
X-73.103 Y86.056
X-73.977 Y86.171
X-74.851 Y86.056
X-75.695 Y85.712
X-76.422 Y85.151
X-76.965 Y84.439
X-77.302 Y83.625
X-77.42 Y82.72
X-77.306 Y81.849
X-77.216 Y81.624
X-76.963 Y81.014
X-76.4 Y80.283
X-75.703 Y79.748
X-74.851 Y79.399
X-73.977 Y79.285
X-73.103 Y79.4
X-72.253 Y79.748
X-71.554 Y80.284
X-70.992 Y81.015
X-70.65 Y81.851
X-70.535 Y82.72
X-70.654 Y83.625
X-70.99 Y84.436
X-71.273 Y84.805
G3 X-71.62 Y84.617 I-0.159 J-0.122
G1 X-71.083 Y83.076 Z-1.2
G3 X-70.696 Y83.169 I0.189 J0.066
G1 X-70.756 Y83.611
X-71.078 Y84.388
X-71.628 Y85.103
X-72.298 Y85.618
X-73.102 Y85.953
X-73.977 Y86.071
X-74.853 Y85.954
X-75.656 Y85.619
X-76.327 Y85.104
X-76.878 Y84.388
X-77.208 Y83.591
X-77.32 Y82.721
X-77.207 Y81.862
X-76.87 Y81.052
X-76.351 Y80.375
X-75.655 Y79.837
X-74.835 Y79.497
X-73.977 Y79.385
X-73.121 Y79.497
X-72.299 Y79.838
X-71.604 Y80.376
X-71.086 Y81.052
X-70.755 Y81.846
X-70.636 Y82.72
X-70.696 Y83.169
G3 X-71.015 Y83.302 I-0.198 J-0.027
G1 X-75.258 Y80.106 Z-1.3
G3 X-75.214 Y79.762 I0.12 J-0.16
G1 X-74.813 Y79.594
X-73.977 Y79.485
X-73.141 Y79.595
X-72.346 Y79.927
X-71.688 Y80.432
X-71.174 Y81.1
X-70.845 Y81.89
X-70.735 Y82.72
X-70.843 Y83.552
X-71.167 Y84.344
X-71.677 Y85.012
X-72.372 Y85.544
X-73.141 Y85.861
X-73.977 Y85.971
X-74.813 Y85.862
X-75.611 Y85.528
X-76.277 Y85.013
X-76.789 Y84.344
X-77.113 Y83.552
X-77.22 Y82.72
X-77.192 Y82.502
X-77.111 Y81.89
X-76.782 Y81.1
X-76.267 Y80.431
X-75.609 Y79.926
X-75.214 Y79.762
G3 X-74.995 Y79.806 I0.077 J0.185
G1 X-71.149 Y83.717 Z-1.4
G3 X-71.107 Y83.935 I-0.143 J0.14
G1 X-71.266 Y84.313
X-71.766 Y84.959
X-72.409 Y85.451
X-73.177 Y85.766
X-73.977 Y85.871
X-74.777 Y85.766
X-75.545 Y85.452
X-76.189 Y84.96
X-76.69 Y84.313
X-77.011 Y83.55
X-77.12 Y82.72
X-77.016 Y81.924
X-76.917 Y81.68
X-76.703 Y81.163
X-76.211 Y80.518
X-75.544 Y80.003
X-74.777 Y79.69
X-73.977 Y79.585
X-73.177 Y79.69
X-72.41 Y80.004
X-71.745 Y80.519
X-71.253 Y81.162
X-70.94 Y81.926
X-70.835 Y82.72
X-70.945 Y83.55
X-71.107 Y83.935
G3 X-71.413 Y84.016 I-0.184 J-0.077
G1 X-75.811 Y80.652 Z-1.5
G3 Y80.334 I0.122 J-0.159
G1 X-75.49 Y80.088
X-74.775 Y79.792
X-73.977 Y79.685
X-73.179 Y79.793
X-72.465 Y80.088
X-71.821 Y80.582
X-71.348 Y81.198
X-71.043 Y81.928
X-70.935 Y82.721
X-71.038 Y83.514
X-71.342 Y84.25
X-71.815 Y84.866
X-72.459 Y85.365
X-73.179 Y85.663
X-73.977 Y85.771
X-74.775 Y85.664
X-75.497 Y85.365
X-76.14 Y84.867
X-76.612 Y84.252
X-76.918 Y83.514
X-77.02 Y82.721
X-76.912 Y81.927
X-76.606 Y81.196
X-76.135 Y80.582
X-75.811 Y80.334
G3 X-75.651 Y80.406 I0.061 J0.079
G1 X-75.602 Y81.054
G3 X-75.612 Y81.09 I-0.1 J-0.009
G1 X-75.845 Y81.554
G3 X-76.032 Y81.527 I-0.089 J-0.045
G1 X-76.041 Y81.48 Z-1.506 F500
X-76.049 Y81.436 Z-1.523
X-76.056 Y81.397 Z-1.55
X-76.063 Y81.358 Z-1.577
X-76.071 Y81.314 Z-1.594
X-76.08 Y81.267 Z-1.6
G3 X-75.75 Y80.414 I0.86 J-0.157
G1 X-75.432 Y80.172 F1000
X-74.738 Y79.885
X-73.977 Y79.785
X-73.216 Y79.885
X-72.522 Y80.172
X-71.89 Y80.656
X-71.422 Y81.274
X-71.136 Y81.964
X-71.035 Y82.721
X-71.133 Y83.478
X-71.431 Y84.203
X-71.885 Y84.794
X-72.114 Y84.976
X-72.521 Y85.283
X-73.216 Y85.571
X-73.977 Y85.671
X-74.738 Y85.571
X-75.433 Y85.284
X-76.046 Y84.819
X-76.08 Y84.782
X-76.524 Y84.203
X-76.823 Y83.478
X-76.92 Y82.721
X-76.893 Y82.511
X-76.82 Y81.964
X-76.534 Y81.274
X-76.065 Y80.655
X-75.75 Y80.414
G3 X-75.649 Y80.374 I0.121 J0.159
G1 X-75.459 Y80.355
X-72.989 Y80.106 Z-1.7
G3 X-72.892 Y80.12 I0.02 J0.199
G1 X-72.536 Y80.268
X-71.961 Y80.71
X-71.514 Y81.292
X-71.22 Y82.001
X-71.125 Y82.72
X-71.226 Y83.476
X-71.507 Y84.155
X-71.971 Y84.754
X-72.561 Y85.203
X-73.252 Y85.486
X-73.977 Y85.581
X-74.702 Y85.486
X-75.394 Y85.203
X-75.984 Y84.754
X-76.448 Y84.156
X-76.73 Y83.476
X-76.83 Y82.72
X-76.736 Y81.999
X-76.619 Y81.712
X-76.442 Y81.292
X-76.007 Y80.725
X-75.838 Y80.589
X-75.419 Y80.268
X-74.701 Y79.97
X-73.977 Y79.875
X-73.253 Y79.97
X-72.892 Y80.12
G3 X-72.793 Y80.209 I-0.077 J0.185
G1 X-71.24 Y83.063 Z-1.8
G3 X-71.219 Y83.191 I-0.176 J0.096
G1 X-71.287 Y83.596
X-71.383 Y83.818
X-71.685 Y84.37
X-71.84 Y84.566
X-72.35 Y85.032
X-72.467 Y85.122
X-73.285 Y85.478
X-74.154 Y85.548
X-74.353 Y85.522
X-75.011 Y85.351
X-75.218 Y85.263
X-75.851 Y84.844
X-75.908 Y84.8
X-76.46 Y84.099
X-76.474 Y84.067
X-76.75 Y83.267
X-76.779 Y83.033
X-76.775 Y82.374
X-76.749 Y82.174
X-76.612 Y81.775
X-76.461 Y81.362
X-75.931 Y80.678
X-75.848 Y80.61
X-75.186 Y80.178
X-74.952 Y80.086
X-74.32 Y79.93
X-74.12 Y79.906
X-73.285 Y79.978
X-72.484 Y80.325
X-72.277 Y80.487
X-71.834 Y80.894
X-71.672 Y81.105
X-71.356 Y81.692
X-71.281 Y81.874
X-71.14 Y82.72
X-71.219 Y83.191
G3 X-73.093 Y82.877 Z-1.85 I-0.937 J-0.157
X-71.219 Y83.191 Z-1.9 I0.937 J0.157
G1 X-71.287 Y83.596
X-71.383 Y83.818
X-71.685 Y84.37
X-71.84 Y84.566
X-72.35 Y85.032
X-72.467 Y85.122
X-73.285 Y85.478
X-74.154 Y85.548
X-74.353 Y85.522
X-75.011 Y85.351
X-75.218 Y85.263
X-75.851 Y84.844
X-75.908 Y84.8
X-76.46 Y84.099
X-76.474 Y84.067
X-76.75 Y83.267
X-76.779 Y83.033
X-76.775 Y82.374
X-76.749 Y82.174
X-76.612 Y81.775
X-76.461 Y81.362
X-75.931 Y80.678
X-75.848 Y80.61
X-75.186 Y80.178
X-74.952 Y80.086
X-74.32 Y79.93
X-74.12 Y79.906
X-73.285 Y79.978
X-72.484 Y80.325
X-72.277 Y80.487
X-71.834 Y80.894
X-71.672 Y81.105
X-71.356 Y81.692
X-71.281 Y81.874
X-71.14 Y82.72
X-71.219 Y83.191
G3 X-71.255 Y83.277 I-0.197 J-0.033
G1 X-71.851 Y84.081
X-71.882 Y84.122 Z-1.893
X-71.91 Y84.161 Z-1.873
X-71.935 Y84.194 Z-1.841
X-71.954 Y84.22 Z-1.8
X-71.966 Y84.236 Z-1.752
X-71.97 Y84.241 Z-1.7
G0 Z15

(04 2MM FLAT M5 COUNTERSUNK 4)
M8
G0 X-105.549 Y81.755
Z15
Z2
G1 Z0.4 F100
G3 X-105.547 Y81.74 Z0.324 I0.947 J0.07 F1000
X-105.543 Y81.698 Z0.26 I0.946 J0.085
X-105.532 Y81.635 Z0.216 I0.941 J0.128
X-105.514 Y81.562 Z0.2 I0.931 J0.19
X-103.689 Y82.089 Z0.15 I0.913 J0.264
X-105.514 Y81.562 Z0.1 I-0.913 J-0.264
X-103.689 Y82.089 Z0.05 I0.913 J0.264
X-105.514 Y81.562 Z0 I-0.913 J-0.264
X-103.689 Y82.089 Z-0.05 I0.913 J0.264
X-105.514 Y81.562 Z-0.1 I-0.913 J-0.264
G1 X-105.434 Y81.284
X-105.248 Y80.838
X-104.911 Y80.292
X-104.602 Y79.894
X-104.164 Y79.486
X-103.756 Y79.174
X-103.226 Y78.899
X-102.747 Y78.7
X-102.302 Y78.606
X-102.019 Y78.556
X-101.617 Y78.505
X-100.919 Y78.558
X-100.489 Y78.619
X-99.819 Y78.861
X-99.455 Y79.012
X-98.833 Y79.455
X-98.532 Y79.689
X-98.056 Y80.277
X-97.833 Y80.57
X-97.394 Y81.596
X-97.236 Y82.721
X-97.389 Y83.845
X-97.829 Y84.876
X-97.891 Y84.965
X-98.477 Y85.7
X-98.551 Y85.785
X-99.008 Y86.13
X-99.455 Y86.444
X-99.819 Y86.595
X-100.511 Y86.844
X-100.917 Y86.898
X-101.652 Y86.949
X-102.015 Y86.901
X-102.597 Y86.789
X-102.746 Y86.756
X-103.254 Y86.542
X-103.777 Y86.267
X-104.173 Y85.962
X-104.633 Y85.527
X-104.941 Y85.123
X-105.254 Y84.606
X-105.453 Y84.121
X-105.615 Y83.538
X-105.681 Y82.995
X-105.68 Y82.411
X-105.612 Y81.904
X-105.599 Y81.858
X-105.514 Y81.562
G3 X-103.689 Y82.089 Z-0.15 I0.913 J0.264
X-105.514 Y81.562 Z-0.2 I-0.913 J-0.264
G1 X-105.434 Y81.284
X-105.248 Y80.838
X-104.911 Y80.292
X-104.602 Y79.894
X-104.164 Y79.486
X-103.756 Y79.174
X-103.226 Y78.899
X-102.747 Y78.7
X-102.302 Y78.606
X-102.019 Y78.556
X-101.617 Y78.505
X-100.919 Y78.558
X-100.489 Y78.619
X-99.819 Y78.861
X-99.455 Y79.012
X-98.833 Y79.455
X-98.532 Y79.689
X-98.056 Y80.277
X-97.833 Y80.57
X-97.394 Y81.596
X-97.236 Y82.721
X-97.389 Y83.845
X-97.829 Y84.876
X-97.891 Y84.965
X-98.477 Y85.7
X-98.551 Y85.785
X-99.008 Y86.13
X-99.455 Y86.444
X-99.819 Y86.595
X-100.511 Y86.844
X-100.917 Y86.898
X-101.652 Y86.949
X-102.015 Y86.901
X-102.597 Y86.789
X-102.746 Y86.756
X-103.254 Y86.542
X-103.777 Y86.267
X-104.173 Y85.962
X-104.633 Y85.527
X-104.941 Y85.123
X-105.254 Y84.606
X-105.453 Y84.121
X-105.615 Y83.538
X-105.681 Y82.995
X-105.68 Y82.411
X-105.612 Y81.904
X-105.599 Y81.858
X-105.514 Y81.562
G3 X-103.689 Y82.089 Z-0.25 I0.913 J0.264
X-105.514 Y81.562 Z-0.3 I-0.913 J-0.264
G1 X-105.434 Y81.284
X-105.248 Y80.838
X-104.911 Y80.292
X-104.602 Y79.894
X-104.164 Y79.486
X-103.756 Y79.174
X-103.226 Y78.899
X-102.747 Y78.7
X-102.302 Y78.606
X-102.019 Y78.556
X-101.617 Y78.505
X-100.919 Y78.558
X-100.489 Y78.619
X-99.819 Y78.861
X-99.455 Y79.012
X-98.833 Y79.455
X-98.532 Y79.689
X-98.056 Y80.277
X-97.833 Y80.57
X-97.394 Y81.596
X-97.236 Y82.721
X-97.389 Y83.845
X-97.829 Y84.876
X-97.891 Y84.965
X-98.477 Y85.7
X-98.551 Y85.785
X-99.008 Y86.13
X-99.455 Y86.444
X-99.819 Y86.595
X-100.511 Y86.844
X-100.917 Y86.898
X-101.652 Y86.949
X-102.015 Y86.901
X-102.597 Y86.789
X-102.746 Y86.756
X-103.254 Y86.542
X-103.777 Y86.267
X-104.173 Y85.962
X-104.633 Y85.527
X-104.941 Y85.123
X-105.254 Y84.606
X-105.453 Y84.121
X-105.615 Y83.538
X-105.681 Y82.995
X-105.68 Y82.411
X-105.612 Y81.904
X-105.599 Y81.858
X-105.514 Y81.562
G3 X-105.358 Y81.42 I0.192 J0.055
G1 X-98.417 Y80.154 Z-0.4
G3 X-98.223 Y80.229 I0.036 J0.197
G1 X-97.884 Y80.67
X-97.474 Y81.666
X-97.335 Y82.72
X-97.48 Y83.81
X-97.897 Y84.809
X-98.552 Y85.661
X-99.419 Y86.322
X-100.416 Y86.732
X-101.477 Y86.871
X-102.538 Y86.732
X-103.536 Y86.322
X-104.402 Y85.662
X-105.073 Y84.784
X-105.476 Y83.811
X-105.62 Y82.72
X-105.588 Y82.476
X-105.482 Y81.667
X-105.056 Y80.643
X-104.393 Y79.787
X-103.551 Y79.141
X-102.538 Y78.724
X-101.477 Y78.585
X-100.416 Y78.724
X-99.404 Y79.141
X-98.563 Y79.787
X-98.223 Y80.229
G3 X-98.281 Y80.524 I-0.159 J0.122
G1 X-104.889 Y84.37 Z-0.5
G3 X-105.174 Y84.274 I-0.101 J-0.173
G1 X-105.384 Y83.773
X-105.52 Y82.721
X-105.378 Y81.667
X-105.315 Y81.515
X-104.984 Y80.717
X-104.348 Y79.884
X-104.233 Y79.788
X-103.503 Y79.229
X-102.537 Y78.827
X-101.477 Y78.685
X-100.418 Y78.828
X-99.452 Y79.229
X-98.621 Y79.867
X-97.972 Y80.717
X-97.578 Y81.667
X-97.435 Y82.721
X-97.572 Y83.774
X-97.984 Y84.76
X-98.607 Y85.571
X-98.65 Y85.611
X-99.458 Y86.231
X-100.417 Y86.628
X-101.477 Y86.771
X-102.537 Y86.629
X-103.497 Y86.231
X-104.322 Y85.599
X-104.47 Y85.415
X-104.97 Y84.762
X-105.174 Y84.274
G3 X-105.05 Y84.141 I0.092 J-0.039
G1 X-104.212 Y84.427
G3 X-104.177 Y84.448 I-0.032 J0.095
G1 X-103.516 Y85.273
G3 X-103.566 Y85.431 I-0.078 J0.062
X-104.587 Y85.095 Z-0.6 I-0.265 J-0.912
G1 X-104.899 Y84.685
X-105.287 Y83.747
X-105.42 Y82.72
X-105.29 Y81.729
X-105.286 Y81.705
X-104.894 Y80.759
X-104.275 Y79.951
X-103.452 Y79.315
X-102.484 Y78.917
X-101.478 Y78.785
X-100.444 Y78.924
X-99.503 Y79.315
X-98.68 Y79.951
X-98.061 Y80.76
X-97.669 Y81.709
X-97.535 Y82.72
X-97.668 Y83.74
X-98.057 Y84.685
X-98.681 Y85.506
X-98.726 Y85.544
X-99.499 Y86.138
X-100.473 Y86.539
X-101.476 Y86.671
X-102.515 Y86.53
X-103.454 Y86.139
X-104.262 Y85.519
X-104.268 Y85.514
X-104.587 Y85.095
G3 X-104.621 Y84.919 I0.159 J-0.121
G1 X-104.582 Y84.779
X-103.055 Y79.343 Z-0.7
G3 X-102.939 Y79.212 I0.193 J0.054
G1 X-102.462 Y79.014
X-101.477 Y78.885
X-100.492 Y79.014
X-99.543 Y79.409
X-98.756 Y80.016
X-98.153 Y80.801
X-97.764 Y81.741
X-97.635 Y82.72
X-97.771 Y83.736
X-98.147 Y84.644
X-98.756 Y85.44
X-99.573 Y86.063
X-100.491 Y86.442
X-101.477 Y86.571
X-102.463 Y86.442
X-103.383 Y86.063
X-103.642 Y85.871
X-104.198 Y85.443
X-104.809 Y84.644
X-105.185 Y83.736
X-105.32 Y82.72
X-105.289 Y82.485
X-105.191 Y81.741
X-104.802 Y80.8
X-104.198 Y80.013
X-103.411 Y79.408
X-102.939 Y79.212
G3 X-102.807 Y79.204 I0.077 J0.185
G1 X-102.616 Y79.259
X-98.643 Y80.396 Z-0.8
G3 X-98.539 Y80.466 I-0.055 J0.192
G1 X-98.233 Y80.864
X-97.86 Y81.777
X-97.735 Y82.72
X-97.863 Y83.699
X-98.244 Y84.611
X-98.82 Y85.361
X-98.867 Y85.403
X-99.592 Y85.959
X-100.493 Y86.337
X-101.477 Y86.471
X-102.461 Y86.338
X-103.363 Y85.959
X-104.109 Y85.387
X-104.174 Y85.312
X-104.725 Y84.587
X-105.093 Y83.7
X-105.22 Y82.721
X-105.087 Y81.741
X-105.016 Y81.571
X-104.722 Y80.862
X-104.113 Y80.072
X-103.339 Y79.481
X-102.462 Y79.118
X-101.477 Y78.985
X-100.493 Y79.119
X-99.596 Y79.494
X-98.842 Y80.072
X-98.539 Y80.466
G3 X-98.746 Y80.782 I-0.158 J0.122
G1 X-102.828 Y79.77 Z-0.9
G3 X-102.856 Y79.391 I0.048 J-0.194
G1 X-102.409 Y79.207
X-101.478 Y79.085
X-100.526 Y79.212
X-99.649 Y79.578
X-98.906 Y80.148
X-98.899 Y80.155
X-98.325 Y80.903
X-97.957 Y81.797
X-97.835 Y82.72
X-97.957 Y83.659
X-98.318 Y84.538
X-98.897 Y85.298
X-99.672 Y85.89
X-100.544 Y86.249
X-101.476 Y86.371
X-102.436 Y86.241
X-103.313 Y85.873
X-104.058 Y85.299
X-104.638 Y84.538
X-104.997 Y83.672
X-105.12 Y82.72
X-104.997 Y81.784
X-104.631 Y80.903
X-104.063 Y80.164
X-104.015 Y80.121
X-103.305 Y79.577
X-102.856 Y79.391
G3 X-102.748 Y79.379 I0.076 J0.185
G1 X-102.475 Y79.422
X-99.433 Y79.905 Z-1
G3 X-99.342 Y79.944 I-0.031 J0.198
G1 X-98.962 Y80.236
X-98.421 Y80.941
X-98.06 Y81.8
X-98.053 Y81.826
X-97.935 Y82.72
X-98.062 Y83.662
X-98.409 Y84.499
X-98.979 Y85.239
X-99.722 Y85.803
X-100.566 Y86.151
X-101.477 Y86.271
X-102.388 Y86.152
X-103.233 Y85.804
X-103.641 Y85.496
X-103.975 Y85.24
X-104.546 Y84.5
X-104.903 Y83.626
X-105.02 Y82.72
X-104.991 Y82.493
X-104.901 Y81.815
X-104.553 Y80.972
X-104.464 Y80.849
X-103.971 Y80.212
X-103.264 Y79.67
X-103.122 Y79.606
X-102.388 Y79.304
X-101.477 Y79.185
X-100.566 Y79.304
X-99.723 Y79.652
X-99.342 Y79.944
G3 X-99.435 Y80.301 I-0.122 J0.159
G1 X-103.992 Y80.966 Z-1.1
G3 X-104.18 Y80.646 I-0.029 J-0.198
G1 X-103.9 Y80.283
X-103.203 Y79.748
X-102.351 Y79.399
X-101.477 Y79.285
X-100.603 Y79.4
X-99.753 Y79.748
X-99.054 Y80.284
X-98.492 Y81.015
X-98.15 Y81.851
X-98.035 Y82.72
X-98.154 Y83.625
X-98.49 Y84.436
X-99.054 Y85.172
X-99.76 Y85.711
X-100.603 Y86.056
X-101.477 Y86.171
X-102.351 Y86.056
X-103.195 Y85.712
X-103.922 Y85.151
X-104.465 Y84.439
X-104.802 Y83.625
X-104.92 Y82.72
X-104.806 Y81.849
X-104.716 Y81.624
X-104.463 Y81.014
X-104.18 Y80.646
G3 X-103.944 Y80.584 I0.158 J0.122
G1 X-98.316 Y82.958 Z-1.2
G3 X-98.196 Y83.169 I-0.078 J0.184
G1 X-98.256 Y83.611
X-98.578 Y84.388
X-99.128 Y85.103
X-99.798 Y85.618
X-100.602 Y85.953
X-101.477 Y86.071
X-102.353 Y85.954
X-103.156 Y85.619
X-103.827 Y85.104
X-104.378 Y84.388
X-104.708 Y83.591
X-104.82 Y82.721
X-104.707 Y81.862
X-104.37 Y81.052
X-103.851 Y80.375
X-103.155 Y79.837
X-102.335 Y79.497
X-101.477 Y79.385
X-100.621 Y79.497
X-99.799 Y79.838
X-99.104 Y80.376
X-98.586 Y81.052
X-98.255 Y81.846
X-98.136 Y82.72
X-98.196 Y83.169
G3 X-98.225 Y83.249 I-0.198 J-0.027
G1 X-98.346 Y83.439
X-99.48 Y85.228 Z-1.3
G3 X-99.527 Y85.279 I-0.169 J-0.107
G1 X-99.872 Y85.544
X-100.641 Y85.861
X-101.477 Y85.971
X-102.313 Y85.862
X-103.111 Y85.528
X-103.777 Y85.013
X-104.289 Y84.344
X-104.613 Y83.552
X-104.72 Y82.72
X-104.692 Y82.502
X-104.611 Y81.89
X-104.282 Y81.1
X-103.767 Y80.431
X-103.109 Y79.926
X-102.313 Y79.594
X-101.477 Y79.485
X-100.641 Y79.595
X-99.846 Y79.927
X-99.188 Y80.432
X-98.674 Y81.1
X-98.345 Y81.89
X-98.235 Y82.72
X-98.343 Y83.552
X-98.667 Y84.344
X-99.177 Y85.012
X-99.527 Y85.279
G3 X-99.807 Y85.242 I-0.122 J-0.159
G1 X-103.417 Y80.544 Z-1.4
G3 X-103.381 Y80.264 I0.159 J-0.122
G1 X-103.044 Y80.003
X-102.277 Y79.69
X-101.477 Y79.585
X-100.677 Y79.69
X-99.91 Y80.004
X-99.245 Y80.519
X-98.753 Y81.162
X-98.44 Y81.926
X-98.335 Y82.72
X-98.445 Y83.55
X-98.766 Y84.313
X-99.266 Y84.959
X-99.909 Y85.451
X-100.677 Y85.766
X-101.477 Y85.871
X-102.277 Y85.766
X-103.045 Y85.452
X-103.689 Y84.96
X-104.19 Y84.313
X-104.511 Y83.55
X-104.62 Y82.72
X-104.516 Y81.924
X-104.417 Y81.68
X-104.203 Y81.163
X-103.711 Y80.518
X-103.381 Y80.264
G3 X-103.059 Y80.42 I0.122 J0.158
G1 X-103.001 Y84.951 Z-1.5
G3 X-103.324 Y85.112 I-0.2 J0.003
G1 X-103.64 Y84.867
X-104.112 Y84.252
X-104.418 Y83.514
X-104.52 Y82.721
X-104.412 Y81.927
X-104.106 Y81.196
X-103.635 Y80.582
X-102.99 Y80.088
X-102.275 Y79.792
X-101.477 Y79.685
X-100.679 Y79.793
X-99.965 Y80.088
X-99.321 Y80.582
X-98.848 Y81.198
X-98.543 Y81.928
X-98.435 Y82.721
X-98.538 Y83.514
X-98.842 Y84.25
X-99.315 Y84.866
X-99.959 Y85.365
X-100.679 Y85.663
X-101.477 Y85.771
X-102.275 Y85.664
X-102.997 Y85.365
X-103.324 Y85.112
G3 X-103.36 Y84.832 I0.122 J-0.158
G1 X-99.987 Y80.45 Z-1.6
G3 X-99.707 Y80.413 I0.158 J0.122
G1 X-99.39 Y80.656
X-98.922 Y81.274
X-98.636 Y81.964
X-98.535 Y82.721
X-98.633 Y83.478
X-98.931 Y84.203
X-99.385 Y84.794
X-99.614 Y84.976
X-100.021 Y85.283
X-100.716 Y85.571
X-101.477 Y85.671
X-102.238 Y85.571
X-102.933 Y85.284
X-103.546 Y84.819
X-103.58 Y84.782
X-104.024 Y84.203
X-104.323 Y83.478
X-104.42 Y82.721
X-104.393 Y82.511
X-104.32 Y81.964
X-104.034 Y81.274
X-103.565 Y80.655
X-102.932 Y80.172
X-102.238 Y79.885
X-101.477 Y79.785
X-100.716 Y79.885
X-100.022 Y80.172
X-99.707 Y80.413
G3 X-99.848 Y80.771 I-0.122 J0.159
G1 X-102.505 Y80.503 Z-1.7
G3 X-102.561 Y80.119 I0.02 J-0.199
G1 X-102.201 Y79.97
X-101.477 Y79.875
X-100.753 Y79.97
X-100.036 Y80.268
X-99.461 Y80.71
X-99.014 Y81.292
X-98.72 Y82.001
X-98.625 Y82.72
X-98.726 Y83.476
X-99.007 Y84.155
X-99.471 Y84.754
X-100.061 Y85.203
X-100.752 Y85.486
X-101.477 Y85.581
X-102.202 Y85.486
X-102.894 Y85.203
X-103.484 Y84.754
X-103.948 Y84.156
X-104.23 Y83.476
X-104.33 Y82.72
X-104.235 Y81.999
X-104.119 Y81.712
X-103.942 Y81.292
X-103.507 Y80.725
X-103.338 Y80.589
X-102.919 Y80.268
X-102.561 Y80.119
G3 X-102.36 Y80.148 I0.077 J0.185
G1 X-98.791 Y83.002 Z-1.8
G3 X-98.719 Y83.191 I-0.125 J0.156
G1 X-98.787 Y83.596
X-98.883 Y83.818
X-99.185 Y84.37
X-99.34 Y84.566
X-99.85 Y85.032
X-99.967 Y85.122
X-100.785 Y85.478
X-101.654 Y85.548
X-101.853 Y85.522
X-102.511 Y85.351
X-102.718 Y85.263
X-103.351 Y84.844
X-103.408 Y84.8
X-103.96 Y84.099
X-103.974 Y84.067
X-104.25 Y83.267
X-104.279 Y83.033
X-104.275 Y82.374
X-104.249 Y82.174
X-104.112 Y81.775
X-103.961 Y81.362
X-103.431 Y80.678
X-103.348 Y80.61
X-102.686 Y80.178
X-102.452 Y80.086
X-101.82 Y79.93
X-101.62 Y79.906
X-100.785 Y79.978
X-99.984 Y80.325
X-99.777 Y80.487
X-99.334 Y80.894
X-99.172 Y81.105
X-98.856 Y81.692
X-98.781 Y81.874
X-98.64 Y82.72
X-98.719 Y83.191
G3 X-100.593 Y82.877 Z-1.85 I-0.937 J-0.157
X-98.719 Y83.191 Z-1.9 I0.937 J0.157
G1 X-98.787 Y83.596
X-98.883 Y83.818
X-99.185 Y84.37
X-99.34 Y84.566
X-99.85 Y85.032
X-99.967 Y85.122
X-100.785 Y85.478
X-101.654 Y85.548
X-101.853 Y85.522
X-102.511 Y85.351
X-102.718 Y85.263
X-103.351 Y84.844
X-103.408 Y84.8
X-103.96 Y84.099
X-103.974 Y84.067
X-104.25 Y83.267
X-104.279 Y83.033
X-104.275 Y82.374
X-104.249 Y82.174
X-104.112 Y81.775
X-103.961 Y81.362
X-103.431 Y80.678
X-103.348 Y80.61
X-102.686 Y80.178
X-102.452 Y80.086
X-101.82 Y79.93
X-101.62 Y79.906
X-100.785 Y79.978
X-99.984 Y80.325
X-99.777 Y80.487
X-99.334 Y80.894
X-99.172 Y81.105
X-98.856 Y81.692
X-98.781 Y81.874
X-98.64 Y82.72
X-98.719 Y83.191
G3 X-98.755 Y83.277 I-0.197 J-0.033
G1 X-99.351 Y84.081
X-99.382 Y84.122 Z-1.893
X-99.41 Y84.161 Z-1.873
X-99.435 Y84.194 Z-1.841
X-99.454 Y84.22 Z-1.8
X-99.466 Y84.236 Z-1.752
X-99.47 Y84.241 Z-1.7
G0 Z15

(05 2MM FLAT HOLES)
M8
G0 X-58.184 Y40.456
Z15
Z3
G1 Z2 F100
Z0.5
G3 X-48.184 Z0.25 I5 J0 F1000
X-58.184 Z0 I-5 J0
X-48.184 Z-0.25 I5 J0
X-58.184 Z-0.5 I-5 J0
X-48.184 Z-0.75 I5 J0
X-58.184 Z-1 I-5 J0
X-48.184 Z-1.25 I5 J0
X-58.184 Z-1.5 I-5 J0
X-48.184 Z-1.75 I5 J0
X-58.184 Z-2 I-5 J0
X-48.184 I5 J0
X-58.184 I-5 J0
G0 Z5
X-35.456 Y27.728
Z3
G1 Z2 F100
Z0.5
G3 X-45.456 Z0.25 I-5 J0 F1000
X-35.456 Z0 I5 J0
X-45.456 Z-0.25 I-5 J0
X-35.456 Z-0.5 I5 J0
X-45.456 Z-0.75 I-5 J0
X-35.456 Z-1 I5 J0
X-45.456 Z-1.25 I-5 J0
X-35.456 Z-1.5 I5 J0
X-45.456 Z-1.75 I-5 J0
X-35.456 Z-2 I5 J0
X-45.456 I-5 J0
X-35.456 I5 J0
G0 Z5
X-30.728 Y44.456
Z3
G1 Z2 F100
Z0.5
G3 X-24.728 Y36.456 Z0.25 I3 J-4 F1000
X-30.728 Y44.456 Z0 I-3 J4
X-24.728 Y36.456 Z-0.25 I3 J-4
X-30.728 Y44.456 Z-0.5 I-3 J4
X-24.728 Y36.456 Z-0.75 I3 J-4
X-30.728 Y44.456 Z-1 I-3 J4
X-24.728 Y36.456 Z-1.25 I3 J-4
X-30.728 Y44.456 Z-1.5 I-3 J4
X-24.728 Y36.456 Z-1.75 I3 J-4
X-30.728 Y44.456 Z-2 I-3 J4
X-24.728 Y36.456 I3 J-4
X-30.728 Y44.456 I-3 J4
G0 Z5
X-18 Y31.728
Z3
G1 Z2 F100
Z0.5
G3 X-12 Y23.728 Z0.25 I3 J-4 F1000
X-18 Y31.728 Z0 I-3 J4
X-12 Y23.728 Z-0.25 I3 J-4
X-18 Y31.728 Z-0.5 I-3 J4
X-12 Y23.728 Z-0.75 I3 J-4
X-18 Y31.728 Z-1 I-3 J4
X-12 Y23.728 Z-1.25 I3 J-4
X-18 Y31.728 Z-1.5 I-3 J4
X-12 Y23.728 Z-1.75 I3 J-4
X-18 Y31.728 Z-2 I-3 J4
X-12 Y23.728 I3 J-4
X-18 Y31.728 I-3 J4
G0 Z5
X-30.728 Y11
Z3
G1 Z2 F100
Z0.5
G3 X-24.728 Y19 Z0.25 I3 J4 F1000
X-30.728 Y11 Z0 I-3 J-4
X-24.728 Y19 Z-0.25 I3 J4
X-30.728 Y11 Z-0.5 I-3 J-4
X-24.728 Y19 Z-0.75 I3 J4
X-30.728 Y11 Z-1 I-3 J-4
X-24.728 Y19 Z-1.25 I3 J4
X-30.728 Y11 Z-1.5 I-3 J-4
X-24.728 Y19 Z-1.75 I3 J4
X-30.728 Y11 Z-2 I-3 J-4
X-24.728 Y19 I3 J4
X-30.728 Y11 I-3 J-4
G0 Z5
X-56.184
Z3
G1 Z2 F100
Z0.5
G3 X-50.184 Y19 Z0.25 I3 J4 F1000
X-56.184 Y11 Z0 I-3 J-4
X-50.184 Y19 Z-0.25 I3 J4
X-56.184 Y11 Z-0.5 I-3 J-4
X-50.184 Y19 Z-0.75 I3 J4
X-56.184 Y11 Z-1 I-3 J-4
X-50.184 Y19 Z-1.25 I3 J4
X-56.184 Y11 Z-1.5 I-3 J-4
X-50.184 Y19 Z-1.75 I3 J4
X-56.184 Y11 Z-2 I-3 J-4
X-50.184 Y19 I3 J4
X-56.184 Y11 I-3 J-4
G0 Z5
X-143.486 Y30.843
Z3
G1 Z2 F100
Z0.5
G3 X-157.486 Z0.25 I-7 J0 F1000
X-143.486 Z0 I7 J0
X-157.486 Z-0.25 I-7 J0
X-143.486 Z-0.5 I7 J0
X-157.486 Z-0.75 I-7 J0
X-143.486 Z-1 I7 J0
X-157.486 Z-1.25 I-7 J0
X-143.486 Z-1.5 I7 J0
X-157.486 Z-1.75 I-7 J0
X-143.486 Z-2 I7 J0
X-157.486 I-7 J0
X-143.486 I7 J0
G0 Z5
X-145.728 Y52.728
Z3
G1 Z2 F100
Z0.5
G3 X-159.728 Z0.25 I-7 J0 F1000
X-145.728 Z0 I7 J0
X-159.728 Z-0.25 I-7 J0
X-145.728 Z-0.5 I7 J0
X-159.728 Z-0.75 I-7 J0
X-145.728 Z-1 I7 J0
X-159.728 Z-1.25 I-7 J0
X-145.728 Z-1.5 I7 J0
X-159.728 Z-1.75 I-7 J0
X-145.728 Z-2 I7 J0
X-159.728 I-7 J0
X-145.728 I7 J0
G0 Z5
X-148.929 Y72.692
Z3
G1 Z2 F100
Z0.5
G3 X-158.929 Z0.25 I-5 J0 F1000
X-148.929 Z0 I5 J0
X-158.929 Z-0.25 I-5 J0
X-148.929 Z-0.5 I5 J0
X-158.929 Z-0.75 I-5 J0
X-148.929 Z-1 I5 J0
X-158.929 Z-1.25 I-5 J0
X-148.929 Z-1.5 I5 J0
X-158.929 Z-1.75 I-5 J0
X-148.929 Z-2 I5 J0
X-158.929 I-5 J0
X-148.929 I5 J0
G0 Z5
X-150.929 Y116.764
Z3
G1 Z2 F100
Z0.5
G3 X-156.929 Y108.764 Z0.25 I-3 J-4 F1000
X-150.929 Y116.764 Z0 I3 J4
X-156.929 Y108.764 Z-0.25 I-3 J-4
X-150.929 Y116.764 Z-0.5 I3 J4
X-156.929 Y108.764 Z-0.75 I-3 J-4
X-150.929 Y116.764 Z-1 I3 J4
X-156.929 Y108.764 Z-1.25 I-3 J-4
X-150.929 Y116.764 Z-1.5 I3 J4
X-156.929 Y108.764 Z-1.75 I-3 J-4
X-150.929 Y116.764 Z-2 I3 J4
X-156.929 Y108.764 I-3 J-4
X-150.929 Y116.764 I3 J4
G0 Z5
X-159.728 Y132.728
Z3
G1 Z2 F100
Z0.5
G3 X-145.728 Z0.25 I7 J0 F1000
X-159.728 Z0 I-7 J0
X-145.728 Z-0.25 I7 J0
X-159.728 Z-0.5 I-7 J0
X-145.728 Z-0.75 I7 J0
X-159.728 Z-1 I-7 J0
X-145.728 Z-1.25 I7 J0
X-159.728 Z-1.5 I-7 J0
X-145.728 Z-1.75 I7 J0
X-159.728 Z-2 I-7 J0
X-145.728 I7 J0
X-159.728 I-7 J0
G0 Z5
X-157.486 Y154.613
Z3
G1 Z2 F100
Z0.5
G3 X-143.486 Z0.25 I7 J0 F1000
X-157.486 Z0 I-7 J0
X-143.486 Z-0.25 I7 J0
X-157.486 Z-0.5 I-7 J0
X-143.486 Z-0.75 I7 J0
X-157.486 Z-1 I-7 J0
X-143.486 Z-1.25 I7 J0
X-157.486 Z-1.5 I-7 J0
X-143.486 Z-1.75 I7 J0
X-157.486 Z-2 I-7 J0
X-143.486 I7 J0
X-157.486 I-7 J0
G0 Z5
X-32.728 Y145
Z3
G1 Z2 F100
Z0.5
G3 X-22.728 Z0.25 I5 J0 F1000
X-32.728 Z0 I-5 J0
X-22.728 Z-0.25 I5 J0
X-32.728 Z-0.5 I-5 J0
X-22.728 Z-0.75 I5 J0
X-32.728 Z-1 I-5 J0
X-22.728 Z-1.25 I5 J0
X-32.728 Z-1.5 I-5 J0
X-22.728 Z-1.75 I5 J0
X-32.728 Z-2 I-5 J0
X-22.728 I5 J0
X-32.728 I-5 J0
G0 Z5
X-24.728 Y174.456
Z3
G1 Z2 F100
Z0.5
G3 X-30.728 Y166.456 Z0.25 I-3 J-4 F1000
X-24.728 Y174.456 Z0 I3 J4
X-30.728 Y166.456 Z-0.25 I-3 J-4
X-24.728 Y174.456 Z-0.5 I3 J4
X-30.728 Y166.456 Z-0.75 I-3 J-4
X-24.728 Y174.456 Z-1 I3 J4
X-30.728 Y166.456 Z-1.25 I-3 J-4
X-24.728 Y174.456 Z-1.5 I3 J4
X-30.728 Y166.456 Z-1.75 I-3 J-4
X-24.728 Y174.456 Z-2 I3 J4
X-30.728 Y166.456 I-3 J-4
X-24.728 Y174.456 I3 J4
G0 Z15

(06 2MM FLAT OUTSIDE)
M8
G0 X-166.902 Y111.937
Z15
Z3
G1 Z2 F100
Z0.5
G2 X-166.918 Y112.243 I12.974 J0.825 F1000
G1 X-167.716 Y132.127 Z0.485
G2 X-167.65 Y134.257 Z0.483 I14.988 J0.599
G1 X-165.408 Y156.142 Z0.467
G2 X-142.369 Y167.227 Z0.444 I14.922 J-1.529
G3 X-63.07 Y178.897 Z0.378 I32.968 J51.233
G2 X-53.184 Y183.456 Z0.37 I9.886 J-8.441
G1 X-27.728 Z0.351
G2 X-18.535 Y179.648 Z0.343 I0 J-13
G1 X-5.808 Y166.92 Z0.329
G2 Y148.536 Z0.314 I-9.192 J-9.192
G1 X-18.535 Y135.808 Z0.301
G3 Y49.648 Z0.229 I43.08 J-43.08
G1 X-5.808 Y36.92 Z0.215
G2 Y18.535 Z0.2 I-9.192 J-9.192
G1 X-18.535 Y5.808 Z0.186
G2 X-27.728 Y2 Z0.179 I-9.192 J9.192
G1 X-53.184 Z0.16
G2 X-63.07 Y6.558 Z0.151 I0 J13
G3 X-142.369 Y18.228 Z0.085 I-46.331 J-39.562
G2 X-165.408 Y29.314 Z0.062 I-8.117 J12.614
G1 X-167.65 Y51.199 Z0.046
G2 X-167.716 Y53.329 Z0.044 I14.922 J1.531
G1 X-166.918 Y73.213 Z0.029
G2 X-166.443 Y76.215 Z0.027 I12.99 J-0.519
G3 Y109.241 Z0.002 I-58.643 J16.513
G2 X-166.902 Y111.937 Z0 I12.514 J3.521
X-166.918 Y112.243 I12.974 J0.825
G1 X-167.716 Y132.127 Z-0.015
G2 X-167.65 Y134.257 Z-0.017 I14.988 J0.599
G1 X-165.408 Y156.142 Z-0.033
G2 X-142.369 Y167.227 Z-0.056 I14.922 J-1.529
G3 X-63.07 Y178.897 Z-0.122 I32.968 J51.233
G2 X-53.184 Y183.456 Z-0.13 I9.886 J-8.441
G1 X-27.728 Z-0.149
G2 X-18.535 Y179.648 Z-0.157 I0 J-13
G1 X-5.808 Y166.92 Z-0.171
G2 Y148.536 Z-0.186 I-9.192 J-9.192
G1 X-18.535 Y135.808 Z-0.199
G3 Y49.648 Z-0.271 I43.08 J-43.08
G1 X-5.808 Y36.92 Z-0.285
G2 Y18.535 Z-0.3 I-9.192 J-9.192
G1 X-18.535 Y5.808 Z-0.314
G2 X-27.728 Y2 Z-0.321 I-9.192 J9.192
G1 X-53.184 Z-0.34
G2 X-63.07 Y6.558 Z-0.349 I0 J13
G3 X-142.369 Y18.228 Z-0.415 I-46.331 J-39.562
G2 X-165.408 Y29.314 Z-0.438 I-8.117 J12.614
G1 X-167.65 Y51.199 Z-0.454
G2 X-167.716 Y53.329 Z-0.456 I14.922 J1.531
G1 X-166.918 Y73.213 Z-0.471
G2 X-166.443 Y76.215 Z-0.473 I12.99 J-0.519
G3 Y109.241 Z-0.498 I-58.643 J16.513
G2 X-166.902 Y111.937 Z-0.5 I12.514 J3.521
X-166.918 Y112.243 I12.974 J0.825
G1 X-167.716 Y132.127 Z-0.515
G2 X-167.65 Y134.257 Z-0.517 I14.988 J0.599
G1 X-165.408 Y156.142 Z-0.533
G2 X-142.369 Y167.227 Z-0.556 I14.922 J-1.529
G3 X-63.07 Y178.897 Z-0.622 I32.968 J51.233
G2 X-53.184 Y183.456 Z-0.63 I9.886 J-8.441
G1 X-27.728 Z-0.649
G2 X-18.535 Y179.648 Z-0.657 I0 J-13
G1 X-5.808 Y166.92 Z-0.671
G2 Y148.536 Z-0.686 I-9.192 J-9.192
G1 X-18.535 Y135.808 Z-0.699
G3 Y49.648 Z-0.771 I43.08 J-43.08
G1 X-5.808 Y36.92 Z-0.785
G2 Y18.535 Z-0.8 I-9.192 J-9.192
G1 X-18.535 Y5.808 Z-0.814
G2 X-27.728 Y2 Z-0.821 I-9.192 J9.192
G1 X-53.184 Z-0.84
G2 X-63.07 Y6.558 Z-0.849 I0 J13
G3 X-142.369 Y18.228 Z-0.915 I-46.331 J-39.562
G2 X-165.408 Y29.314 Z-0.938 I-8.117 J12.614
G1 X-167.65 Y51.199 Z-0.954
G2 X-167.716 Y53.329 Z-0.956 I14.922 J1.531
G1 X-166.918 Y73.213 Z-0.971
G2 X-166.443 Y76.215 Z-0.973 I12.99 J-0.519
G3 Y109.241 Z-0.998 I-58.643 J16.513
G2 X-166.902 Y111.937 Z-1 I12.514 J3.521
X-166.918 Y112.243 I12.974 J0.825
G1 X-167.716 Y132.127 Z-1.015
G2 X-167.65 Y134.257 Z-1.017 I14.988 J0.599
G1 X-165.408 Y156.142 Z-1.033
G2 X-142.369 Y167.227 Z-1.056 I14.922 J-1.529
G3 X-63.07 Y178.897 Z-1.122 I32.968 J51.233
G2 X-53.184 Y183.456 Z-1.13 I9.886 J-8.441
G1 X-27.728 Z-1.149
G2 X-18.535 Y179.648 Z-1.157 I0 J-13
G1 X-5.808 Y166.92 Z-1.171
G2 Y148.536 Z-1.186 I-9.192 J-9.192
G1 X-18.535 Y135.808 Z-1.199
G3 Y49.648 Z-1.271 I43.08 J-43.08
G1 X-5.808 Y36.92 Z-1.285
G2 Y18.535 Z-1.3 I-9.192 J-9.192
G1 X-18.535 Y5.808 Z-1.314
G2 X-27.728 Y2 Z-1.321 I-9.192 J9.192
G1 X-53.184 Z-1.34
G2 X-63.07 Y6.558 Z-1.349 I0 J13
G3 X-142.369 Y18.228 Z-1.415 I-46.331 J-39.562
G2 X-165.408 Y29.314 Z-1.438 I-8.117 J12.614
G1 X-167.65 Y51.199 Z-1.454
G2 X-167.716 Y53.329 Z-1.456 I14.922 J1.531
G1 X-166.918 Y73.213 Z-1.471
G2 X-166.443 Y76.215 Z-1.473 I12.99 J-0.519
G3 Y109.241 Z-1.498 I-58.643 J16.513
G2 X-166.902 Y111.937 Z-1.5 I12.514 J3.521
X-166.918 Y112.243 I12.974 J0.825
G1 X-167.716 Y132.127 Z-1.515
G2 X-167.65 Y134.257 Z-1.517 I14.988 J0.599
G1 X-165.408 Y156.142 Z-1.533
G2 X-142.369 Y167.227 Z-1.556 I14.922 J-1.529
G3 X-63.07 Y178.897 Z-1.622 I32.968 J51.233
G2 X-53.184 Y183.456 Z-1.63 I9.886 J-8.441
G1 X-27.728 Z-1.649
G2 X-18.535 Y179.648 Z-1.657 I0 J-13
G1 X-5.808 Y166.92 Z-1.671
G2 Y148.536 Z-1.686 I-9.192 J-9.192
G1 X-18.535 Y135.808 Z-1.699
G3 Y49.648 Z-1.771 I43.08 J-43.08
G1 X-5.808 Y36.92 Z-1.785
G2 Y18.535 Z-1.8 I-9.192 J-9.192
G1 X-18.535 Y5.808 Z-1.814
G2 X-27.728 Y2 Z-1.821 I-9.192 J9.192
G1 X-53.184 Z-1.84
G2 X-63.07 Y6.558 Z-1.849 I0 J13
G3 X-142.369 Y18.228 Z-1.915 I-46.331 J-39.562
G2 X-165.408 Y29.314 Z-1.938 I-8.117 J12.614
G1 X-167.65 Y51.199 Z-1.954
G2 X-167.716 Y53.329 Z-1.956 I14.922 J1.531
G1 X-166.918 Y73.213 Z-1.971
G2 X-166.443 Y76.215 Z-1.973 I12.99 J-0.519
G3 Y109.241 Z-1.998 I-58.643 J16.513
G2 X-166.902 Y111.937 Z-2 I12.514 J3.521
X-166.918 Y112.243 I12.974 J0.825
G1 X-167.716 Y132.127
G2 X-167.65 Y134.257 I14.988 J0.599
G1 X-165.408 Y156.142
G2 X-142.369 Y167.227 I14.922 J-1.529
G3 X-63.07 Y178.897 I32.968 J51.233
G2 X-53.184 Y183.456 I9.886 J-8.441
G1 X-27.728
G2 X-18.535 Y179.648 I0 J-13
G1 X-5.808 Y166.92
G2 Y148.536 I-9.192 J-9.192
G1 X-18.535 Y135.808
G3 Y49.648 I43.08 J-43.08
G1 X-5.808 Y36.92
G2 Y18.535 I-9.192 J-9.192
G1 X-18.535 Y5.808
G2 X-27.728 Y2 I-9.192 J9.192
G1 X-53.184
G2 X-63.07 Y6.558 I0 J13
G3 X-142.369 Y18.228 I-46.331 J-39.562
G2 X-165.408 Y29.314 I-8.117 J12.614
G1 X-167.65 Y51.199
G2 X-167.716 Y53.329 I14.922 J1.531
G1 X-166.918 Y73.213
G2 X-166.443 Y76.215 I12.99 J-0.519
G3 Y109.241 I-58.643 J16.513
G2 X-166.902 Y111.937 I12.514 J3.521
G0 Z15

M9
M30
