(ADAPTIVE1)
(T11  D=2 CR=0 - ZMIN=-2 - FLAT END MILL)
G90 G94 G91.1 G40 G49 G17
G21

(02 2MM FLAT HOLES)
M5
M9
T11
(DIAMOND OR SPIRAL)
S20000 M3
G54
M8
G0 X-120.479 Y78.821
G43 Z15 H1
Z3
G1 Z2 F100
Z0.5
G3 X-120.689 Y78.26 Z0.451 I-0.105 J-0.281 F1000
X-120.479 Y78.821 Z0.401 I0.105 J0.281
X-120.689 Y78.26 Z0.352 I-0.105 J-0.281
X-120.479 Y78.821 Z0.302 I0.105 J0.281
X-120.689 Y78.26 Z0.253 I-0.105 J-0.281
X-120.479 Y78.821 Z0.204 I0.105 J0.281
X-120.689 Y78.26 Z0.154 I-0.105 J-0.281
X-120.479 Y78.821 Z0.105 I0.105 J0.281
X-120.689 Y78.26 Z0.055 I-0.105 J-0.281
X-120.479 Y78.821 Z0.006 I0.105 J0.281
X-120.689 Y78.26 Z-0.043 I-0.105 J-0.281
X-120.479 Y78.821 Z-0.093 I0.105 J0.281
X-120.689 Y78.26 Z-0.142 I-0.105 J-0.281
X-120.479 Y78.821 Z-0.192 I0.105 J0.281
X-120.689 Y78.26 Z-0.241 I-0.105 J-0.281
X-120.479 Y78.821 Z-0.29 I0.105 J0.281
X-120.689 Y78.26 Z-0.34 I-0.105 J-0.281
X-120.479 Y78.821 Z-0.389 I0.105 J0.281
X-120.689 Y78.26 Z-0.438 I-0.105 J-0.281
X-120.479 Y78.821 Z-0.488 I0.105 J0.281
X-120.689 Y78.26 Z-0.537 I-0.105 J-0.281
X-120.479 Y78.821 Z-0.587 I0.105 J0.281
X-120.689 Y78.26 Z-0.636 I-0.105 J-0.281
X-120.479 Y78.821 Z-0.685 I0.105 J0.281
X-120.689 Y78.26 Z-0.735 I-0.105 J-0.281
X-120.479 Y78.821 Z-0.784 I0.105 J0.281
X-120.689 Y78.26 Z-0.834 I-0.105 J-0.281
X-120.479 Y78.821 Z-0.883 I0.105 J0.281
X-120.689 Y78.26 Z-0.932 I-0.105 J-0.281
X-120.479 Y78.821 Z-0.982 I0.105 J0.281
X-120.689 Y78.26 Z-1.031 I-0.105 J-0.281
X-120.479 Y78.821 Z-1.081 I0.105 J0.281
X-120.689 Y78.26 Z-1.13 I-0.105 J-0.281
X-120.479 Y78.821 Z-1.179 I0.105 J0.281
X-120.689 Y78.26 Z-1.229 I-0.105 J-0.281
X-120.479 Y78.821 Z-1.278 I0.105 J0.281
X-120.689 Y78.26 Z-1.328 I-0.105 J-0.281
X-120.479 Y78.821 Z-1.377 I0.105 J0.281
X-120.689 Y78.26 Z-1.426 I-0.105 J-0.281
X-120.479 Y78.821 Z-1.476 I0.105 J0.281
X-120.689 Y78.26 Z-1.525 I-0.105 J-0.281
X-120.479 Y78.821 Z-1.575 I0.105 J0.281
X-120.689 Y78.26 Z-1.624 I-0.105 J-0.281
X-120.479 Y78.821 Z-1.673 I0.105 J0.281
X-120.689 Y78.26 Z-1.723 I-0.105 J-0.281
X-120.479 Y78.821 Z-1.772 I0.105 J0.281
X-120.689 Y78.26 Z-1.821 I-0.105 J-0.281
X-120.479 Y78.821 Z-1.871 I0.105 J0.281
X-120.689 Y78.26 Z-1.92 I-0.105 J-0.281
X-120.479 Y78.821 Z-1.97 I0.105 J0.281
X-120.884 Y78.541 Z-2 I-0.105 J-0.281
X-120.284 I0.3 J0
X-120.884 I-0.3 J0
G0 Z5
X-133.61 Y68.72
Z3
G1 Z2 F100
Z0.5
G3 X-138.61 Z0.25 I-2.5 J0 F1000
X-133.61 Z0 I2.5 J0
X-138.61 Z-0.25 I-2.5 J0
X-133.61 Z-0.5 I2.5 J0
X-138.61 Z-0.75 I-2.5 J0
X-133.61 Z-1 I2.5 J0
X-138.61 Z-1.25 I-2.5 J0
X-133.61 Z-1.5 I2.5 J0
X-138.61 Z-1.75 I-2.5 J0
X-133.61 Z-2 I2.5 J0
X-138.61 I-2.5 J0
X-133.61 I2.5 J0
G0 Z5
X-127.584 Y49.781
Z3
G1 Z2 F100
Z0.5
G3 X-141.584 Z0.25 I-7 J0 F1000
X-127.584 Z0 I7 J0
X-141.584 Z-0.25 I-7 J0
X-127.584 Z-0.5 I7 J0
X-141.584 Z-0.75 I-7 J0
X-127.584 Z-1 I7 J0
X-141.584 Z-1.25 I-7 J0
X-127.584 Z-1.5 I7 J0
X-141.584 Z-1.75 I-7 J0
X-127.584 Z-2 I7 J0
X-141.584 I-7 J0
X-127.584 I7 J0
G0 Z5
X-135.928 Y19.346
Z3
G1 Z2 F100
Z0.5
G3 X-127.528 Y30.546 Z0.25 I4.2 J5.6 F1000
X-135.928 Y19.346 Z0 I-4.2 J-5.6
X-127.528 Y30.546 Z-0.25 I4.2 J5.6
X-135.928 Y19.346 Z-0.5 I-4.2 J-5.6
X-127.528 Y30.546 Z-0.75 I4.2 J5.6
X-135.928 Y19.346 Z-1 I-4.2 J-5.6
X-127.528 Y30.546 Z-1.25 I4.2 J5.6
X-135.928 Y19.346 Z-1.5 I-4.2 J-5.6
X-127.528 Y30.546 Z-1.75 I4.2 J5.6
X-135.928 Y19.346 Z-2 I-4.2 J-5.6
X-127.528 Y30.546 I4.2 J5.6
X-135.928 Y19.346 I-4.2 J-5.6
G0 Z5
X-148.423 Y78.288
Z3
G1 Z2 F100
Z0.5
G3 X-148.404 Y78.301 Z0.499 I-0.161 J0.253 F1000
X-148.764 Y78.781 Z0.449 I-0.18 J0.24
X-148.404 Y78.301 Z0.4 I0.18 J-0.24
X-148.764 Y78.781 Z0.351 I-0.18 J0.24
X-148.404 Y78.301 Z0.301 I0.18 J-0.24
X-148.764 Y78.781 Z0.252 I-0.18 J0.24
X-148.404 Y78.301 Z0.202 I0.18 J-0.24
X-148.764 Y78.781 Z0.153 I-0.18 J0.24
X-148.404 Y78.301 Z0.104 I0.18 J-0.24
X-148.764 Y78.781 Z0.054 I-0.18 J0.24
X-148.404 Y78.301 Z0.005 I0.18 J-0.24
X-148.764 Y78.781 Z-0.045 I-0.18 J0.24
X-148.404 Y78.301 Z-0.094 I0.18 J-0.24
X-148.764 Y78.781 Z-0.143 I-0.18 J0.24
X-148.404 Y78.301 Z-0.193 I0.18 J-0.24
X-148.764 Y78.781 Z-0.242 I-0.18 J0.24
X-148.404 Y78.301 Z-0.291 I0.18 J-0.24
X-148.764 Y78.781 Z-0.341 I-0.18 J0.24
X-148.404 Y78.301 Z-0.39 I0.18 J-0.24
X-148.764 Y78.781 Z-0.44 I-0.18 J0.24
X-148.404 Y78.301 Z-0.489 I0.18 J-0.24
X-148.764 Y78.781 Z-0.538 I-0.18 J0.24
X-148.404 Y78.301 Z-0.588 I0.18 J-0.24
X-148.764 Y78.781 Z-0.637 I-0.18 J0.24
X-148.404 Y78.301 Z-0.687 I0.18 J-0.24
X-148.764 Y78.781 Z-0.736 I-0.18 J0.24
X-148.404 Y78.301 Z-0.785 I0.18 J-0.24
X-148.764 Y78.781 Z-0.835 I-0.18 J0.24
X-148.404 Y78.301 Z-0.884 I0.18 J-0.24
X-148.764 Y78.781 Z-0.934 I-0.18 J0.24
X-148.404 Y78.301 Z-0.983 I0.18 J-0.24
X-148.764 Y78.781 Z-1.032 I-0.18 J0.24
X-148.404 Y78.301 Z-1.082 I0.18 J-0.24
X-148.764 Y78.781 Z-1.131 I-0.18 J0.24
X-148.404 Y78.301 Z-1.181 I0.18 J-0.24
X-148.764 Y78.781 Z-1.23 I-0.18 J0.24
X-148.404 Y78.301 Z-1.279 I0.18 J-0.24
X-148.764 Y78.781 Z-1.329 I-0.18 J0.24
X-148.404 Y78.301 Z-1.378 I0.18 J-0.24
X-148.764 Y78.781 Z-1.428 I-0.18 J0.24
X-148.404 Y78.301 Z-1.477 I0.18 J-0.24
X-148.764 Y78.781 Z-1.526 I-0.18 J0.24
X-148.404 Y78.301 Z-1.576 I0.18 J-0.24
X-148.764 Y78.781 Z-1.625 I-0.18 J0.24
X-148.404 Y78.301 Z-1.674 I0.18 J-0.24
X-148.764 Y78.781 Z-1.724 I-0.18 J0.24
X-148.404 Y78.301 Z-1.773 I0.18 J-0.24
X-148.764 Y78.781 Z-1.823 I-0.18 J0.24
X-148.404 Y78.301 Z-1.872 I0.18 J-0.24
X-148.764 Y78.781 Z-1.921 I-0.18 J0.24
X-148.404 Y78.301 Z-1.971 I0.18 J-0.24
Y78.781 Z-2 I-0.18 J0.24
X-148.764 Y78.301 I-0.18 J-0.24
X-148.404 Y78.781 I0.18 J0.24
G0 Z5
X-148.479 Y143.822
Z3
G1 Z2 F100
Z0.5
G3 X-148.689 Y143.26 Z0.451 I-0.105 J-0.281 F1000
X-148.479 Y143.822 Z0.401 I0.105 J0.281
X-148.689 Y143.26 Z0.352 I-0.105 J-0.281
X-148.479 Y143.822 Z0.302 I0.105 J0.281
X-148.689 Y143.26 Z0.253 I-0.105 J-0.281
X-148.479 Y143.822 Z0.204 I0.105 J0.281
X-148.689 Y143.26 Z0.154 I-0.105 J-0.281
X-148.479 Y143.822 Z0.105 I0.105 J0.281
X-148.689 Y143.26 Z0.055 I-0.105 J-0.281
X-148.479 Y143.822 Z0.006 I0.105 J0.281
X-148.689 Y143.26 Z-0.043 I-0.105 J-0.281
X-148.479 Y143.822 Z-0.093 I0.105 J0.281
X-148.689 Y143.26 Z-0.142 I-0.105 J-0.281
X-148.479 Y143.822 Z-0.192 I0.105 J0.281
X-148.689 Y143.26 Z-0.241 I-0.105 J-0.281
X-148.479 Y143.822 Z-0.29 I0.105 J0.281
X-148.689 Y143.26 Z-0.34 I-0.105 J-0.281
X-148.479 Y143.822 Z-0.389 I0.105 J0.281
X-148.689 Y143.26 Z-0.438 I-0.105 J-0.281
X-148.479 Y143.822 Z-0.488 I0.105 J0.281
X-148.689 Y143.26 Z-0.537 I-0.105 J-0.281
X-148.479 Y143.822 Z-0.587 I0.105 J0.281
X-148.689 Y143.26 Z-0.636 I-0.105 J-0.281
X-148.479 Y143.822 Z-0.685 I0.105 J0.281
X-148.689 Y143.26 Z-0.735 I-0.105 J-0.281
X-148.479 Y143.822 Z-0.784 I0.105 J0.281
X-148.689 Y143.26 Z-0.834 I-0.105 J-0.281
X-148.479 Y143.822 Z-0.883 I0.105 J0.281
X-148.689 Y143.26 Z-0.932 I-0.105 J-0.281
X-148.479 Y143.822 Z-0.982 I0.105 J0.281
X-148.689 Y143.26 Z-1.031 I-0.105 J-0.281
X-148.479 Y143.822 Z-1.081 I0.105 J0.281
X-148.689 Y143.26 Z-1.13 I-0.105 J-0.281
X-148.479 Y143.822 Z-1.179 I0.105 J0.281
X-148.689 Y143.26 Z-1.229 I-0.105 J-0.281
X-148.479 Y143.822 Z-1.278 I0.105 J0.281
X-148.689 Y143.26 Z-1.328 I-0.105 J-0.281
X-148.479 Y143.822 Z-1.377 I0.105 J0.281
X-148.689 Y143.26 Z-1.426 I-0.105 J-0.281
X-148.479 Y143.822 Z-1.476 I0.105 J0.281
X-148.689 Y143.26 Z-1.525 I-0.105 J-0.281
X-148.479 Y143.822 Z-1.575 I0.105 J0.281
X-148.689 Y143.26 Z-1.624 I-0.105 J-0.281
X-148.479 Y143.822 Z-1.673 I0.105 J0.281
X-148.689 Y143.26 Z-1.723 I-0.105 J-0.281
X-148.479 Y143.822 Z-1.772 I0.105 J0.281
X-148.689 Y143.26 Z-1.821 I-0.105 J-0.281
X-148.479 Y143.822 Z-1.871 I0.105 J0.281
X-148.689 Y143.26 Z-1.92 I-0.105 J-0.281
X-148.479 Y143.822 Z-1.97 I0.105 J0.281
X-148.884 Y143.541 Z-2 I-0.105 J-0.281
X-148.284 I0.3 J0
X-148.884 I-0.3 J0
G0 Z5
X-133.61 Y153.362
Z3
G1 Z2 F100
Z0.5
G3 X-138.61 Z0.25 I-2.5 J0 F1000
X-133.61 Z0 I2.5 J0
X-138.61 Z-0.25 I-2.5 J0
X-133.61 Z-0.5 I2.5 J0
X-138.61 Z-0.75 I-2.5 J0
X-133.61 Z-1 I2.5 J0
X-138.61 Z-1.25 I-2.5 J0
X-133.61 Z-1.5 I2.5 J0
X-138.61 Z-1.75 I-2.5 J0
X-133.61 Z-2 I2.5 J0
X-138.61 I-2.5 J0
X-133.61 I2.5 J0
G0 Z5
X-127.584 Y172.3
Z3
G1 Z2 F100
Z0.5
G3 X-138.784 Y177.9 Z0.324 I-7 J0 F1000
X-130.384 Y166.7 Z0.074 I4.2 J-5.6
X-138.784 Y177.9 Z-0.176 I-4.2 J5.6
X-130.384 Y166.7 Z-0.426 I4.2 J-5.6
X-138.784 Y177.9 Z-0.676 I-4.2 J5.6
X-130.384 Y166.7 Z-0.926 I4.2 J-5.6
X-138.784 Y177.9 Z-1.176 I-4.2 J5.6
X-130.384 Y166.7 Z-1.426 I4.2 J-5.6
X-138.784 Y177.9 Z-1.676 I-4.2 J5.6
X-130.384 Y166.7 Z-1.926 I4.2 J-5.6
X-127.584 Y172.3 Z-2 I-4.2 J5.6
X-138.784 Y177.9 I-7 J0
X-130.384 Y166.7 I4.2 J-5.6
X-127.584 Y172.3 I-4.2 J5.6
G0 Z5
X-124.728 Y197.135
Z3
G1 Z2 F100
Z0.5
G3 X-138.728 Z0.25 I-7 J0 F1000
X-124.728 Z0 I7 J0
X-138.728 Z-0.25 I-7 J0
X-124.728 Z-0.5 I7 J0
X-138.728 Z-0.75 I-7 J0
X-124.728 Z-1 I7 J0
X-138.728 Z-1.25 I-7 J0
X-124.728 Z-1.5 I7 J0
X-138.728 Z-1.75 I-7 J0
X-124.728 Z-2 I7 J0
X-138.728 I-7 J0
X-124.728 I7 J0
G0 Z5
X-120.479 Y143.822
Z3
G1 Z2 F100
Z0.5
G3 X-120.689 Y143.26 Z0.451 I-0.105 J-0.281 F1000
X-120.479 Y143.822 Z0.401 I0.105 J0.281
X-120.689 Y143.26 Z0.352 I-0.105 J-0.281
X-120.479 Y143.822 Z0.302 I0.105 J0.281
X-120.689 Y143.26 Z0.253 I-0.105 J-0.281
X-120.479 Y143.822 Z0.204 I0.105 J0.281
X-120.689 Y143.26 Z0.154 I-0.105 J-0.281
X-120.479 Y143.822 Z0.105 I0.105 J0.281
X-120.689 Y143.26 Z0.055 I-0.105 J-0.281
X-120.479 Y143.822 Z0.006 I0.105 J0.281
X-120.689 Y143.26 Z-0.043 I-0.105 J-0.281
X-120.479 Y143.822 Z-0.093 I0.105 J0.281
X-120.689 Y143.26 Z-0.142 I-0.105 J-0.281
X-120.479 Y143.822 Z-0.192 I0.105 J0.281
X-120.689 Y143.26 Z-0.241 I-0.105 J-0.281
X-120.479 Y143.822 Z-0.29 I0.105 J0.281
X-120.689 Y143.26 Z-0.34 I-0.105 J-0.281
X-120.479 Y143.822 Z-0.389 I0.105 J0.281
X-120.689 Y143.26 Z-0.438 I-0.105 J-0.281
X-120.479 Y143.822 Z-0.488 I0.105 J0.281
X-120.689 Y143.26 Z-0.537 I-0.105 J-0.281
X-120.479 Y143.822 Z-0.587 I0.105 J0.281
X-120.689 Y143.26 Z-0.636 I-0.105 J-0.281
X-120.479 Y143.822 Z-0.685 I0.105 J0.281
X-120.689 Y143.26 Z-0.735 I-0.105 J-0.281
X-120.479 Y143.822 Z-0.784 I0.105 J0.281
X-120.689 Y143.26 Z-0.834 I-0.105 J-0.281
X-120.479 Y143.822 Z-0.883 I0.105 J0.281
X-120.689 Y143.26 Z-0.932 I-0.105 J-0.281
X-120.479 Y143.822 Z-0.982 I0.105 J0.281
X-120.689 Y143.26 Z-1.031 I-0.105 J-0.281
X-120.479 Y143.822 Z-1.081 I0.105 J0.281
X-120.689 Y143.26 Z-1.13 I-0.105 J-0.281
X-120.479 Y143.822 Z-1.179 I0.105 J0.281
X-120.689 Y143.26 Z-1.229 I-0.105 J-0.281
X-120.479 Y143.822 Z-1.278 I0.105 J0.281
X-120.689 Y143.26 Z-1.328 I-0.105 J-0.281
X-120.479 Y143.822 Z-1.377 I0.105 J0.281
X-120.689 Y143.26 Z-1.426 I-0.105 J-0.281
X-120.479 Y143.822 Z-1.476 I0.105 J0.281
X-120.689 Y143.26 Z-1.525 I-0.105 J-0.281
X-120.479 Y143.822 Z-1.575 I0.105 J0.281
X-120.689 Y143.26 Z-1.624 I-0.105 J-0.281
X-120.479 Y143.822 Z-1.673 I0.105 J0.281
X-120.689 Y143.26 Z-1.723 I-0.105 J-0.281
X-120.479 Y143.822 Z-1.772 I0.105 J0.281
X-120.689 Y143.26 Z-1.821 I-0.105 J-0.281
X-120.479 Y143.822 Z-1.871 I0.105 J0.281
X-120.689 Y143.26 Z-1.92 I-0.105 J-0.281
X-120.479 Y143.822 Z-1.97 I0.105 J0.281
X-120.884 Y143.541 Z-2 I-0.105 J-0.281
X-120.284 I0.3 J0
X-120.884 I-0.3 J0
G0 Z5
X-52.965 Y158.91
Z3
G1 Z2 F100
Z0.5
G3 X-52.755 Y159.472 Z0.451 I0.105 J0.281 F1000
X-52.965 Y158.91 Z0.401 I-0.105 J-0.281
X-52.755 Y159.472 Z0.352 I0.105 J0.281
X-52.965 Y158.91 Z0.302 I-0.105 J-0.281
X-52.755 Y159.472 Z0.253 I0.105 J0.281
X-52.965 Y158.91 Z0.204 I-0.105 J-0.281
X-52.755 Y159.472 Z0.154 I0.105 J0.281
X-52.965 Y158.91 Z0.105 I-0.105 J-0.281
X-52.755 Y159.472 Z0.055 I0.105 J0.281
X-52.965 Y158.91 Z0.006 I-0.105 J-0.281
X-52.755 Y159.472 Z-0.043 I0.105 J0.281
X-52.965 Y158.91 Z-0.093 I-0.105 J-0.281
X-52.755 Y159.472 Z-0.142 I0.105 J0.281
X-52.965 Y158.91 Z-0.192 I-0.105 J-0.281
X-52.755 Y159.472 Z-0.241 I0.105 J0.281
X-52.965 Y158.91 Z-0.29 I-0.105 J-0.281
X-52.755 Y159.472 Z-0.34 I0.105 J0.281
X-52.965 Y158.91 Z-0.389 I-0.105 J-0.281
X-52.755 Y159.472 Z-0.438 I0.105 J0.281
X-52.965 Y158.91 Z-0.488 I-0.105 J-0.281
X-52.755 Y159.472 Z-0.537 I0.105 J0.281
X-52.965 Y158.91 Z-0.587 I-0.105 J-0.281
X-52.755 Y159.472 Z-0.636 I0.105 J0.281
X-52.965 Y158.91 Z-0.685 I-0.105 J-0.281
X-52.755 Y159.472 Z-0.735 I0.105 J0.281
X-52.965 Y158.91 Z-0.784 I-0.105 J-0.281
X-52.755 Y159.472 Z-0.834 I0.105 J0.281
X-52.965 Y158.91 Z-0.883 I-0.105 J-0.281
X-52.755 Y159.472 Z-0.932 I0.105 J0.281
X-52.965 Y158.91 Z-0.982 I-0.105 J-0.281
X-52.755 Y159.472 Z-1.031 I0.105 J0.281
X-52.965 Y158.91 Z-1.081 I-0.105 J-0.281
X-52.755 Y159.472 Z-1.13 I0.105 J0.281
X-52.965 Y158.91 Z-1.179 I-0.105 J-0.281
X-52.755 Y159.472 Z-1.229 I0.105 J0.281
X-52.965 Y158.91 Z-1.278 I-0.105 J-0.281
X-52.755 Y159.472 Z-1.328 I0.105 J0.281
X-52.965 Y158.91 Z-1.377 I-0.105 J-0.281
X-52.755 Y159.472 Z-1.426 I0.105 J0.281
X-52.965 Y158.91 Z-1.476 I-0.105 J-0.281
X-52.755 Y159.472 Z-1.525 I0.105 J0.281
X-52.965 Y158.91 Z-1.575 I-0.105 J-0.281
X-52.755 Y159.472 Z-1.624 I0.105 J0.281
X-52.965 Y158.91 Z-1.673 I-0.105 J-0.281
X-52.755 Y159.472 Z-1.723 I0.105 J0.281
X-52.965 Y158.91 Z-1.772 I-0.105 J-0.281
X-52.755 Y159.472 Z-1.821 I0.105 J0.281
X-52.965 Y158.91 Z-1.871 I-0.105 J-0.281
X-52.755 Y159.472 Z-1.92 I0.105 J0.281
X-52.965 Y158.91 Z-1.97 I-0.105 J-0.281
X-52.56 Y159.191 Z-2 I0.105 J0.281
X-53.16 I-0.3 J0
X-52.56 I0.3 J0
G0 Z5
X-52.965 Y176.69
Z3
G1 Z2 F100
Z0.5
G3 X-52.755 Y177.252 Z0.451 I0.105 J0.281 F1000
X-52.965 Y176.69 Z0.401 I-0.105 J-0.281
X-52.755 Y177.252 Z0.352 I0.105 J0.281
X-52.965 Y176.69 Z0.302 I-0.105 J-0.281
X-52.755 Y177.252 Z0.253 I0.105 J0.281
X-52.965 Y176.69 Z0.204 I-0.105 J-0.281
X-52.755 Y177.252 Z0.154 I0.105 J0.281
X-52.965 Y176.69 Z0.105 I-0.105 J-0.281
X-52.755 Y177.252 Z0.055 I0.105 J0.281
X-52.965 Y176.69 Z0.006 I-0.105 J-0.281
X-52.755 Y177.252 Z-0.043 I0.105 J0.281
X-52.965 Y176.69 Z-0.093 I-0.105 J-0.281
X-52.755 Y177.252 Z-0.142 I0.105 J0.281
X-52.965 Y176.69 Z-0.192 I-0.105 J-0.281
X-52.755 Y177.252 Z-0.241 I0.105 J0.281
X-52.965 Y176.69 Z-0.29 I-0.105 J-0.281
X-52.755 Y177.252 Z-0.34 I0.105 J0.281
X-52.965 Y176.69 Z-0.389 I-0.105 J-0.281
X-52.755 Y177.252 Z-0.438 I0.105 J0.281
X-52.965 Y176.69 Z-0.488 I-0.105 J-0.281
X-52.755 Y177.252 Z-0.537 I0.105 J0.281
X-52.965 Y176.69 Z-0.587 I-0.105 J-0.281
X-52.755 Y177.252 Z-0.636 I0.105 J0.281
X-52.965 Y176.69 Z-0.685 I-0.105 J-0.281
X-52.755 Y177.252 Z-0.735 I0.105 J0.281
X-52.965 Y176.69 Z-0.784 I-0.105 J-0.281
X-52.755 Y177.252 Z-0.834 I0.105 J0.281
X-52.965 Y176.69 Z-0.883 I-0.105 J-0.281
X-52.755 Y177.252 Z-0.932 I0.105 J0.281
X-52.965 Y176.69 Z-0.982 I-0.105 J-0.281
X-52.755 Y177.252 Z-1.031 I0.105 J0.281
X-52.965 Y176.69 Z-1.081 I-0.105 J-0.281
X-52.755 Y177.252 Z-1.13 I0.105 J0.281
X-52.965 Y176.69 Z-1.179 I-0.105 J-0.281
X-52.755 Y177.252 Z-1.229 I0.105 J0.281
X-52.965 Y176.69 Z-1.278 I-0.105 J-0.281
X-52.755 Y177.252 Z-1.328 I0.105 J0.281
X-52.965 Y176.69 Z-1.377 I-0.105 J-0.281
X-52.755 Y177.252 Z-1.426 I0.105 J0.281
X-52.965 Y176.69 Z-1.476 I-0.105 J-0.281
X-52.755 Y177.252 Z-1.525 I0.105 J0.281
X-52.965 Y176.69 Z-1.575 I-0.105 J-0.281
X-52.755 Y177.252 Z-1.624 I0.105 J0.281
X-52.965 Y176.69 Z-1.673 I-0.105 J-0.281
X-52.755 Y177.252 Z-1.723 I0.105 J0.281
X-52.965 Y176.69 Z-1.772 I-0.105 J-0.281
X-52.755 Y177.252 Z-1.821 I0.105 J0.281
X-52.965 Y176.69 Z-1.871 I-0.105 J-0.281
X-52.755 Y177.252 Z-1.92 I0.105 J0.281
X-52.965 Y176.69 Z-1.97 I-0.105 J-0.281
X-52.56 Y176.971 Z-2 I0.105 J0.281
X-53.16 I-0.3 J0
X-52.56 I0.3 J0
G0 Z5
X-24 Y187.581
Z3
G1 Z2 F100
Z0.5
G3 X-21 Y191.581 Z0.25 I1.5 J2 F1000
X-24 Y187.581 Z0 I-1.5 J-2
X-21 Y191.581 Z-0.25 I1.5 J2
X-24 Y187.581 Z-0.5 I-1.5 J-2
X-21 Y191.581 Z-0.75 I1.5 J2
X-24 Y187.581 Z-1 I-1.5 J-2
X-21 Y191.581 Z-1.25 I1.5 J2
X-24 Y187.581 Z-1.5 I-1.5 J-2
X-21 Y191.581 Z-1.75 I1.5 J2
X-24 Y187.581 Z-2 I-1.5 J-2
X-21 Y191.581 I1.5 J2
X-24 Y187.581 I-1.5 J-2
G0 Z5
X-20 Y209.581
Z3
G1 Z2 F100
Z0.5
G3 X-25 Z0.25 I-2.5 J0 F1000
X-20 Z0 I2.5 J0
X-25 Z-0.25 I-2.5 J0
X-20 Z-0.5 I2.5 J0
X-25 Z-0.75 I-2.5 J0
X-20 Z-1 I2.5 J0
X-25 Z-1.25 I-2.5 J0
X-20 Z-1.5 I2.5 J0
X-25 Z-1.75 I-2.5 J0
X-20 Z-2 I2.5 J0
X-25 I-2.5 J0
X-20 I2.5 J0
G0 Z5
X-7.245 Y176.69
Z3
G1 Z2 F100
Z0.5
G3 X-7.035 Y177.252 Z0.451 I0.105 J0.281 F1000
X-7.245 Y176.69 Z0.401 I-0.105 J-0.281
X-7.035 Y177.252 Z0.352 I0.105 J0.281
X-7.245 Y176.69 Z0.302 I-0.105 J-0.281
X-7.035 Y177.252 Z0.253 I0.105 J0.281
X-7.245 Y176.69 Z0.204 I-0.105 J-0.281
X-7.035 Y177.252 Z0.154 I0.105 J0.281
X-7.245 Y176.69 Z0.105 I-0.105 J-0.281
X-7.035 Y177.252 Z0.055 I0.105 J0.281
X-7.245 Y176.69 Z0.006 I-0.105 J-0.281
X-7.035 Y177.252 Z-0.043 I0.105 J0.281
X-7.245 Y176.69 Z-0.093 I-0.105 J-0.281
X-7.035 Y177.252 Z-0.142 I0.105 J0.281
X-7.245 Y176.69 Z-0.192 I-0.105 J-0.281
X-7.035 Y177.252 Z-0.241 I0.105 J0.281
X-7.245 Y176.69 Z-0.29 I-0.105 J-0.281
X-7.035 Y177.252 Z-0.34 I0.105 J0.281
X-7.245 Y176.69 Z-0.389 I-0.105 J-0.281
X-7.035 Y177.252 Z-0.438 I0.105 J0.281
X-7.245 Y176.69 Z-0.488 I-0.105 J-0.281
X-7.035 Y177.252 Z-0.537 I0.105 J0.281
X-7.245 Y176.69 Z-0.587 I-0.105 J-0.281
X-7.035 Y177.252 Z-0.636 I0.105 J0.281
X-7.245 Y176.69 Z-0.685 I-0.105 J-0.281
X-7.035 Y177.252 Z-0.735 I0.105 J0.281
X-7.245 Y176.69 Z-0.784 I-0.105 J-0.281
X-7.035 Y177.252 Z-0.834 I0.105 J0.281
X-7.245 Y176.69 Z-0.883 I-0.105 J-0.281
X-7.035 Y177.252 Z-0.932 I0.105 J0.281
X-7.245 Y176.69 Z-0.982 I-0.105 J-0.281
X-7.035 Y177.252 Z-1.031 I0.105 J0.281
X-7.245 Y176.69 Z-1.081 I-0.105 J-0.281
X-7.035 Y177.252 Z-1.13 I0.105 J0.281
X-7.245 Y176.69 Z-1.179 I-0.105 J-0.281
X-7.035 Y177.252 Z-1.229 I0.105 J0.281
X-7.245 Y176.69 Z-1.278 I-0.105 J-0.281
X-7.035 Y177.252 Z-1.328 I0.105 J0.281
X-7.245 Y176.69 Z-1.377 I-0.105 J-0.281
X-7.035 Y177.252 Z-1.426 I0.105 J0.281
X-7.245 Y176.69 Z-1.476 I-0.105 J-0.281
X-7.035 Y177.252 Z-1.525 I0.105 J0.281
X-7.245 Y176.69 Z-1.575 I-0.105 J-0.281
X-7.035 Y177.252 Z-1.624 I0.105 J0.281
X-7.245 Y176.69 Z-1.673 I-0.105 J-0.281
X-7.035 Y177.252 Z-1.723 I0.105 J0.281
X-7.245 Y176.69 Z-1.772 I-0.105 J-0.281
X-7.035 Y177.252 Z-1.821 I0.105 J0.281
X-7.245 Y176.69 Z-1.871 I-0.105 J-0.281
X-7.035 Y177.252 Z-1.92 I0.105 J0.281
X-7.245 Y176.69 Z-1.97 I-0.105 J-0.281
X-6.84 Y176.971 Z-2 I0.105 J0.281
X-7.44 I-0.3 J0
X-6.84 I0.3 J0
G0 Z5
X-7.245 Y158.91
Z3
G1 Z2 F100
Z0.5
G3 X-7.035 Y159.472 Z0.451 I0.105 J0.281 F1000
X-7.245 Y158.91 Z0.401 I-0.105 J-0.281
X-7.035 Y159.472 Z0.352 I0.105 J0.281
X-7.245 Y158.91 Z0.302 I-0.105 J-0.281
X-7.035 Y159.472 Z0.253 I0.105 J0.281
X-7.245 Y158.91 Z0.204 I-0.105 J-0.281
X-7.035 Y159.472 Z0.154 I0.105 J0.281
X-7.245 Y158.91 Z0.105 I-0.105 J-0.281
X-7.035 Y159.472 Z0.055 I0.105 J0.281
X-7.245 Y158.91 Z0.006 I-0.105 J-0.281
X-7.035 Y159.472 Z-0.043 I0.105 J0.281
X-7.245 Y158.91 Z-0.093 I-0.105 J-0.281
X-7.035 Y159.472 Z-0.142 I0.105 J0.281
X-7.245 Y158.91 Z-0.192 I-0.105 J-0.281
X-7.035 Y159.472 Z-0.241 I0.105 J0.281
X-7.245 Y158.91 Z-0.29 I-0.105 J-0.281
X-7.035 Y159.472 Z-0.34 I0.105 J0.281
X-7.245 Y158.91 Z-0.389 I-0.105 J-0.281
X-7.035 Y159.472 Z-0.438 I0.105 J0.281
X-7.245 Y158.91 Z-0.488 I-0.105 J-0.281
X-7.035 Y159.472 Z-0.537 I0.105 J0.281
X-7.245 Y158.91 Z-0.587 I-0.105 J-0.281
X-7.035 Y159.472 Z-0.636 I0.105 J0.281
X-7.245 Y158.91 Z-0.685 I-0.105 J-0.281
X-7.035 Y159.472 Z-0.735 I0.105 J0.281
X-7.245 Y158.91 Z-0.784 I-0.105 J-0.281
X-7.035 Y159.472 Z-0.834 I0.105 J0.281
X-7.245 Y158.91 Z-0.883 I-0.105 J-0.281
X-7.035 Y159.472 Z-0.932 I0.105 J0.281
X-7.245 Y158.91 Z-0.982 I-0.105 J-0.281
X-7.035 Y159.472 Z-1.031 I0.105 J0.281
X-7.245 Y158.91 Z-1.081 I-0.105 J-0.281
X-7.035 Y159.472 Z-1.13 I0.105 J0.281
X-7.245 Y158.91 Z-1.179 I-0.105 J-0.281
X-7.035 Y159.472 Z-1.229 I0.105 J0.281
X-7.245 Y158.91 Z-1.278 I-0.105 J-0.281
X-7.035 Y159.472 Z-1.328 I0.105 J0.281
X-7.245 Y158.91 Z-1.377 I-0.105 J-0.281
X-7.035 Y159.472 Z-1.426 I0.105 J0.281
X-7.245 Y158.91 Z-1.476 I-0.105 J-0.281
X-7.035 Y159.472 Z-1.525 I0.105 J0.281
X-7.245 Y158.91 Z-1.575 I-0.105 J-0.281
X-7.035 Y159.472 Z-1.624 I0.105 J0.281
X-7.245 Y158.91 Z-1.673 I-0.105 J-0.281
X-7.035 Y159.472 Z-1.723 I0.105 J0.281
X-7.245 Y158.91 Z-1.772 I-0.105 J-0.281
X-7.035 Y159.472 Z-1.821 I0.105 J0.281
X-7.245 Y158.91 Z-1.871 I-0.105 J-0.281
X-7.035 Y159.472 Z-1.92 I0.105 J0.281
X-7.245 Y158.91 Z-1.97 I-0.105 J-0.281
X-6.84 Y159.191 Z-2 I0.105 J0.281
X-7.44 I-0.3 J0
X-6.84 I0.3 J0
G0 Z5
X-20 Y32.5
Z3
G1 Z2 F100
Z0.5
G3 X-25 Z0.25 I-2.5 J0 F1000
X-20 Z0 I2.5 J0
X-25 Z-0.25 I-2.5 J0
X-20 Z-0.5 I2.5 J0
X-25 Z-0.75 I-2.5 J0
X-20 Z-1 I2.5 J0
X-25 Z-1.25 I-2.5 J0
X-20 Z-1.5 I2.5 J0
X-25 Z-1.75 I-2.5 J0
X-20 Z-2 I2.5 J0
X-25 I-2.5 J0
X-20 I2.5 J0
G0 Z5
X-10 Y22.5
Z3
G1 Z2 F100
Z0.5
G3 X-15 Z0.25 I-2.5 J0 F1000
X-10 Z0 I2.5 J0
X-15 Z-0.25 I-2.5 J0
X-10 Z-0.5 I2.5 J0
X-15 Z-0.75 I-2.5 J0
X-10 Z-1 I2.5 J0
X-15 Z-1.25 I-2.5 J0
X-10 Z-1.5 I2.5 J0
X-15 Z-1.75 I-2.5 J0
X-10 Z-2 I2.5 J0
X-15 I-2.5 J0
X-10 I2.5 J0
G0 Z5
X-20 Y12.5
Z3
G1 Z2 F100
Z0.5
G3 X-25 Z0.25 I-2.5 J0 F1000
X-20 Z0 I2.5 J0
X-25 Z-0.25 I-2.5 J0
X-20 Z-0.5 I2.5 J0
X-25 Z-0.75 I-2.5 J0
X-20 Z-1 I2.5 J0
X-25 Z-1.25 I-2.5 J0
X-20 Z-1.5 I2.5 J0
X-25 Z-1.75 I-2.5 J0
X-20 Z-2 I2.5 J0
X-25 I-2.5 J0
X-20 I2.5 J0
G0 Z5
X-30 Y22.5
Z3
G1 Z2 F100
Z0.5
G3 X-35 Z0.25 I-2.5 J0 F1000
X-30 Z0 I2.5 J0
X-35 Z-0.25 I-2.5 J0
X-30 Z-0.5 I2.5 J0
X-35 Z-0.75 I-2.5 J0
X-30 Z-1 I2.5 J0
X-35 Z-1.25 I-2.5 J0
X-30 Z-1.5 I2.5 J0
X-35 Z-1.75 I-2.5 J0
X-30 Z-2 I2.5 J0
X-35 I-2.5 J0
X-30 I2.5 J0
G0 Z5
X-42.138 Y12.5
Z3
G1 Z2 F100
Z0.5
G3 X-47.138 Z0.25 I-2.5 J0 F1000
X-42.138 Z0 I2.5 J0
X-47.138 Z-0.25 I-2.5 J0
X-42.138 Z-0.5 I2.5 J0
X-47.138 Z-0.75 I-2.5 J0
X-42.138 Z-1 I2.5 J0
X-47.138 Z-1.25 I-2.5 J0
X-42.138 Z-1.5 I2.5 J0
X-47.138 Z-1.75 I-2.5 J0
X-42.138 Z-2 I2.5 J0
X-47.138 I-2.5 J0
X-42.138 I2.5 J0
G0 Z5
X-45 Y32.5
Z3
G1 Z2 F100
Z0.5
G3 X-50 Z0.25 I-2.5 J0 F1000
X-45 Z0 I2.5 J0
X-50 Z-0.25 I-2.5 J0
X-45 Z-0.5 I2.5 J0
X-50 Z-0.75 I-2.5 J0
X-45 Z-1 I2.5 J0
X-50 Z-1.25 I-2.5 J0
X-45 Z-1.5 I2.5 J0
X-50 Z-1.75 I-2.5 J0
X-45 Z-2 I2.5 J0
X-50 I-2.5 J0
X-45 I2.5 J0
G0 Z15

M9
M30
