(ADAPTIVE1)
(T48  D=5 CR=0 TAPER=45DEG - ZMIN=-2.8 - CHAMFER MILL)
G90 G94 G91.1 G40 G49 G17
G21

(03 5MM CHAMFER)
M5
M9
T48
(4 FLUTE FISH)
S14000 M3
G54
M8
G0 X-7.14 Y159.191
G43 Z15 H26
Z5
G98 G81 X-7.14 Y159.191 Z-2.8 R4.7 F30
Y176.971
X-52.86
Y159.191
X-120.584 Y143.541
X-148.584
Y78.541
X-120.584
G80
Z15

M9
M30
