(ADAPTIVE1)
(T11  D=2 CR=0 - ZMIN=-2 - FLAT END MILL)
G90 G94 G91.1 G40 G49 G17
G21

(04 2MM FLAT OUTSIDE)
M5
M9
T11
(DIAMOND OR SPIRAL)
S20000 M3
G54
M8
G0 X-154 Y111.041
G43 Z15 H1
Z3
G1 Z2 F100
Z0.5
G2 X-148.081 Y199.337 Z0.449 I661.5 J0 F1000
X-129.526 Y213.488 Z0.434 I16.353 J-2.202
X-115.31 Y195.491 Z0.419 I-2.202 J-16.353
G1 X-116.156 Y187.047 Z0.414
G3 X-59.089 Y181.029 Z0.362 I28.549 J-2.858
G2 X-55.006 Y211.237 Z0.345 I631.634 J-69.989
X-44.638 Y220.081 Z0.336 I10.369 J-1.656
G1 X-22.5 Z0.323
G2 X-15.075 Y217.006 Z0.319 I0 J-10.5
G1 X-5.075 Y207.006 Z0.31
G2 X-2 Y199.581 Z0.306 I-7.425 J-7.425
G1 Y160.489 Z0.283
G2 X-5.745 Y152.93 Z0.278 I-9.5 J0
G3 Y69.15 Z0.222 I31.896 J-41.89
G2 X-2 Y61.592 Z0.217 I-5.755 J-7.558
G1 Y22.5 Z0.194
G2 X-5.075 Y15.075 Z0.19 I-10.5 J0
G1 X-15.075 Y5.075 Z0.181
G2 X-22.5 Y2 Z0.177 I-7.425 J7.425
G1 X-44.638 Z0.164
G2 X-55.006 Y10.845 Z0.155 I0 J10.5
X-59.089 Y41.052 Z0.138 I627.551 J100.197
G3 X-116.156 Y35.034 Z0.086 I-28.518 J-3.16
G1 X-115.31 Y26.59 Z0.081
G2 X-148.081 Y22.744 Z0.051 I-16.418 J-1.644
X-154 Y111.041 Z0 I655.581 J88.297
X-148.081 Y199.337 Z-0.051 I661.5 J0
X-129.526 Y213.488 Z-0.066 I16.353 J-2.202
X-115.31 Y195.491 Z-0.081 I-2.202 J-16.353
G1 X-116.156 Y187.047 Z-0.086
G3 X-59.089 Y181.029 Z-0.138 I28.549 J-2.858
G2 X-55.006 Y211.237 Z-0.155 I631.634 J-69.989
X-44.638 Y220.081 Z-0.164 I10.369 J-1.656
G1 X-22.5 Z-0.177
G2 X-15.075 Y217.006 Z-0.181 I0 J-10.5
G1 X-5.075 Y207.006 Z-0.19
G2 X-2 Y199.581 Z-0.194 I-7.425 J-7.425
G1 Y160.489 Z-0.217
G2 X-5.745 Y152.93 Z-0.222 I-9.5 J0
G3 Y69.15 Z-0.278 I31.896 J-41.89
G2 X-2 Y61.592 Z-0.283 I-5.755 J-7.558
G1 Y22.5 Z-0.306
G2 X-5.075 Y15.075 Z-0.31 I-10.5 J0
G1 X-15.075 Y5.075 Z-0.319
G2 X-22.5 Y2 Z-0.323 I-7.425 J7.425
G1 X-44.638 Z-0.336
G2 X-55.006 Y10.845 Z-0.345 I0 J10.5
X-59.089 Y41.052 Z-0.362 I627.551 J100.197
G3 X-116.156 Y35.034 Z-0.414 I-28.518 J-3.16
G1 X-115.31 Y26.59 Z-0.419
G2 X-148.081 Y22.744 Z-0.449 I-16.418 J-1.644
X-154 Y111.041 Z-0.5 I655.581 J88.297
X-148.081 Y199.337 Z-0.551 I661.5 J0
X-129.526 Y213.488 Z-0.566 I16.353 J-2.202
X-115.31 Y195.491 Z-0.581 I-2.202 J-16.353
G1 X-116.156 Y187.047 Z-0.586
G3 X-59.089 Y181.029 Z-0.638 I28.549 J-2.858
G2 X-55.006 Y211.237 Z-0.655 I631.634 J-69.989
X-44.638 Y220.081 Z-0.664 I10.369 J-1.656
G1 X-22.5 Z-0.677
G2 X-15.075 Y217.006 Z-0.681 I0 J-10.5
G1 X-5.075 Y207.006 Z-0.69
G2 X-2 Y199.581 Z-0.694 I-7.425 J-7.425
G1 Y160.489 Z-0.717
G2 X-5.745 Y152.93 Z-0.722 I-9.5 J0
G3 Y69.15 Z-0.778 I31.896 J-41.89
G2 X-2 Y61.592 Z-0.783 I-5.755 J-7.558
G1 Y22.5 Z-0.806
G2 X-5.075 Y15.075 Z-0.81 I-10.5 J0
G1 X-15.075 Y5.075 Z-0.819
G2 X-22.5 Y2 Z-0.823 I-7.425 J7.425
G1 X-44.638 Z-0.836
G2 X-55.006 Y10.845 Z-0.845 I0 J10.5
X-59.089 Y41.052 Z-0.862 I627.551 J100.197
G3 X-116.156 Y35.034 Z-0.914 I-28.518 J-3.16
G1 X-115.31 Y26.59 Z-0.919
G2 X-148.081 Y22.744 Z-0.949 I-16.418 J-1.644
X-154 Y111.041 Z-1 I655.581 J88.297
X-148.081 Y199.337 Z-1.051 I661.5 J0
X-129.526 Y213.488 Z-1.066 I16.353 J-2.202
X-115.31 Y195.491 Z-1.081 I-2.202 J-16.353
G1 X-116.156 Y187.047 Z-1.086
G3 X-59.089 Y181.029 Z-1.138 I28.549 J-2.858
G2 X-55.006 Y211.237 Z-1.155 I631.634 J-69.989
X-44.638 Y220.081 Z-1.164 I10.369 J-1.656
G1 X-22.5 Z-1.177
G2 X-15.075 Y217.006 Z-1.181 I0 J-10.5
G1 X-5.075 Y207.006 Z-1.19
G2 X-2 Y199.581 Z-1.194 I-7.425 J-7.425
G1 Y160.489 Z-1.217
G2 X-5.745 Y152.93 Z-1.222 I-9.5 J0
G3 Y69.15 Z-1.278 I31.896 J-41.89
G2 X-2 Y61.592 Z-1.283 I-5.755 J-7.558
G1 Y22.5 Z-1.306
G2 X-5.075 Y15.075 Z-1.31 I-10.5 J0
G1 X-15.075 Y5.075 Z-1.319
G2 X-22.5 Y2 Z-1.323 I-7.425 J7.425
G1 X-44.638 Z-1.336
G2 X-55.006 Y10.845 Z-1.345 I0 J10.5
X-59.089 Y41.052 Z-1.362 I627.551 J100.197
G3 X-116.156 Y35.034 Z-1.414 I-28.518 J-3.16
G1 X-115.31 Y26.59 Z-1.419
G2 X-148.081 Y22.744 Z-1.449 I-16.418 J-1.644
X-154 Y111.041 Z-1.5 I655.581 J88.297
X-148.081 Y199.337 Z-1.551 I661.5 J0
X-129.526 Y213.488 Z-1.566 I16.353 J-2.202
X-115.31 Y195.491 Z-1.581 I-2.202 J-16.353
G1 X-116.156 Y187.047 Z-1.586
G3 X-59.089 Y181.029 Z-1.638 I28.549 J-2.858
G2 X-55.006 Y211.237 Z-1.655 I631.634 J-69.989
X-44.638 Y220.081 Z-1.664 I10.369 J-1.656
G1 X-22.5 Z-1.677
G2 X-15.075 Y217.006 Z-1.681 I0 J-10.5
G1 X-5.075 Y207.006 Z-1.69
G2 X-2 Y199.581 Z-1.694 I-7.425 J-7.425
G1 Y160.489 Z-1.717
G2 X-5.745 Y152.93 Z-1.722 I-9.5 J0
G3 Y69.15 Z-1.778 I31.896 J-41.89
G2 X-2 Y61.592 Z-1.783 I-5.755 J-7.558
G1 Y22.5 Z-1.806
G2 X-5.075 Y15.075 Z-1.81 I-10.5 J0
G1 X-15.075 Y5.075 Z-1.819
G2 X-22.5 Y2 Z-1.823 I-7.425 J7.425
G1 X-44.638 Z-1.836
G2 X-55.006 Y10.845 Z-1.845 I0 J10.5
X-59.089 Y41.052 Z-1.862 I627.551 J100.197
G3 X-116.156 Y35.034 Z-1.914 I-28.518 J-3.16
G1 X-115.31 Y26.59 Z-1.919
G2 X-148.081 Y22.744 Z-1.949 I-16.418 J-1.644
X-154 Y111.041 Z-2 I655.581 J88.297
X-148.081 Y199.337 I661.5 J0
X-115.31 Y195.491 I16.353 J-2.202
G1 X-116.156 Y187.047
G3 X-59.089 Y181.029 I28.549 J-2.858
G2 X-55.006 Y211.237 I631.634 J-69.989
X-44.638 Y220.081 I10.369 J-1.656
G1 X-22.5
G2 X-15.075 Y217.006 I0 J-10.5
G1 X-5.075 Y207.006
G2 X-2 Y199.581 I-7.425 J-7.425
G1 Y160.489
G2 X-5.745 Y152.93 I-9.5 J0
G3 Y69.15 I31.896 J-41.89
G2 X-2 Y61.592 I-5.755 J-7.558
G1 Y22.5
G2 X-5.075 Y15.075 I-10.5 J0
G1 X-15.075 Y5.075
G2 X-22.5 Y2 I-7.425 J7.425
G1 X-44.638
G2 X-55.006 Y10.845 I0 J10.5
X-59.089 Y41.052 I627.551 J100.197
G3 X-116.156 Y35.034 I-28.518 J-3.16
G1 X-115.31 Y26.59
G2 X-148.081 Y22.744 I-16.418 J-1.644
X-154 Y111.041 I655.581 J88.297
G0 Z15

M9
M30
