(ADAPTIVE1)
(T11  D=2 CR=0 - ZMIN=-2 - FLAT END MILL)
G90 G94 G91.1 G40 G49 G17
G21

(07 2MM FLAT HOLES)
M5
M9
T11
(DIAMOND OR SPIRAL)
S20000 M3
G54
M8
G0 X-93.366 Y191.939
G43 Z15 H1
Z3
G1 Z2 F100
Z0.5
G3 X-92.999 Y191.6 Z0.459 I0.184 J-0.169 F1000
X-93.366 Y191.939 Z0.418 I-0.184 J0.169
X-92.999 Y191.6 Z0.377 I0.184 J-0.169
X-93.366 Y191.939 Z0.335 I-0.184 J0.169
X-92.999 Y191.6 Z0.294 I0.184 J-0.169
X-93.366 Y191.939 Z0.253 I-0.184 J0.169
X-92.999 Y191.6 Z0.212 I0.184 J-0.169
X-93.366 Y191.939 Z0.171 I-0.184 J0.169
X-92.999 Y191.6 Z0.13 I0.184 J-0.169
X-93.366 Y191.939 Z0.088 I-0.184 J0.169
X-92.999 Y191.6 Z0.047 I0.184 J-0.169
X-93.366 Y191.939 Z0.006 I-0.184 J0.169
X-92.999 Y191.6 Z-0.035 I0.184 J-0.169
X-93.366 Y191.939 Z-0.076 I-0.184 J0.169
X-92.999 Y191.6 Z-0.117 I0.184 J-0.169
X-93.366 Y191.939 Z-0.159 I-0.184 J0.169
X-92.999 Y191.6 Z-0.2 I0.184 J-0.169
X-93.366 Y191.939 Z-0.241 I-0.184 J0.169
X-92.999 Y191.6 Z-0.282 I0.184 J-0.169
X-93.366 Y191.939 Z-0.323 I-0.184 J0.169
X-92.999 Y191.6 Z-0.364 I0.184 J-0.169
X-93.366 Y191.939 Z-0.406 I-0.184 J0.169
X-92.999 Y191.6 Z-0.447 I0.184 J-0.169
X-93.366 Y191.939 Z-0.488 I-0.184 J0.169
X-92.999 Y191.6 Z-0.529 I0.184 J-0.169
X-93.366 Y191.939 Z-0.57 I-0.184 J0.169
X-92.999 Y191.6 Z-0.611 I0.184 J-0.169
X-93.366 Y191.939 Z-0.653 I-0.184 J0.169
X-92.999 Y191.6 Z-0.694 I0.184 J-0.169
X-93.366 Y191.939 Z-0.735 I-0.184 J0.169
X-92.999 Y191.6 Z-0.776 I0.184 J-0.169
X-93.366 Y191.939 Z-0.817 I-0.184 J0.169
X-92.999 Y191.6 Z-0.858 I0.184 J-0.169
X-93.366 Y191.939 Z-0.899 I-0.184 J0.169
X-92.999 Y191.6 Z-0.941 I0.184 J-0.169
X-93.366 Y191.939 Z-0.982 I-0.184 J0.169
X-92.999 Y191.6 Z-1.023 I0.184 J-0.169
X-93.366 Y191.939 Z-1.064 I-0.184 J0.169
X-92.999 Y191.6 Z-1.105 I0.184 J-0.169
X-93.366 Y191.939 Z-1.146 I-0.184 J0.169
X-92.999 Y191.6 Z-1.188 I0.184 J-0.169
X-93.366 Y191.939 Z-1.229 I-0.184 J0.169
X-92.999 Y191.6 Z-1.27 I0.184 J-0.169
X-93.366 Y191.939 Z-1.311 I-0.184 J0.169
X-92.999 Y191.6 Z-1.352 I0.184 J-0.169
X-93.366 Y191.939 Z-1.393 I-0.184 J0.169
X-92.999 Y191.6 Z-1.435 I0.184 J-0.169
X-93.366 Y191.939 Z-1.476 I-0.184 J0.169
X-92.999 Y191.6 Z-1.517 I0.184 J-0.169
X-93.366 Y191.939 Z-1.558 I-0.184 J0.169
X-92.999 Y191.6 Z-1.599 I0.184 J-0.169
X-93.366 Y191.939 Z-1.64 I-0.184 J0.169
X-92.999 Y191.6 Z-1.682 I0.184 J-0.169
X-93.366 Y191.939 Z-1.723 I-0.184 J0.169
X-92.999 Y191.6 Z-1.764 I0.184 J-0.169
X-93.366 Y191.939 Z-1.805 I-0.184 J0.169
X-92.999 Y191.6 Z-1.846 I0.184 J-0.169
X-93.366 Y191.939 Z-1.887 I-0.184 J0.169
X-92.999 Y191.6 Z-1.928 I0.184 J-0.169
X-93.366 Y191.939 Z-1.97 I-0.184 J0.169
X-93.183 Y191.519 Z-2 I0.184 J-0.169
Y192.019 I0 J0.25
Y191.519 I0 J-0.25
G0 Z5
X-75.624 Y215.892
Z3
G1 Z2 F100
Z0.5
G3 X-75.641 Y215.873 Z0.499 I0.184 J-0.169 F1000
X-75.241 Y215.573 Z0.458 I0.2 J-0.15
X-75.641 Y215.873 Z0.416 I-0.2 J0.15
X-75.241 Y215.573 Z0.375 I0.2 J-0.15
X-75.641 Y215.873 Z0.334 I-0.2 J0.15
X-75.241 Y215.573 Z0.293 I0.2 J-0.15
X-75.641 Y215.873 Z0.252 I-0.2 J0.15
X-75.241 Y215.573 Z0.211 I0.2 J-0.15
X-75.641 Y215.873 Z0.169 I-0.2 J0.15
X-75.241 Y215.573 Z0.128 I0.2 J-0.15
X-75.641 Y215.873 Z0.087 I-0.2 J0.15
X-75.241 Y215.573 Z0.046 I0.2 J-0.15
X-75.641 Y215.873 Z0.005 I-0.2 J0.15
X-75.241 Y215.573 Z-0.036 I0.2 J-0.15
X-75.641 Y215.873 Z-0.078 I-0.2 J0.15
X-75.241 Y215.573 Z-0.119 I0.2 J-0.15
X-75.641 Y215.873 Z-0.16 I-0.2 J0.15
X-75.241 Y215.573 Z-0.201 I0.2 J-0.15
X-75.641 Y215.873 Z-0.242 I-0.2 J0.15
X-75.241 Y215.573 Z-0.283 I0.2 J-0.15
X-75.641 Y215.873 Z-0.325 I-0.2 J0.15
X-75.241 Y215.573 Z-0.366 I0.2 J-0.15
X-75.641 Y215.873 Z-0.407 I-0.2 J0.15
X-75.241 Y215.573 Z-0.448 I0.2 J-0.15
X-75.641 Y215.873 Z-0.489 I-0.2 J0.15
X-75.241 Y215.573 Z-0.53 I0.2 J-0.15
X-75.641 Y215.873 Z-0.572 I-0.2 J0.15
X-75.241 Y215.573 Z-0.613 I0.2 J-0.15
X-75.641 Y215.873 Z-0.654 I-0.2 J0.15
X-75.241 Y215.573 Z-0.695 I0.2 J-0.15
X-75.641 Y215.873 Z-0.736 I-0.2 J0.15
X-75.241 Y215.573 Z-0.777 I0.2 J-0.15
X-75.641 Y215.873 Z-0.818 I-0.2 J0.15
X-75.241 Y215.573 Z-0.86 I0.2 J-0.15
X-75.641 Y215.873 Z-0.901 I-0.2 J0.15
X-75.241 Y215.573 Z-0.942 I0.2 J-0.15
X-75.641 Y215.873 Z-0.983 I-0.2 J0.15
X-75.241 Y215.573 Z-1.024 I0.2 J-0.15
X-75.641 Y215.873 Z-1.065 I-0.2 J0.15
X-75.241 Y215.573 Z-1.107 I0.2 J-0.15
X-75.641 Y215.873 Z-1.148 I-0.2 J0.15
X-75.241 Y215.573 Z-1.189 I0.2 J-0.15
X-75.641 Y215.873 Z-1.23 I-0.2 J0.15
X-75.241 Y215.573 Z-1.271 I0.2 J-0.15
X-75.641 Y215.873 Z-1.312 I-0.2 J0.15
X-75.241 Y215.573 Z-1.354 I0.2 J-0.15
X-75.641 Y215.873 Z-1.395 I-0.2 J0.15
X-75.241 Y215.573 Z-1.436 I0.2 J-0.15
X-75.641 Y215.873 Z-1.477 I-0.2 J0.15
X-75.241 Y215.573 Z-1.518 I0.2 J-0.15
X-75.641 Y215.873 Z-1.559 I-0.2 J0.15
X-75.241 Y215.573 Z-1.601 I0.2 J-0.15
X-75.641 Y215.873 Z-1.642 I-0.2 J0.15
X-75.241 Y215.573 Z-1.683 I0.2 J-0.15
X-75.641 Y215.873 Z-1.724 I-0.2 J0.15
X-75.241 Y215.573 Z-1.765 I0.2 J-0.15
X-75.641 Y215.873 Z-1.806 I-0.2 J0.15
X-75.241 Y215.573 Z-1.848 I0.2 J-0.15
X-75.641 Y215.873 Z-1.889 I-0.2 J0.15
X-75.241 Y215.573 Z-1.93 I0.2 J-0.15
X-75.641 Y215.873 Z-1.971 I-0.2 J0.15
X-75.441 Y215.473 Z-2 I0.2 J-0.15
Y215.973 I0 J0.25
Y215.473 I0 J-0.25
G0 Z5
X-43.303 Y214.361
Z3
G1 Z2 F100
Z0.5
G3 X-43.319 Y214.341 Z0.499 I0.184 J-0.169 F1000
X-42.919 Y214.041 Z0.458 I0.2 J-0.15
X-43.319 Y214.341 Z0.416 I-0.2 J0.15
X-42.919 Y214.041 Z0.375 I0.2 J-0.15
X-43.319 Y214.341 Z0.334 I-0.2 J0.15
X-42.919 Y214.041 Z0.293 I0.2 J-0.15
X-43.319 Y214.341 Z0.252 I-0.2 J0.15
X-42.919 Y214.041 Z0.211 I0.2 J-0.15
X-43.319 Y214.341 Z0.169 I-0.2 J0.15
X-42.919 Y214.041 Z0.128 I0.2 J-0.15
X-43.319 Y214.341 Z0.087 I-0.2 J0.15
X-42.919 Y214.041 Z0.046 I0.2 J-0.15
X-43.319 Y214.341 Z0.005 I-0.2 J0.15
X-42.919 Y214.041 Z-0.036 I0.2 J-0.15
X-43.319 Y214.341 Z-0.078 I-0.2 J0.15
X-42.919 Y214.041 Z-0.119 I0.2 J-0.15
X-43.319 Y214.341 Z-0.16 I-0.2 J0.15
X-42.919 Y214.041 Z-0.201 I0.2 J-0.15
X-43.319 Y214.341 Z-0.242 I-0.2 J0.15
X-42.919 Y214.041 Z-0.283 I0.2 J-0.15
X-43.319 Y214.341 Z-0.325 I-0.2 J0.15
X-42.919 Y214.041 Z-0.366 I0.2 J-0.15
X-43.319 Y214.341 Z-0.407 I-0.2 J0.15
X-42.919 Y214.041 Z-0.448 I0.2 J-0.15
X-43.319 Y214.341 Z-0.489 I-0.2 J0.15
X-42.919 Y214.041 Z-0.53 I0.2 J-0.15
X-43.319 Y214.341 Z-0.572 I-0.2 J0.15
X-42.919 Y214.041 Z-0.613 I0.2 J-0.15
X-43.319 Y214.341 Z-0.654 I-0.2 J0.15
X-42.919 Y214.041 Z-0.695 I0.2 J-0.15
X-43.319 Y214.341 Z-0.736 I-0.2 J0.15
X-42.919 Y214.041 Z-0.777 I0.2 J-0.15
X-43.319 Y214.341 Z-0.818 I-0.2 J0.15
X-42.919 Y214.041 Z-0.86 I0.2 J-0.15
X-43.319 Y214.341 Z-0.901 I-0.2 J0.15
X-42.919 Y214.041 Z-0.942 I0.2 J-0.15
X-43.319 Y214.341 Z-0.983 I-0.2 J0.15
X-42.919 Y214.041 Z-1.024 I0.2 J-0.15
X-43.319 Y214.341 Z-1.065 I-0.2 J0.15
X-42.919 Y214.041 Z-1.107 I0.2 J-0.15
X-43.319 Y214.341 Z-1.148 I-0.2 J0.15
X-42.919 Y214.041 Z-1.189 I0.2 J-0.15
X-43.319 Y214.341 Z-1.23 I-0.2 J0.15
X-42.919 Y214.041 Z-1.271 I0.2 J-0.15
X-43.319 Y214.341 Z-1.312 I-0.2 J0.15
X-42.919 Y214.041 Z-1.354 I0.2 J-0.15
X-43.319 Y214.341 Z-1.395 I-0.2 J0.15
X-42.919 Y214.041 Z-1.436 I0.2 J-0.15
X-43.319 Y214.341 Z-1.477 I-0.2 J0.15
X-42.919 Y214.041 Z-1.518 I0.2 J-0.15
X-43.319 Y214.341 Z-1.559 I-0.2 J0.15
X-42.919 Y214.041 Z-1.601 I0.2 J-0.15
X-43.319 Y214.341 Z-1.642 I-0.2 J0.15
X-42.919 Y214.041 Z-1.683 I0.2 J-0.15
X-43.319 Y214.341 Z-1.724 I-0.2 J0.15
X-42.919 Y214.041 Z-1.765 I0.2 J-0.15
X-43.319 Y214.341 Z-1.806 I-0.2 J0.15
X-42.919 Y214.041 Z-1.848 I0.2 J-0.15
X-43.319 Y214.341 Z-1.889 I-0.2 J0.15
X-42.919 Y214.041 Z-1.93 I0.2 J-0.15
X-43.319 Y214.341 Z-1.971 I-0.2 J0.15
X-43.119 Y213.941 Z-2 I0.2 J-0.15
Y214.441 I0 J0.25
Y213.941 I0 J-0.25
G0 Z5
X-6.303 Y214.361
Z3
G1 Z2 F100
Z0.5
G3 X-5.935 Y214.022 Z0.459 I0.184 J-0.169 F1000
X-6.303 Y214.361 Z0.418 I-0.184 J0.169
X-5.935 Y214.022 Z0.377 I0.184 J-0.169
X-6.303 Y214.361 Z0.335 I-0.184 J0.169
X-5.935 Y214.022 Z0.294 I0.184 J-0.169
X-6.303 Y214.361 Z0.253 I-0.184 J0.169
X-5.935 Y214.022 Z0.212 I0.184 J-0.169
X-6.303 Y214.361 Z0.171 I-0.184 J0.169
X-5.935 Y214.022 Z0.13 I0.184 J-0.169
X-6.303 Y214.361 Z0.088 I-0.184 J0.169
X-5.935 Y214.022 Z0.047 I0.184 J-0.169
X-6.303 Y214.361 Z0.006 I-0.184 J0.169
X-5.935 Y214.022 Z-0.035 I0.184 J-0.169
X-6.303 Y214.361 Z-0.076 I-0.184 J0.169
X-5.935 Y214.022 Z-0.117 I0.184 J-0.169
X-6.303 Y214.361 Z-0.159 I-0.184 J0.169
X-5.935 Y214.022 Z-0.2 I0.184 J-0.169
X-6.303 Y214.361 Z-0.241 I-0.184 J0.169
X-5.935 Y214.022 Z-0.282 I0.184 J-0.169
X-6.303 Y214.361 Z-0.323 I-0.184 J0.169
X-5.935 Y214.022 Z-0.364 I0.184 J-0.169
X-6.303 Y214.361 Z-0.406 I-0.184 J0.169
X-5.935 Y214.022 Z-0.447 I0.184 J-0.169
X-6.303 Y214.361 Z-0.488 I-0.184 J0.169
X-5.935 Y214.022 Z-0.529 I0.184 J-0.169
X-6.303 Y214.361 Z-0.57 I-0.184 J0.169
X-5.935 Y214.022 Z-0.611 I0.184 J-0.169
X-6.303 Y214.361 Z-0.653 I-0.184 J0.169
X-5.935 Y214.022 Z-0.694 I0.184 J-0.169
X-6.303 Y214.361 Z-0.735 I-0.184 J0.169
X-5.935 Y214.022 Z-0.776 I0.184 J-0.169
X-6.303 Y214.361 Z-0.817 I-0.184 J0.169
X-5.935 Y214.022 Z-0.858 I0.184 J-0.169
X-6.303 Y214.361 Z-0.899 I-0.184 J0.169
X-5.935 Y214.022 Z-0.941 I0.184 J-0.169
X-6.303 Y214.361 Z-0.982 I-0.184 J0.169
X-5.935 Y214.022 Z-1.023 I0.184 J-0.169
X-6.303 Y214.361 Z-1.064 I-0.184 J0.169
X-5.935 Y214.022 Z-1.105 I0.184 J-0.169
X-6.303 Y214.361 Z-1.146 I-0.184 J0.169
X-5.935 Y214.022 Z-1.188 I0.184 J-0.169
X-6.303 Y214.361 Z-1.229 I-0.184 J0.169
X-5.935 Y214.022 Z-1.27 I0.184 J-0.169
X-6.303 Y214.361 Z-1.311 I-0.184 J0.169
X-5.935 Y214.022 Z-1.352 I0.184 J-0.169
X-6.303 Y214.361 Z-1.393 I-0.184 J0.169
X-5.935 Y214.022 Z-1.435 I0.184 J-0.169
X-6.303 Y214.361 Z-1.476 I-0.184 J0.169
X-5.935 Y214.022 Z-1.517 I0.184 J-0.169
X-6.303 Y214.361 Z-1.558 I-0.184 J0.169
X-5.935 Y214.022 Z-1.599 I0.184 J-0.169
X-6.303 Y214.361 Z-1.64 I-0.184 J0.169
X-5.935 Y214.022 Z-1.682 I0.184 J-0.169
X-6.303 Y214.361 Z-1.723 I-0.184 J0.169
X-5.935 Y214.022 Z-1.764 I0.184 J-0.169
X-6.303 Y214.361 Z-1.805 I-0.184 J0.169
X-5.935 Y214.022 Z-1.846 I0.184 J-0.169
X-6.303 Y214.361 Z-1.887 I-0.184 J0.169
X-5.935 Y214.022 Z-1.928 I0.184 J-0.169
X-6.303 Y214.361 Z-1.97 I-0.184 J0.169
X-6.119 Y213.941 Z-2 I0.184 J-0.169
Y214.441 I0 J0.25
Y213.941 I0 J-0.25
G0 Z5
X-108.167 Y217.601
Z3
G1 Z2 F100
Z0.5
G3 X-108.116 Y218.099 Z0.459 I0.025 J0.249 F1000
X-108.167 Y217.601 Z0.418 I-0.025 J-0.249
X-108.116 Y218.099 Z0.377 I0.025 J0.249
X-108.167 Y217.601 Z0.335 I-0.025 J-0.249
X-108.116 Y218.099 Z0.294 I0.025 J0.249
X-108.167 Y217.601 Z0.253 I-0.025 J-0.249
X-108.116 Y218.099 Z0.212 I0.025 J0.249
X-108.167 Y217.601 Z0.171 I-0.025 J-0.249
X-108.116 Y218.099 Z0.13 I0.025 J0.249
X-108.167 Y217.601 Z0.088 I-0.025 J-0.249
X-108.116 Y218.099 Z0.047 I0.025 J0.249
X-108.167 Y217.601 Z0.006 I-0.025 J-0.249
X-108.116 Y218.099 Z-0.035 I0.025 J0.249
X-108.167 Y217.601 Z-0.076 I-0.025 J-0.249
X-108.116 Y218.099 Z-0.117 I0.025 J0.249
X-108.167 Y217.601 Z-0.159 I-0.025 J-0.249
X-108.116 Y218.099 Z-0.2 I0.025 J0.249
X-108.167 Y217.601 Z-0.241 I-0.025 J-0.249
X-108.116 Y218.099 Z-0.282 I0.025 J0.249
X-108.167 Y217.601 Z-0.323 I-0.025 J-0.249
X-108.116 Y218.099 Z-0.364 I0.025 J0.249
X-108.167 Y217.601 Z-0.406 I-0.025 J-0.249
X-108.116 Y218.099 Z-0.447 I0.025 J0.249
X-108.167 Y217.601 Z-0.488 I-0.025 J-0.249
X-108.116 Y218.099 Z-0.529 I0.025 J0.249
X-108.167 Y217.601 Z-0.57 I-0.025 J-0.249
X-108.116 Y218.099 Z-0.611 I0.025 J0.249
X-108.167 Y217.601 Z-0.653 I-0.025 J-0.249
X-108.116 Y218.099 Z-0.694 I0.025 J0.249
X-108.167 Y217.601 Z-0.735 I-0.025 J-0.249
X-108.116 Y218.099 Z-0.776 I0.025 J0.249
X-108.167 Y217.601 Z-0.817 I-0.025 J-0.249
X-108.116 Y218.099 Z-0.858 I0.025 J0.249
X-108.167 Y217.601 Z-0.899 I-0.025 J-0.249
X-108.116 Y218.099 Z-0.941 I0.025 J0.249
X-108.167 Y217.601 Z-0.982 I-0.025 J-0.249
X-108.116 Y218.099 Z-1.023 I0.025 J0.249
X-108.167 Y217.601 Z-1.064 I-0.025 J-0.249
X-108.116 Y218.099 Z-1.105 I0.025 J0.249
X-108.167 Y217.601 Z-1.146 I-0.025 J-0.249
X-108.116 Y218.099 Z-1.188 I0.025 J0.249
X-108.167 Y217.601 Z-1.229 I-0.025 J-0.249
X-108.116 Y218.099 Z-1.27 I0.025 J0.249
X-108.167 Y217.601 Z-1.311 I-0.025 J-0.249
X-108.116 Y218.099 Z-1.352 I0.025 J0.249
X-108.167 Y217.601 Z-1.393 I-0.025 J-0.249
X-108.116 Y218.099 Z-1.435 I0.025 J0.249
X-108.167 Y217.601 Z-1.476 I-0.025 J-0.249
X-108.116 Y218.099 Z-1.517 I0.025 J0.249
X-108.167 Y217.601 Z-1.558 I-0.025 J-0.249
X-108.116 Y218.099 Z-1.599 I0.025 J0.249
X-108.167 Y217.601 Z-1.64 I-0.025 J-0.249
X-108.116 Y218.099 Z-1.682 I0.025 J0.249
X-108.167 Y217.601 Z-1.723 I-0.025 J-0.249
X-108.116 Y218.099 Z-1.764 I0.025 J0.249
X-108.167 Y217.601 Z-1.805 I-0.025 J-0.249
X-108.116 Y218.099 Z-1.846 I0.025 J0.249
X-108.167 Y217.601 Z-1.887 I-0.025 J-0.249
X-108.116 Y218.099 Z-1.928 I0.025 J0.249
X-108.167 Y217.601 Z-1.97 I-0.025 J-0.249
X-107.942 Y218 Z-2 I0.025 J0.249
X-108.342 Y217.7 I-0.2 J-0.15
X-107.942 Y218 I0.2 J0.15
G0 Z5
X-142.281 Y218.02
Z3
G1 Z2 F100
Z0.5
G3 X-141.914 Y217.681 Z0.459 I0.184 J-0.169 F1000
X-142.281 Y218.02 Z0.418 I-0.184 J0.169
X-141.914 Y217.681 Z0.377 I0.184 J-0.169
X-142.281 Y218.02 Z0.335 I-0.184 J0.169
X-141.914 Y217.681 Z0.294 I0.184 J-0.169
X-142.281 Y218.02 Z0.253 I-0.184 J0.169
X-141.914 Y217.681 Z0.212 I0.184 J-0.169
X-142.281 Y218.02 Z0.171 I-0.184 J0.169
X-141.914 Y217.681 Z0.13 I0.184 J-0.169
X-142.281 Y218.02 Z0.088 I-0.184 J0.169
X-141.914 Y217.681 Z0.047 I0.184 J-0.169
X-142.281 Y218.02 Z0.006 I-0.184 J0.169
X-141.914 Y217.681 Z-0.035 I0.184 J-0.169
X-142.281 Y218.02 Z-0.076 I-0.184 J0.169
X-141.914 Y217.681 Z-0.117 I0.184 J-0.169
X-142.281 Y218.02 Z-0.159 I-0.184 J0.169
X-141.914 Y217.681 Z-0.2 I0.184 J-0.169
X-142.281 Y218.02 Z-0.241 I-0.184 J0.169
X-141.914 Y217.681 Z-0.282 I0.184 J-0.169
X-142.281 Y218.02 Z-0.323 I-0.184 J0.169
X-141.914 Y217.681 Z-0.364 I0.184 J-0.169
X-142.281 Y218.02 Z-0.406 I-0.184 J0.169
X-141.914 Y217.681 Z-0.447 I0.184 J-0.169
X-142.281 Y218.02 Z-0.488 I-0.184 J0.169
X-141.914 Y217.681 Z-0.529 I0.184 J-0.169
X-142.281 Y218.02 Z-0.57 I-0.184 J0.169
X-141.914 Y217.681 Z-0.611 I0.184 J-0.169
X-142.281 Y218.02 Z-0.653 I-0.184 J0.169
X-141.914 Y217.681 Z-0.694 I0.184 J-0.169
X-142.281 Y218.02 Z-0.735 I-0.184 J0.169
X-141.914 Y217.681 Z-0.776 I0.184 J-0.169
X-142.281 Y218.02 Z-0.817 I-0.184 J0.169
X-141.914 Y217.681 Z-0.858 I0.184 J-0.169
X-142.281 Y218.02 Z-0.899 I-0.184 J0.169
X-141.914 Y217.681 Z-0.941 I0.184 J-0.169
X-142.281 Y218.02 Z-0.982 I-0.184 J0.169
X-141.914 Y217.681 Z-1.023 I0.184 J-0.169
X-142.281 Y218.02 Z-1.064 I-0.184 J0.169
X-141.914 Y217.681 Z-1.105 I0.184 J-0.169
X-142.281 Y218.02 Z-1.146 I-0.184 J0.169
X-141.914 Y217.681 Z-1.188 I0.184 J-0.169
X-142.281 Y218.02 Z-1.229 I-0.184 J0.169
X-141.914 Y217.681 Z-1.27 I0.184 J-0.169
X-142.281 Y218.02 Z-1.311 I-0.184 J0.169
X-141.914 Y217.681 Z-1.352 I0.184 J-0.169
X-142.281 Y218.02 Z-1.393 I-0.184 J0.169
X-141.914 Y217.681 Z-1.435 I0.184 J-0.169
X-142.281 Y218.02 Z-1.476 I-0.184 J0.169
X-141.914 Y217.681 Z-1.517 I0.184 J-0.169
X-142.281 Y218.02 Z-1.558 I-0.184 J0.169
X-141.914 Y217.681 Z-1.599 I0.184 J-0.169
X-142.281 Y218.02 Z-1.64 I-0.184 J0.169
X-141.914 Y217.681 Z-1.682 I0.184 J-0.169
X-142.281 Y218.02 Z-1.723 I-0.184 J0.169
X-141.914 Y217.681 Z-1.764 I0.184 J-0.169
X-142.281 Y218.02 Z-1.805 I-0.184 J0.169
X-141.914 Y217.681 Z-1.846 I0.184 J-0.169
X-142.281 Y218.02 Z-1.887 I-0.184 J0.169
X-141.914 Y217.681 Z-1.928 I0.184 J-0.169
X-142.281 Y218.02 Z-1.97 I-0.184 J0.169
X-142.097 Y217.6 Z-2 I0.184 J-0.169
Y218.1 I0 J0.25
Y217.6 I0 J-0.25
G0 Z5
X-187.499 Y192.365
Z3
G1 Z2 F100
Z0.5
G3 X-187.131 Y192.026 Z0.459 I0.184 J-0.169 F1000
X-187.499 Y192.365 Z0.418 I-0.184 J0.169
X-187.131 Y192.026 Z0.377 I0.184 J-0.169
X-187.499 Y192.365 Z0.335 I-0.184 J0.169
X-187.131 Y192.026 Z0.294 I0.184 J-0.169
X-187.499 Y192.365 Z0.253 I-0.184 J0.169
X-187.131 Y192.026 Z0.212 I0.184 J-0.169
X-187.499 Y192.365 Z0.171 I-0.184 J0.169
X-187.131 Y192.026 Z0.13 I0.184 J-0.169
X-187.499 Y192.365 Z0.088 I-0.184 J0.169
X-187.131 Y192.026 Z0.047 I0.184 J-0.169
X-187.499 Y192.365 Z0.006 I-0.184 J0.169
X-187.131 Y192.026 Z-0.035 I0.184 J-0.169
X-187.499 Y192.365 Z-0.076 I-0.184 J0.169
X-187.131 Y192.026 Z-0.117 I0.184 J-0.169
X-187.499 Y192.365 Z-0.159 I-0.184 J0.169
X-187.131 Y192.026 Z-0.2 I0.184 J-0.169
X-187.499 Y192.365 Z-0.241 I-0.184 J0.169
X-187.131 Y192.026 Z-0.282 I0.184 J-0.169
X-187.499 Y192.365 Z-0.323 I-0.184 J0.169
X-187.131 Y192.026 Z-0.364 I0.184 J-0.169
X-187.499 Y192.365 Z-0.406 I-0.184 J0.169
X-187.131 Y192.026 Z-0.447 I0.184 J-0.169
X-187.499 Y192.365 Z-0.488 I-0.184 J0.169
X-187.131 Y192.026 Z-0.529 I0.184 J-0.169
X-187.499 Y192.365 Z-0.57 I-0.184 J0.169
X-187.131 Y192.026 Z-0.611 I0.184 J-0.169
X-187.499 Y192.365 Z-0.653 I-0.184 J0.169
X-187.131 Y192.026 Z-0.694 I0.184 J-0.169
X-187.499 Y192.365 Z-0.735 I-0.184 J0.169
X-187.131 Y192.026 Z-0.776 I0.184 J-0.169
X-187.499 Y192.365 Z-0.817 I-0.184 J0.169
X-187.131 Y192.026 Z-0.858 I0.184 J-0.169
X-187.499 Y192.365 Z-0.899 I-0.184 J0.169
X-187.131 Y192.026 Z-0.941 I0.184 J-0.169
X-187.499 Y192.365 Z-0.982 I-0.184 J0.169
X-187.131 Y192.026 Z-1.023 I0.184 J-0.169
X-187.499 Y192.365 Z-1.064 I-0.184 J0.169
X-187.131 Y192.026 Z-1.105 I0.184 J-0.169
X-187.499 Y192.365 Z-1.146 I-0.184 J0.169
X-187.131 Y192.026 Z-1.188 I0.184 J-0.169
X-187.499 Y192.365 Z-1.229 I-0.184 J0.169
X-187.131 Y192.026 Z-1.27 I0.184 J-0.169
X-187.499 Y192.365 Z-1.311 I-0.184 J0.169
X-187.131 Y192.026 Z-1.352 I0.184 J-0.169
X-187.499 Y192.365 Z-1.393 I-0.184 J0.169
X-187.131 Y192.026 Z-1.435 I0.184 J-0.169
X-187.499 Y192.365 Z-1.476 I-0.184 J0.169
X-187.131 Y192.026 Z-1.517 I0.184 J-0.169
X-187.499 Y192.365 Z-1.558 I-0.184 J0.169
X-187.131 Y192.026 Z-1.599 I0.184 J-0.169
X-187.499 Y192.365 Z-1.64 I-0.184 J0.169
X-187.131 Y192.026 Z-1.682 I0.184 J-0.169
X-187.499 Y192.365 Z-1.723 I-0.184 J0.169
X-187.131 Y192.026 Z-1.764 I0.184 J-0.169
X-187.499 Y192.365 Z-1.805 I-0.184 J0.169
X-187.131 Y192.026 Z-1.846 I0.184 J-0.169
X-187.499 Y192.365 Z-1.887 I-0.184 J0.169
X-187.131 Y192.026 Z-1.928 I0.184 J-0.169
X-187.499 Y192.365 Z-1.97 I-0.184 J0.169
X-187.315 Y191.945 Z-2 I0.184 J-0.169
Y192.445 I0 J0.25
Y191.945 I0 J-0.25
G0 Z5
X-169.757 Y168.411
Z3
G1 Z2 F100
Z0.5
G3 X-169.389 Y168.072 Z0.459 I0.184 J-0.169 F1000
X-169.757 Y168.411 Z0.418 I-0.184 J0.169
X-169.389 Y168.072 Z0.377 I0.184 J-0.169
X-169.757 Y168.411 Z0.335 I-0.184 J0.169
X-169.389 Y168.072 Z0.294 I0.184 J-0.169
X-169.757 Y168.411 Z0.253 I-0.184 J0.169
X-169.389 Y168.072 Z0.212 I0.184 J-0.169
X-169.757 Y168.411 Z0.171 I-0.184 J0.169
X-169.389 Y168.072 Z0.13 I0.184 J-0.169
X-169.757 Y168.411 Z0.088 I-0.184 J0.169
X-169.389 Y168.072 Z0.047 I0.184 J-0.169
X-169.757 Y168.411 Z0.006 I-0.184 J0.169
X-169.389 Y168.072 Z-0.035 I0.184 J-0.169
X-169.757 Y168.411 Z-0.076 I-0.184 J0.169
X-169.389 Y168.072 Z-0.117 I0.184 J-0.169
X-169.757 Y168.411 Z-0.159 I-0.184 J0.169
X-169.389 Y168.072 Z-0.2 I0.184 J-0.169
X-169.757 Y168.411 Z-0.241 I-0.184 J0.169
X-169.389 Y168.072 Z-0.282 I0.184 J-0.169
X-169.757 Y168.411 Z-0.323 I-0.184 J0.169
X-169.389 Y168.072 Z-0.364 I0.184 J-0.169
X-169.757 Y168.411 Z-0.406 I-0.184 J0.169
X-169.389 Y168.072 Z-0.447 I0.184 J-0.169
X-169.757 Y168.411 Z-0.488 I-0.184 J0.169
X-169.389 Y168.072 Z-0.529 I0.184 J-0.169
X-169.757 Y168.411 Z-0.57 I-0.184 J0.169
X-169.389 Y168.072 Z-0.611 I0.184 J-0.169
X-169.757 Y168.411 Z-0.653 I-0.184 J0.169
X-169.389 Y168.072 Z-0.694 I0.184 J-0.169
X-169.757 Y168.411 Z-0.735 I-0.184 J0.169
X-169.389 Y168.072 Z-0.776 I0.184 J-0.169
X-169.757 Y168.411 Z-0.817 I-0.184 J0.169
X-169.389 Y168.072 Z-0.858 I0.184 J-0.169
X-169.757 Y168.411 Z-0.899 I-0.184 J0.169
X-169.389 Y168.072 Z-0.941 I0.184 J-0.169
X-169.757 Y168.411 Z-0.982 I-0.184 J0.169
X-169.389 Y168.072 Z-1.023 I0.184 J-0.169
X-169.757 Y168.411 Z-1.064 I-0.184 J0.169
X-169.389 Y168.072 Z-1.105 I0.184 J-0.169
X-169.757 Y168.411 Z-1.146 I-0.184 J0.169
X-169.389 Y168.072 Z-1.188 I0.184 J-0.169
X-169.757 Y168.411 Z-1.229 I-0.184 J0.169
X-169.389 Y168.072 Z-1.27 I0.184 J-0.169
X-169.757 Y168.411 Z-1.311 I-0.184 J0.169
X-169.389 Y168.072 Z-1.352 I0.184 J-0.169
X-169.757 Y168.411 Z-1.393 I-0.184 J0.169
X-169.389 Y168.072 Z-1.435 I0.184 J-0.169
X-169.757 Y168.411 Z-1.476 I-0.184 J0.169
X-169.389 Y168.072 Z-1.517 I0.184 J-0.169
X-169.757 Y168.411 Z-1.558 I-0.184 J0.169
X-169.389 Y168.072 Z-1.599 I0.184 J-0.169
X-169.757 Y168.411 Z-1.64 I-0.184 J0.169
X-169.389 Y168.072 Z-1.682 I0.184 J-0.169
X-169.757 Y168.411 Z-1.723 I-0.184 J0.169
X-169.389 Y168.072 Z-1.764 I0.184 J-0.169
X-169.757 Y168.411 Z-1.805 I-0.184 J0.169
X-169.389 Y168.072 Z-1.846 I0.184 J-0.169
X-169.757 Y168.411 Z-1.887 I-0.184 J0.169
X-169.389 Y168.072 Z-1.928 I0.184 J-0.169
X-169.757 Y168.411 Z-1.97 I-0.184 J0.169
X-169.573 Y167.992 Z-2 I0.184 J-0.169
Y168.492 I0 J0.25
Y167.992 I0 J-0.25
G0 Z15

M9
M30
