(ADAPTIVE1)
(T11  D=2 CR=0 - ZMIN=-2 - FLAT END MILL)
G90 G94 G91.1 G40 G49 G17
G21

(08 2MM FLAT OUTSIDE)
M5
M9
T11
(DIAMOND OR SPIRAL)
S20000 M3
G54
M8
G0 X-86.096 Y240.568
G43 Z15 H1
Z3
G1 Z2 F100
Z0.5
G2 X-72.085 Y227.124 Z0.439 I-0.911 J-14.972 F1000
G1 X-69.843 Y205.239 Z0.375
G2 X-69.777 Y203.109 Z0.369 I-14.922 J-1.529
G1 X-70.574 Y183.225 Z0.311
G2 X-96.138 Y180.447 Z0.203 I-12.99 J0.521
G3 X-96.213 Y180.643 I-0.967 J-0.254
G2 X-96.311 Y180.964 Z0.202 I0.893 J0.45
G1 X-101.881 Y223.655 Z0.077
G2 X-102.007 Y225.555 Z0.071 I14.874 J1.943
X-88.947 Y240.469 Z0.008 I15 J0.04
X-72.085 Y227.124 Z-0.061 I1.941 J-14.874
G1 X-69.843 Y205.239 Z-0.125
G2 X-69.777 Y203.109 Z-0.131 I-14.922 J-1.529
G1 X-70.574 Y183.225 Z-0.189
G2 X-96.138 Y180.447 Z-0.297 I-12.99 J0.521
G3 X-96.213 Y180.643 I-0.967 J-0.254
G2 X-96.311 Y180.964 Z-0.298 I0.893 J0.45
G1 X-101.881 Y223.655 Z-0.423
G2 X-102.007 Y225.555 Z-0.429 I14.874 J1.943
X-88.947 Y240.469 Z-0.492 I15 J0.04
X-72.085 Y227.124 Z-0.561 I1.941 J-14.874
G1 X-69.843 Y205.239 Z-0.625
G2 X-69.777 Y203.109 Z-0.631 I-14.922 J-1.529
G1 X-70.574 Y183.225 Z-0.689
G2 X-96.138 Y180.447 Z-0.797 I-12.99 J0.521
G3 X-96.213 Y180.643 I-0.967 J-0.254
G2 X-96.311 Y180.964 Z-0.798 I0.893 J0.45
G1 X-101.881 Y223.655 Z-0.923
G2 X-102.007 Y225.555 Z-0.929 I14.874 J1.943
X-88.947 Y240.469 Z-0.992 I15 J0.04
X-72.085 Y227.124 Z-1.061 I1.941 J-14.874
G1 X-69.843 Y205.239 Z-1.125
G2 X-69.777 Y203.109 Z-1.131 I-14.922 J-1.529
G1 X-70.574 Y183.225 Z-1.189
G2 X-96.138 Y180.447 Z-1.297 I-12.99 J0.521
G3 X-96.213 Y180.643 I-0.967 J-0.254
G2 X-96.311 Y180.964 Z-1.298 I0.893 J0.45
G1 X-101.881 Y223.655 Z-1.423
G2 X-102.007 Y225.555 Z-1.429 I14.874 J1.943
X-88.947 Y240.469 Z-1.492 I15 J0.04
X-72.085 Y227.124 Z-1.561 I1.941 J-14.874
G1 X-69.843 Y205.239 Z-1.625
G2 X-69.777 Y203.109 Z-1.631 I-14.922 J-1.529
G1 X-70.574 Y183.225 Z-1.689
G2 X-96.138 Y180.447 Z-1.797 I-12.99 J0.521
G3 X-96.213 Y180.643 I-0.967 J-0.254
G2 X-96.311 Y180.964 Z-1.798 I0.893 J0.45
G1 X-101.881 Y223.655 Z-1.923
G2 X-102.007 Y225.555 Z-1.929 I14.874 J1.943
X-88.947 Y240.469 Z-1.992 I15 J0.04
X-86.096 Y240.568 Z-2 I1.941 J-14.874
X-72.085 Y227.124 I-0.911 J-14.972
G1 X-69.843 Y205.239
G2 X-69.777 Y203.109 I-14.922 J-1.529
G1 X-70.574 Y183.225
G2 X-96.138 Y180.447 I-12.99 J0.521
G3 X-96.213 Y180.643 I-0.967 J-0.254
G2 X-96.311 Y180.964 I0.893 J0.45
G1 X-101.881 Y223.655
G2 X-102.007 Y225.555 I14.874 J1.943
X-88.947 Y240.469 I15 J0.04
X-86.096 Y240.568 I1.941 J-14.874
G0 Z5
X-116.167 Y243.569
Z3
G1 Z2 F100
Z0.5
G2 X-103.642 Y230.578 Z0.449 I-0.475 J-12.991 F1000
G1 Y205.122 Z0.383
G2 X-116.642 Y192.122 Z0.33 I-13 J0
G1 X-142.097 Z0.265
G2 X-151.29 Y195.93 Z0.238 I0 J13
G1 X-164.018 Y208.658 Z0.192
G2 Y227.042 Z0.14 I9.192 J9.192
G1 X-151.29 Y239.77 Z0.093
G2 X-142.097 Y243.578 Z0.067 I9.192 J-9.192
G1 X-116.642 Z0.001
G2 X-103.642 Y230.578 Z-0.051 I0 J-13
G1 Y205.122 Z-0.117
G2 X-116.642 Y192.122 Z-0.17 I-13 J0
G1 X-142.097 Z-0.235
G2 X-151.29 Y195.93 Z-0.262 I0 J13
G1 X-164.018 Y208.658 Z-0.308
G2 Y227.042 Z-0.36 I9.192 J9.192
G1 X-151.29 Y239.77 Z-0.407
G2 X-142.097 Y243.578 Z-0.433 I9.192 J-9.192
G1 X-116.642 Z-0.499
G2 X-103.642 Y230.578 Z-0.551 I0 J-13
G1 Y205.122 Z-0.617
G2 X-116.642 Y192.122 Z-0.67 I-13 J0
G1 X-142.097 Z-0.735
G2 X-151.29 Y195.93 Z-0.762 I0 J13
G1 X-164.018 Y208.658 Z-0.808
G2 Y227.042 Z-0.86 I9.192 J9.192
G1 X-151.29 Y239.77 Z-0.907
G2 X-142.097 Y243.578 Z-0.933 I9.192 J-9.192
G1 X-116.642 Z-0.999
G2 X-103.642 Y230.578 Z-1.051 I0 J-13
G1 Y205.122 Z-1.117
G2 X-116.642 Y192.122 Z-1.17 I-13 J0
G1 X-142.097 Z-1.235
G2 X-151.29 Y195.93 Z-1.262 I0 J13
G1 X-164.018 Y208.658 Z-1.308
G2 Y227.042 Z-1.36 I9.192 J9.192
G1 X-151.29 Y239.77 Z-1.407
G2 X-142.097 Y243.578 Z-1.433 I9.192 J-9.192
G1 X-116.642 Z-1.499
G2 X-103.642 Y230.578 Z-1.551 I0 J-13
G1 Y205.122 Z-1.617
G2 X-116.642 Y192.122 Z-1.67 I-13 J0
G1 X-142.097 Z-1.735
G2 X-151.29 Y195.93 Z-1.762 I0 J13
G1 X-164.018 Y208.658 Z-1.808
G2 Y227.042 Z-1.86 I9.192 J9.192
G1 X-151.29 Y239.77 Z-1.907
G2 X-142.097 Y243.578 Z-1.933 I9.192 J-9.192
G1 X-116.642 Z-1.999
G2 X-116.167 Y243.569 Z-2 I0 J-13
X-103.642 Y230.578 I-0.475 J-12.991
G1 Y205.122
G2 X-116.642 Y192.122 I-13 J0
G1 X-142.097
G2 X-151.29 Y195.93 I0 J13
G1 X-164.018 Y208.658
G2 Y227.042 I9.192 J9.192
G1 X-151.29 Y239.77
G2 X-142.097 Y243.578 I9.192 J-9.192
G1 X-116.642
G2 X-116.167 Y243.569 I0 J-13
G0 Z5
X-43.69 Y239.907
Z3
G1 Z2 F100
Z0.5
G2 X-32.964 Y235.036 Z0.469 I0.571 J-12.987 F1000
G3 X-32.183 Y234.66 Z0.467 I0.781 J0.624
G1 X-9.619 Z0.41
G2 X-6.619 Y231.66 Z0.398 I0 J-3
G1 Y219.669 Z0.368
G3 X-5.71 Y218.673 Z0.365 I1 J0
G2 Y209.71 Z0.331 I-0.409 J-4.481
G3 X-6.619 Y208.714 Z0.327 I0.091 J-0.996
G1 Y193.989 Z0.29
G2 X-7.497 Y191.867 Z0.284 I-3 J0
G1 X-10.023 Y189.342 Z0.275
G2 X-12.144 Y188.463 Z0.27 I-2.121 J2.121
G1 X-43.119 Z0.192
G2 X-52.311 Y192.271 Z0.166 I0 J13
G1 X-65.039 Y204.999 Z0.121
G2 Y223.384 Z0.069 I9.192 J9.192
G1 X-52.311 Y236.112 Z0.024
G2 X-32.964 Y235.036 Z-0.031 I9.192 J-9.192
G3 X-32.183 Y234.66 Z-0.033 I0.781 J0.624
G1 X-9.619 Z-0.09
G2 X-6.619 Y231.66 Z-0.102 I0 J-3
G1 Y219.669 Z-0.132
G3 X-5.71 Y218.673 Z-0.135 I1 J0
G2 Y209.71 Z-0.169 I-0.409 J-4.481
G3 X-6.619 Y208.714 Z-0.173 I0.091 J-0.996
G1 Y193.989 Z-0.21
G2 X-7.497 Y191.867 Z-0.216 I-3 J0
G1 X-10.023 Y189.342 Z-0.225
G2 X-12.144 Y188.463 Z-0.23 I-2.121 J2.121
G1 X-43.119 Z-0.308
G2 X-52.311 Y192.271 Z-0.334 I0 J13
G1 X-65.039 Y204.999 Z-0.379
G2 Y223.384 Z-0.431 I9.192 J9.192
G1 X-52.311 Y236.112 Z-0.476
G2 X-32.964 Y235.036 Z-0.531 I9.192 J-9.192
G3 X-32.183 Y234.66 Z-0.533 I0.781 J0.624
G1 X-9.619 Z-0.59
G2 X-6.619 Y231.66 Z-0.602 I0 J-3
G1 Y219.669 Z-0.632
G3 X-5.71 Y218.673 Z-0.635 I1 J0
G2 Y209.71 Z-0.669 I-0.409 J-4.481
G3 X-6.619 Y208.714 Z-0.673 I0.091 J-0.996
G1 Y193.989 Z-0.71
G2 X-7.497 Y191.867 Z-0.716 I-3 J0
G1 X-10.023 Y189.342 Z-0.725
G2 X-12.144 Y188.463 Z-0.73 I-2.121 J2.121
G1 X-43.119 Z-0.808
G2 X-52.311 Y192.271 Z-0.834 I0 J13
G1 X-65.039 Y204.999 Z-0.879
G2 Y223.384 Z-0.931 I9.192 J9.192
G1 X-52.311 Y236.112 Z-0.976
G2 X-32.964 Y235.036 Z-1.031 I9.192 J-9.192
G3 X-32.183 Y234.66 Z-1.033 I0.781 J0.624
G1 X-9.619 Z-1.09
G2 X-6.619 Y231.66 Z-1.102 I0 J-3
G1 Y219.669 Z-1.132
G3 X-5.71 Y218.673 Z-1.135 I1 J0
G2 Y209.71 Z-1.169 I-0.409 J-4.481
G3 X-6.619 Y208.714 Z-1.173 I0.091 J-0.996
G1 Y193.989 Z-1.21
G2 X-7.497 Y191.867 Z-1.216 I-3 J0
G1 X-10.023 Y189.342 Z-1.225
G2 X-12.144 Y188.463 Z-1.23 I-2.121 J2.121
G1 X-43.119 Z-1.308
G2 X-52.311 Y192.271 Z-1.334 I0 J13
G1 X-65.039 Y204.999 Z-1.379
G2 Y223.384 Z-1.431 I9.192 J9.192
G1 X-52.311 Y236.112 Z-1.476
G2 X-32.964 Y235.036 Z-1.531 I9.192 J-9.192
G3 X-32.183 Y234.66 Z-1.533 I0.781 J0.624
G1 X-9.619 Z-1.59
G2 X-6.619 Y231.66 Z-1.602 I0 J-3
G1 Y219.669 Z-1.632
G3 X-5.71 Y218.673 Z-1.635 I1 J0
G2 Y209.71 Z-1.669 I-0.409 J-4.481
G3 X-6.619 Y208.714 Z-1.673 I0.091 J-0.996
G1 Y193.989 Z-1.71
G2 X-7.497 Y191.867 Z-1.716 I-3 J0
G1 X-10.023 Y189.342 Z-1.725
G2 X-12.144 Y188.463 Z-1.73 I-2.121 J2.121
G1 X-43.119 Z-1.808
G2 X-52.311 Y192.271 Z-1.834 I0 J13
G1 X-65.039 Y204.999 Z-1.879
G2 Y223.384 Z-1.931 I9.192 J9.192
G1 X-52.311 Y236.112 Z-1.976
G2 X-43.69 Y239.907 Z-2 I9.192 J-9.192
X-32.964 Y235.036 I0.571 J-12.987
G3 X-32.183 Y234.66 I0.781 J0.624
G1 X-9.619
G2 X-6.619 Y231.66 I0 J-3
G1 Y219.669
G3 X-5.71 Y218.673 I1 J0
G2 Y209.71 I-0.409 J-4.481
G3 X-6.619 Y208.714 I0.091 J-0.996
G1 Y193.989
G2 X-7.497 Y191.867 I-3 J0
G1 X-10.023 Y189.342
G2 X-12.144 Y188.463 I-2.121 J2.121
G1 X-43.119
G2 X-52.311 Y192.271 I0 J13
G1 X-65.039 Y204.999
G2 Y223.384 I9.192 J9.192
G1 X-52.311 Y236.112
G2 X-43.69 Y239.907 I9.192 J-9.192
G0 Z5
X-178.479 Y143.607
Z3
G1 Z2 F100
Z0.5
G2 X-196.013 Y160.31 Z0.418 I-2.66 J14.762 F1000
G1 X-190.443 Y203.001 Z0.293
G2 X-190.345 Y203.321 Z0.292 I0.992 J-0.129
G3 X-190.271 Y203.517 I-0.893 J0.45
G2 X-164.707 Y200.74 Z0.184 I12.575 J-3.299
G1 X-163.909 Y180.856 Z0.126
G2 X-163.975 Y178.726 Z0.12 I-14.988 J-0.601
G1 X-166.217 Y156.841 Z0.056
G2 X-182.874 Y143.47 Z-0.013 I-14.922 J1.529
X-196.013 Y160.31 Z-0.082 I1.735 J14.899
G1 X-190.443 Y203.001 Z-0.207
G2 X-190.345 Y203.321 Z-0.208 I0.992 J-0.129
G3 X-190.271 Y203.517 I-0.893 J0.45
G2 X-164.707 Y200.74 Z-0.316 I12.575 J-3.299
G1 X-163.909 Y180.856 Z-0.374
G2 X-163.975 Y178.726 Z-0.38 I-14.988 J-0.601
G1 X-166.217 Y156.841 Z-0.444
G2 X-182.874 Y143.47 Z-0.513 I-14.922 J1.529
X-196.013 Y160.31 Z-0.582 I1.735 J14.899
G1 X-190.443 Y203.001 Z-0.707
G2 X-190.345 Y203.321 Z-0.708 I0.992 J-0.129
G3 X-190.271 Y203.517 I-0.893 J0.45
G2 X-164.707 Y200.74 Z-0.816 I12.575 J-3.299
G1 X-163.909 Y180.856 Z-0.874
G2 X-163.975 Y178.726 Z-0.88 I-14.988 J-0.601
G1 X-166.217 Y156.841 Z-0.944
G2 X-182.874 Y143.47 Z-1.013 I-14.922 J1.529
X-196.013 Y160.31 Z-1.082 I1.735 J14.899
G1 X-190.443 Y203.001 Z-1.207
G2 X-190.345 Y203.321 Z-1.208 I0.992 J-0.129
G3 X-190.271 Y203.517 I-0.893 J0.45
G2 X-164.707 Y200.74 Z-1.316 I12.575 J-3.299
G1 X-163.909 Y180.856 Z-1.374
G2 X-163.975 Y178.726 Z-1.38 I-14.988 J-0.601
G1 X-166.217 Y156.841 Z-1.444
G2 X-182.874 Y143.47 Z-1.513 I-14.922 J1.529
X-196.013 Y160.31 Z-1.582 I1.735 J14.899
G1 X-190.443 Y203.001 Z-1.707
G2 X-190.345 Y203.321 Z-1.708 I0.992 J-0.129
G3 X-190.271 Y203.517 I-0.893 J0.45
G2 X-164.707 Y200.74 Z-1.816 I12.575 J-3.299
G1 X-163.909 Y180.856 Z-1.874
G2 X-163.975 Y178.726 Z-1.88 I-14.988 J-0.601
G1 X-166.217 Y156.841 Z-1.944
G2 X-178.479 Y143.607 Z-2 I-14.922 J1.529
X-196.013 Y160.31 I-2.66 J14.762
G1 X-190.443 Y203.001
G2 X-190.345 Y203.321 I0.992 J-0.129
G3 X-190.271 Y203.517 I-0.893 J0.45
G2 X-164.707 Y200.74 I12.575 J-3.299
G1 X-163.909 Y180.856
G2 X-163.975 Y178.726 I-14.988 J-0.601
G1 X-166.217 Y156.841
G2 X-178.479 Y143.607 I-14.922 J1.529
G0 Z15

M9
M30
