(ADAPTIVE1)
(T48  D=5 CR=0 TAPER=45DEG - ZMIN=-2.45 - CHAMFER MILL)
G90 G94 G91.1 G40 G49 G17
G21

(09 5MM CHAMFER COUNTERSUNKS)
M5
M9
T48
(4 FLUTE FISH)
S20000 M3
G54
M8
G0 X-169.573 Y168.242
G43 Z15 H26
Z5.05
G98 G81 X-169.573 Y168.242 Z-2.45 R5.05 F30
X-187.315 Y192.195
X-142.097 Y217.85
X-108.142
X-93.183 Y191.769
X-75.441 Y215.723
X-43.119 Y214.191
X-6.119
G80
Z15

M9
M30
