(PADDLE-MILLING)
(T11  D=2 CR=0 - ZMIN=-3.2 - FLAT END MILL)
G90 G94 G91.1 G40 G49 G17
G21

(2MM FLAT HOLES)
M5
M9
T11
(DIAMOND OR SPIRAL)
S20000 M3
G54
M8
G0 X51.5 Y110.98
G43 Z15 H1
Z5
G1 Z2 F100
Z0.1
G3 X50.5 Y111.02 Z-0.037 I-0.5 J0.02 F1000
X51.5 Y110.98 Z-0.175 I0.5 J-0.02
X50.5 Y111.02 Z-0.312 I-0.5 J0.02
X51.5 Y110.98 Z-0.45 I0.5 J-0.02
X50.5 Y111.02 Z-0.587 I-0.5 J0.02
X51.5 Y110.98 Z-0.725 I0.5 J-0.02
X50.5 Y111.02 Z-0.862 I-0.5 J0.02
X51.5 Y110.98 Z-0.999 I0.5 J-0.02
X50.5 Y111.02 Z-1.137 I-0.5 J0.02
X51.5 Y110.98 Z-1.274 I0.5 J-0.02
X50.5 Y111.02 Z-1.412 I-0.5 J0.02
X51.5 Y110.98 Z-1.549 I0.5 J-0.02
X50.5 Y111.02 Z-1.687 I-0.5 J0.02
X51.5 Y110.98 Z-1.824 I0.5 J-0.02
X50.5 Y111.02 Z-1.961 I-0.5 J0.02
X51.5 Y110.98 Z-2.099 I0.5 J-0.02
X50.5 Y111.02 Z-2.236 I-0.5 J0.02
X51.5 Y110.98 Z-2.374 I0.5 J-0.02
X50.5 Y111.02 Z-2.511 I-0.5 J0.02
X51.5 Y110.98 Z-2.649 I0.5 J-0.02
X50.5 Y111.02 Z-2.786 I-0.5 J0.02
X51.5 Y110.98 Z-2.923 I0.5 J-0.02
X50.5 Y111.02 Z-3.061 I-0.5 J0.02
X50.99 Y110.5 Z-3.13 I0.5 J-0.02
X51.5 Y111 Z-3.2 I0.01 J0.5
X50.5 I-0.5 J0
X51.5 I0.5 J0
G0 Z15

(2MM FLAT OUTSIDE)
M8
G0 X39.365 Y149.44
Z15
Z5
G1 Z2 F100
Z0.1
G3 X35.302 Y137 Z0.089 I96.635 J-38.439 F1000
X48.858 Y119.5 Z0.066 I13.555 J-3.5
G1 X55.172 Z0.061
G2 X57.293 Y118.621 Z0.059 I0 J-3
G1 X63.146 Y112.768 Z0.052
G2 Y109.232 Z0.048 I-1.768 J-1.768
G1 X57.293 Y103.379 Z0.041
G2 X55.172 Y102.5 Z0.039 I-2.122 J2.121
G1 X48.858 Z0.034
G3 X35.302 Y85 Z0.011 I0 J-14
X72.461 Y28.667 Z-0.048 I100.698 J26
G2 X52.91 Y3.333 Z-0.092 I-9.775 J-12.667
Y218.667 Z-0.308 I83.09 J107.667
X72.461 Y193.333 Z-0.352 I9.775 J-12.667
G3 X35.302 Y137 Z-0.411 I63.539 J-82.333
X48.858 Y119.5 Z-0.434 I13.555 J-3.5
G1 X55.172 Z-0.439
G2 X57.293 Y118.621 Z-0.441 I0 J-3
G1 X63.146 Y112.768 Z-0.448
G2 Y109.232 Z-0.452 I-1.768 J-1.768
G1 X57.293 Y103.379 Z-0.459
G2 X55.172 Y102.5 Z-0.461 I-2.122 J2.121
G1 X48.858 Z-0.466
G3 X35.302 Y85 Z-0.489 I0 J-14
X72.461 Y28.667 Z-0.548 I100.698 J26
G2 X52.91 Y3.333 Z-0.592 I-9.775 J-12.667
Y218.667 Z-0.808 I83.09 J107.667
X72.461 Y193.333 Z-0.852 I9.775 J-12.667
G3 X35.302 Y137 Z-0.911 I63.539 J-82.333
X48.858 Y119.5 Z-0.934 I13.555 J-3.5
G1 X55.172 Z-0.939
G2 X57.293 Y118.621 Z-0.941 I0 J-3
G1 X63.146 Y112.768 Z-0.948
G2 Y109.232 Z-0.952 I-1.768 J-1.768
G1 X57.293 Y103.379 Z-0.959
G2 X55.172 Y102.5 Z-0.961 I-2.122 J2.121
G1 X48.858 Z-0.966
G3 X35.302 Y85 Z-0.989 I0 J-14
X72.461 Y28.667 Z-1.048 I100.698 J26
G2 X52.91 Y3.333 Z-1.092 I-9.775 J-12.667
Y218.667 Z-1.308 I83.09 J107.667
X72.461 Y193.333 Z-1.352 I9.775 J-12.667
G3 X35.302 Y137 Z-1.411 I63.539 J-82.333
X48.858 Y119.5 Z-1.434 I13.555 J-3.5
G1 X55.172 Z-1.439
G2 X57.293 Y118.621 Z-1.441 I0 J-3
G1 X63.146 Y112.768 Z-1.448
G2 Y109.232 Z-1.452 I-1.768 J-1.768
G1 X57.293 Y103.379 Z-1.459
G2 X55.172 Y102.5 Z-1.461 I-2.122 J2.121
G1 X48.858 Z-1.466
G3 X35.302 Y85 Z-1.489 I0 J-14
X72.461 Y28.667 Z-1.548 I100.698 J26
G2 X52.91 Y3.333 Z-1.592 I-9.775 J-12.667
Y218.667 Z-1.808 I83.09 J107.667
X72.461 Y193.333 Z-1.852 I9.775 J-12.667
G3 X35.302 Y137 Z-1.911 I63.539 J-82.333
X48.858 Y119.5 Z-1.934 I13.555 J-3.5
G1 X55.172 Z-1.939
G2 X57.293 Y118.621 Z-1.941 I0 J-3
G1 X63.146 Y112.768 Z-1.948
G2 Y109.232 Z-1.952 I-1.768 J-1.768
G1 X57.293 Y103.379 Z-1.959
G2 X55.172 Y102.5 Z-1.961 I-2.122 J2.121
G1 X48.858 Z-1.966
G3 X35.302 Y85 Z-1.989 I0 J-14
X72.461 Y28.667 Z-2.048 I100.698 J26
G2 X52.91 Y3.333 Z-2.092 I-9.775 J-12.667
Y218.667 Z-2.308 I83.09 J107.667
X72.461 Y193.333 Z-2.352 I9.775 J-12.667
G3 X35.302 Y137 Z-2.411 I63.539 J-82.333
X48.858 Y119.5 Z-2.434 I13.555 J-3.5
G1 X55.172 Z-2.439
G2 X57.293 Y118.621 Z-2.441 I0 J-3
G1 X63.146 Y112.768 Z-2.448
G2 Y109.232 Z-2.452 I-1.768 J-1.768
G1 X57.293 Y103.379 Z-2.459
G2 X55.172 Y102.5 Z-2.461 I-2.122 J2.121
G1 X48.858 Z-2.466
G3 X35.302 Y85 Z-2.489 I0 J-14
X72.461 Y28.667 Z-2.548 I100.698 J26
G2 X52.91 Y3.333 Z-2.592 I-9.775 J-12.667
Y218.667 Z-2.808 I83.09 J107.667
X72.461 Y193.333 Z-2.852 I9.775 J-12.667
G3 X35.302 Y137 Z-2.911 I63.539 J-82.333
X48.858 Y119.5 Z-2.934 I13.555 J-3.5
G1 X55.172 Z-2.939
G2 X57.293 Y118.621 Z-2.941 I0 J-3
G1 X63.146 Y112.768 Z-2.948
G2 Y109.232 Z-2.952 I-1.768 J-1.768
G1 X57.293 Y103.379 Z-2.959
G2 X55.172 Y102.5 Z-2.961 I-2.122 J2.121
G1 X48.858 Z-2.966
G3 X35.302 Y85 Z-2.989 I0 J-14
X72.461 Y28.667 Z-3.048 I100.698 J26
G2 X52.91 Y3.333 Z-3.092 I-9.775 J-12.667
X0 Y111 Z-3.2 I83.09 J107.667
X52.91 Y218.667 I136 J0
X72.461 Y193.333 I9.775 J-12.667
G3 X35.302 Y137 I63.539 J-82.333
X48.858 Y119.5 I13.555 J-3.5
G1 X55.172
G2 X57.293 Y118.621 I0 J-3
G1 X63.146 Y112.768
G2 Y109.232 I-1.768 J-1.768
G1 X57.293 Y103.379
G2 X55.172 Y102.5 I-2.122 J2.121
G1 X48.858
G3 X35.302 Y85 I0 J-14
X72.461 Y28.667 I100.698 J26
G2 X52.91 Y3.333 I-9.775 J-12.667
X0 Y111 I83.09 J107.667
G0 Z15

M9
M30
