(PADDLE-MILLING)
(T33  D=6 CR=0 TAPER=45DEG - ZMIN=-1 - CHAMFER MILL)
G90 G94 G91.1 G40 G49 G17
G21

(6MM CHAMFER)
M5
M9
T33
(4 FLUTE FISH)
S20000 M3
G54
M8
G0 X-0.8 Y110.4
G43 Z15 H26
Z5
G1 Z2 F30
Z1.1
X-0.793 Z1.006
X-0.771 Z0.915
X-0.735 Z0.828
X-0.685 Z0.747
X-0.624 Z0.676
X-0.553 Z0.615
X-0.472 Z0.565
X-0.385 Z0.529
X-0.294 Z0.507
X-0.2 Z0.5
X0.4 F120
G3 X1 Y111 I0 J0.6
G2 X53.521 Y217.875 Z0.392 I135 J0 F240
X71.85 Y194.125 Z0.35 I9.164 J-11.875
G3 X34.334 Y137.25 Z0.289 I64.15 J-83.125
X48.858 Y118.5 Z0.265 I14.524 J-3.75
G1 X55.172 Z0.26
G2 X56.586 Y117.914 Z0.258 I0 J-2
G1 X62.439 Y112.061 Z0.251
G2 Y109.939 Z0.249 I-1.061 J-1.061
G1 X56.586 Y104.086 Z0.242
G2 X55.172 Y103.5 Z0.24 I-1.414 J1.414
G1 X48.858 Z0.235
G3 X34.334 Y84.75 Z0.211 I0 J-15
X71.85 Y27.875 Z0.15 I101.666 J26.25
G2 X53.521 Y4.125 Z0.108 I-9.164 J-11.875
Y217.875 Z-0.108 I82.479 J106.875
X71.85 Y194.125 Z-0.15 I9.164 J-11.875
G3 X34.334 Y137.25 Z-0.211 I64.15 J-83.125
X48.858 Y118.5 Z-0.235 I14.524 J-3.75
G1 X55.172 Z-0.24
G2 X56.586 Y117.914 Z-0.242 I0 J-2
G1 X62.439 Y112.061 Z-0.249
G2 Y109.939 Z-0.251 I-1.061 J-1.061
G1 X56.586 Y104.086 Z-0.258
G2 X55.172 Y103.5 Z-0.26 I-1.414 J1.414
G1 X48.858 Z-0.265
G3 X34.334 Y84.75 Z-0.289 I0 J-15
X71.85 Y27.875 Z-0.35 I101.666 J26.25
G2 X53.521 Y4.125 Z-0.392 I-9.164 J-11.875
Y217.875 Z-0.608 I82.479 J106.875
X71.85 Y194.125 Z-0.65 I9.164 J-11.875
G3 X34.334 Y137.25 Z-0.711 I64.15 J-83.125
X48.858 Y118.5 Z-0.735 I14.524 J-3.75
G1 X55.172 Z-0.74
G2 X56.586 Y117.914 Z-0.742 I0 J-2
G1 X62.439 Y112.061 Z-0.749
G2 Y109.939 Z-0.751 I-1.061 J-1.061
G1 X56.586 Y104.086 Z-0.758
G2 X55.172 Y103.5 Z-0.76 I-1.414 J1.414
G1 X48.858 Z-0.765
G3 X34.334 Y84.75 Z-0.789 I0 J-15
X71.85 Y27.875 Z-0.85 I101.666 J26.25
G2 X53.521 Y4.125 Z-0.892 I-9.164 J-11.875
X1 Y111 Z-1 I82.479 J106.875
X53.521 Y217.875 I135 J0
X71.85 Y194.125 I9.164 J-11.875
G3 X34.334 Y137.25 I64.15 J-83.125
X48.858 Y118.5 I14.524 J-3.75
G1 X55.172
G2 X56.586 Y117.914 I0 J-2
G1 X62.439 Y112.061
G2 Y109.939 I-1.061 J-1.061
G1 X56.586 Y104.086
G2 X55.172 Y103.5 I-1.414 J1.414
G1 X48.858
G3 X34.334 Y84.75 I0 J-15
X71.85 Y27.875 I101.666 J26.25
G2 X53.521 Y4.125 I-9.164 J-11.875
X1 Y111 I82.479 J106.875
G3 X0.4 Y111.6 I-0.6 J0 F480
G1 X-0.2
X-0.294 Z-0.993
X-0.385 Z-0.971
X-0.472 Z-0.935
X-0.553 Z-0.885
X-0.624 Z-0.824
X-0.685 Z-0.753
X-0.735 Z-0.672
X-0.771 Z-0.585
X-0.793 Z-0.494
X-0.8 Z-0.4
G0 Z15

M9
M30
