(01 MILL 2MM)
(T20  D=2 CR=0 - ZMIN=-3.3 - FLAT END MILL)
G90 G94 G91.1 G40 G49 G17
G21

(OUTER CONTOUR)
M5
M9
T20
(2 FLUTE FISH)
S10000 M3
G54
M8
G0 X-3.083 Y2.4
G43 Z15 H1
Z5
G1 Z2 F240
Z-0.35
Y2.407 Z-0.402
Y2.427 Z-0.45
Y2.459 Z-0.491
Y2.5 Z-0.523
Y2.548 Z-0.543
Y2.6 Z-0.55
Y2.8
G3 X-3.283 Y3 I-0.2 J0
G1 X-50.458 F1000
G3 X-51.421 Y2.273 I0 J-1
G2 X-60.079 I-4.329 J1.227
G3 X-61.041 Y3 I-0.962 J-0.273
G1 X-109.5
G2 X-112.5 Y6 I0 J3
G1 Y15.5
G2 X-109.5 Y18.5 I3 J0
G1 X-81.15
G3 X-80.15 Y19.5 I0 J1
G2 X-75.65 Y24 I4.5 J0
G3 X-74.65 Y25 I0 J1
G1 Y55.5
G2 X-71.65 Y58.5 I3 J0
G1 X-39.85
G2 X-36.85 Y55.5 I0 J-3
G1 Y25
G3 X-35.85 Y24 I1 J0
G2 X-31.35 Y19.5 I0 J-4.5
G3 X-30.35 Y18.5 I1 J0
G1 X-2
G2 X1 Y15.5 I0 J-3
G1 Y6
G2 X-2 Y3 I-3 J0
G1 X-3.283
G3 X-3.483 Y2.8 I0 J-0.2 F840
G1 Y2.6
Y2.548 Z-0.543
Y2.5 Z-0.523
Y2.459 Z-0.491
Y2.427 Z-0.45
Y2.407 Z-0.402
Y2.4 Z-0.35
X-3.083 F1000
Z-0.9 F240
Y2.407 Z-0.952
Y2.427 Z-1
Y2.459 Z-1.041
Y2.5 Z-1.073
Y2.548 Z-1.093
Y2.6 Z-1.1
Y2.8
G3 X-3.283 Y3 I-0.2 J0
G1 X-50.458 F1000
G3 X-51.421 Y2.273 I0 J-1
G2 X-60.079 I-4.329 J1.227
G3 X-61.041 Y3 I-0.962 J-0.273
G1 X-109.5
G2 X-112.5 Y6 I0 J3
G1 Y15.5
G2 X-109.5 Y18.5 I3 J0
G1 X-81.15
G3 X-80.15 Y19.5 I0 J1
G2 X-75.65 Y24 I4.5 J0
G3 X-74.65 Y25 I0 J1
G1 Y55.5
G2 X-71.65 Y58.5 I3 J0
G1 X-39.85
G2 X-36.85 Y55.5 I0 J-3
G1 Y25
G3 X-35.85 Y24 I1 J0
G2 X-31.35 Y19.5 I0 J-4.5
G3 X-30.35 Y18.5 I1 J0
G1 X-2
G2 X1 Y15.5 I0 J-3
G1 Y6
G2 X-2 Y3 I-3 J0
G1 X-3.283
G3 X-3.483 Y2.8 I0 J-0.2 F840
G1 Y2.6
Y2.548 Z-1.093
Y2.5 Z-1.073
Y2.459 Z-1.041
Y2.427 Z-1
Y2.407 Z-0.952
Y2.4 Z-0.9
X-3.083 F1000
Z-1.45 F240
Y2.407 Z-1.502
Y2.427 Z-1.55
Y2.459 Z-1.591
Y2.5 Z-1.623
Y2.548 Z-1.643
Y2.6 Z-1.65
Y2.8
G3 X-3.283 Y3 I-0.2 J0
G1 X-50.458 F1000
G3 X-51.421 Y2.273 I0 J-1
G2 X-60.079 I-4.329 J1.227
G3 X-61.041 Y3 I-0.962 J-0.273
G1 X-109.5
G2 X-112.5 Y6 I0 J3
G1 Y15.5
G2 X-109.5 Y18.5 I3 J0
G1 X-81.15
G3 X-80.15 Y19.5 I0 J1
G2 X-75.65 Y24 I4.5 J0
G3 X-74.65 Y25 I0 J1
G1 Y55.5
G2 X-71.65 Y58.5 I3 J0
G1 X-39.85
G2 X-36.85 Y55.5 I0 J-3
G1 Y25
G3 X-35.85 Y24 I1 J0
G2 X-31.35 Y19.5 I0 J-4.5
G3 X-30.35 Y18.5 I1 J0
G1 X-2
G2 X1 Y15.5 I0 J-3
G1 Y6
G2 X-2 Y3 I-3 J0
G1 X-3.283
G3 X-3.483 Y2.8 I0 J-0.2 F840
G1 Y2.6
Y2.548 Z-1.643
Y2.5 Z-1.623
Y2.459 Z-1.591
Y2.427 Z-1.55
Y2.407 Z-1.502
Y2.4 Z-1.45
X-3.083 F1000
Z-2 F240
Y2.407 Z-2.052
Y2.427 Z-2.1
Y2.459 Z-2.141
Y2.5 Z-2.173
Y2.548 Z-2.193
Y2.6 Z-2.2
Y2.8
G3 X-3.283 Y3 I-0.2 J0
G1 X-50.458 F1000
G3 X-51.421 Y2.273 I0 J-1
G2 X-60.079 I-4.329 J1.227
G3 X-61.041 Y3 I-0.962 J-0.273
G1 X-109.5
G2 X-112.5 Y6 I0 J3
G1 Y15.5
G2 X-109.5 Y18.5 I3 J0
G1 X-81.15
G3 X-80.15 Y19.5 I0 J1
G2 X-75.65 Y24 I4.5 J0
G3 X-74.65 Y25 I0 J1
G1 Y55.5
G2 X-71.65 Y58.5 I3 J0
G1 X-39.85
G2 X-36.85 Y55.5 I0 J-3
G1 Y25
G3 X-35.85 Y24 I1 J0
G2 X-31.35 Y19.5 I0 J-4.5
G3 X-30.35 Y18.5 I1 J0
G1 X-2
G2 X1 Y15.5 I0 J-3
G1 Y6
G2 X-2 Y3 I-3 J0
G1 X-3.283
G3 X-3.483 Y2.8 I0 J-0.2 F840
G1 Y2.6
Y2.548 Z-2.193
Y2.5 Z-2.173
Y2.459 Z-2.141
Y2.427 Z-2.1
Y2.407 Z-2.052
Y2.4 Z-2
X-3.083 F1000
Z-2.55 F240
Y2.407 Z-2.602
Y2.427 Z-2.65
Y2.459 Z-2.691
Y2.5 Z-2.723
Y2.548 Z-2.743
Y2.6 Z-2.75
Y2.8
G3 X-3.283 Y3 I-0.2 J0
G1 X-50.458 F1000
G3 X-51.421 Y2.273 I0 J-1
G2 X-60.079 I-4.329 J1.227
G3 X-61.041 Y3 I-0.962 J-0.273
G1 X-109.5
G2 X-112.5 Y6 I0 J3
G1 Y15.5
G2 X-109.5 Y18.5 I3 J0
G1 X-81.15
G3 X-80.15 Y19.5 I0 J1
G2 X-75.65 Y24 I4.5 J0
G3 X-74.65 Y25 I0 J1
G1 Y55.5
G2 X-71.65 Y58.5 I3 J0
G1 X-39.85
G2 X-36.85 Y55.5 I0 J-3
G1 Y25
G3 X-35.85 Y24 I1 J0
G2 X-31.35 Y19.5 I0 J-4.5
G3 X-30.35 Y18.5 I1 J0
G1 X-2
G2 X1 Y15.5 I0 J-3
G1 Y6
G2 X-2 Y3 I-3 J0
G1 X-3.283
G3 X-3.483 Y2.8 I0 J-0.2 F840
G1 Y2.6
Y2.548 Z-2.743
Y2.5 Z-2.723
Y2.459 Z-2.691
Y2.427 Z-2.65
Y2.407 Z-2.602
Y2.4 Z-2.55
X-3.083 F1000
Z-3.1 F240
Y2.407 Z-3.152
Y2.427 Z-3.2
Y2.459 Z-3.241
Y2.5 Z-3.273
Y2.548 Z-3.293
Y2.6 Z-3.3
Y2.8
G3 X-3.283 Y3 I-0.2 J0
G1 X-50.458 F1000
G3 X-51.421 Y2.273 I0 J-1
G2 X-60.079 I-4.329 J1.227
G3 X-61.041 Y3 I-0.962 J-0.273
G1 X-109.5
G2 X-112.5 Y6 I0 J3
G1 Y15.5
G2 X-109.5 Y18.5 I3 J0
G1 X-81.15
G3 X-80.15 Y19.5 I0 J1
G2 X-75.65 Y24 I4.5 J0
G3 X-74.65 Y25 I0 J1
G1 Y55.5
G2 X-71.65 Y58.5 I3 J0
G1 X-39.85
G2 X-36.85 Y55.5 I0 J-3
G1 Y25
G3 X-35.85 Y24 I1 J0
G2 X-31.35 Y19.5 I0 J-4.5
G3 X-30.35 Y18.5 I1 J0
G1 X-2
G2 X1 Y15.5 I0 J-3
G1 Y6
G2 X-2 Y3 I-3 J0
G1 X-3.283
G3 X-3.483 Y2.8 I0 J-0.2 F840
G1 Y2.6
Y2.548 Z-3.293
Y2.5 Z-3.273
Y2.459 Z-3.241
Y2.427 Z-3.2
Y2.407 Z-3.152
Y2.4 Z-3.1
G0 Z15

(DRILL HOLES)
M8
G0 X-75.65 Y19.5
Z15
Z5
G98 G73 X-75.65 Y19.5 Z-3.3 R1 Q0.5 F120
X-35.85
G80
Z15

M9
M30
