(02 CHAMFER 4MM)
(T49  D=4 CR=0 TAPER=45DEG - ZMIN=-2.2 - CHAMFER MILL)
G90 G94 G91.1 G40 G49 G17
G21

(CHAMFERS)
M5
M9
T49
(4 FLUTE FISH)
S14000 M3
G54
M8
G0 X-75.65 Y19.5
G43 Z15 H26
Z5
Z1
G1 Z-0.5 F60
G0 Z-0.4
G1 Z-1 F60
G0 Z-0.9
G1 Z-1.5 F60
G0 Z-1.4
G1 Z-2 F60
G0 Z-1.9
G1 Z-2.2 F60
G4 P1
G0 Z5
X-35.85
Z1
G1 Z-0.5 F60
G0 Z-0.4
G1 Z-1 F60
G0 Z-0.9
G1 Z-1.5 F60
G0 Z-1.4
G1 Z-2 F60
G0 Z-1.9
G1 Z-2.2 F60
G4 P1
G0 Z5
Z15

M9
M30
