(ADAPTIVE1)
(T56  D=2 CR=0 - ZMIN=-4.25 - FLAT END MILL)
G90 G94 G91.1 G40 G49 G17
G21

(ADAPTIVE1)
M5
M9
T56
(1 FLUTE FISH)
S20000 M3
G54
M8
G0 X17.563 Y42.43
G43 Z15 H1
Z5
Z0.702
G1 Z0.502 F600
G3 X17.937 Y40.567 Z0.45 I0.187 J-0.931
X17.563 Y42.43 Z0.398 I-0.187 J0.931
X17.937 Y40.567 Z0.346 I0.187 J-0.931
X17.563 Y42.43 Z0.294 I-0.187 J0.931
X17.937 Y40.567 Z0.242 I0.187 J-0.931
X17.563 Y42.43 Z0.189 I-0.187 J0.931
X17.937 Y40.567 Z0.137 I0.187 J-0.931
X17.563 Y42.43 Z0.085 I-0.187 J0.931
X17.937 Y40.567 Z0.033 I0.187 J-0.931
X17.563 Y42.43 Z-0.019 I-0.187 J0.931
X17.937 Y40.567 Z-0.071 I0.187 J-0.931
X17.563 Y42.43 Z-0.123 I-0.187 J0.931
X17.937 Y40.567 Z-0.175 I0.187 J-0.931
X18.7 Y41.498 Z-0.198 I-0.187 J0.931
X16.8 I-0.95 J0
X18.7 I0.95 J0
G1 X18.725 Y41.98
X18.746 Y42.098
X18.737 Y42.233
X18.698 Y42.362
X18.637 Y42.482
X18.557 Y42.591
X18.463 Y42.688
X18.356 Y42.771
X18.24 Y42.84
X18.117 Y42.895
X17.988 Y42.935
X17.856 Y42.962
X17.721 Y42.975
X17.586 Y42.974
X17.452 Y42.959
X17.32 Y42.931
X17.191 Y42.891
X17.067 Y42.839
X16.948 Y42.775
X16.835 Y42.7
X16.73 Y42.615
X16.633 Y42.521
X16.546 Y42.419
X16.467 Y42.309
X16.399 Y42.192
X16.342 Y42.07
X16.296 Y41.943
X16.262 Y41.813
X16.239 Y41.679
X16.229 Y41.545
X16.23 Y41.41
X16.244 Y41.276
X16.269 Y41.143
X16.306 Y41.013
X16.354 Y40.887
X16.414 Y40.766
X16.484 Y40.65
X16.564 Y40.542
X16.653 Y40.44
X16.751 Y40.347
X16.856 Y40.263
X16.969 Y40.189
X17.088 Y40.125
X17.212 Y40.072
X17.34 Y40.03
X17.472 Y39.999
X17.606 Y39.98
X17.74 Y39.974
X17.875 Y39.979
X18.009 Y39.996
X18.141 Y40.025
X18.27 Y40.065
X18.395 Y40.116
X18.514 Y40.179
X18.628 Y40.252
X18.735 Y40.334
X18.834 Y40.426
X18.925 Y40.526
X19.006 Y40.634
X19.078 Y40.748
X19.152 Y40.893
X19.249 Y41.126
X19.318 Y41.338
X19.363 Y41.528
X19.387 Y41.684
X19.398 Y41.834
X19.397 Y41.978
X19.385 Y42.112
X19.361 Y42.249
X19.328 Y42.38
X19.283 Y42.507
X19.228 Y42.63
X19.164 Y42.749
X19.089 Y42.861
X19.006 Y42.968
X18.914 Y43.067
X18.812 Y43.16
X18.701 Y43.247
X18.585 Y43.323
X18.462 Y43.391
X18.328 Y43.451
X18.188 Y43.501
X18.046 Y43.538
X17.9 Y43.565
X17.747 Y43.58
X17.591 Y43.583
X17.434 Y43.574
X17.279 Y43.552
X17.126 Y43.517
X16.973 Y43.469
X16.821 Y43.409
X16.674 Y43.335
X16.532 Y43.25
X16.398 Y43.153
X16.273 Y43.047
X16.155 Y42.929
X16.046 Y42.802
X15.947 Y42.665
X15.859 Y42.519
X15.782 Y42.367
X15.718 Y42.208
X15.667 Y42.045
X15.629 Y41.879
X15.604 Y41.711
X15.593 Y41.54
X15.596 Y41.369
X15.613 Y41.197
X15.643 Y41.027
X15.688 Y40.859
X15.745 Y40.695
X15.816 Y40.537
X15.899 Y40.385
X15.993 Y40.241
X16.098 Y40.105
X16.214 Y39.978
X16.341 Y39.86
X16.476 Y39.752
X16.621 Y39.655
X16.773 Y39.57
X16.932 Y39.498
X17.096 Y39.438
X17.263 Y39.392
X17.433 Y39.359
X17.605 Y39.341
X17.777 Y39.336
X17.95 Y39.345
X18.122 Y39.368
X18.292 Y39.405
X18.458 Y39.455
X18.621 Y39.519
X18.778 Y39.596
X18.928 Y39.685
X19.07 Y39.785
X19.205 Y39.898
X19.334 Y40.025
X19.469 Y40.181
X19.6 Y40.358
X19.718 Y40.549
X19.821 Y40.75
X19.906 Y40.954
X19.972 Y41.159
X20.02 Y41.363
X20.052 Y41.567
X20.066 Y41.768
X20.064 Y41.965
X20.047 Y42.159
X20.015 Y42.349
X19.968 Y42.533
X19.906 Y42.713
X19.831 Y42.886
X19.742 Y43.053
X19.639 Y43.212
X19.524 Y43.363
X19.397 Y43.505
X19.257 Y43.638
X19.106 Y43.759
X18.945 Y43.869
X18.775 Y43.967
X18.595 Y44.051
X18.407 Y44.121
X18.212 Y44.176
X18.013 Y44.216
X17.809 Y44.24
X17.602 Y44.247
X17.394 Y44.238
X17.185 Y44.211
X16.978 Y44.168
X16.773 Y44.108
X16.573 Y44.031
X16.378 Y43.938
X16.191 Y43.83
X16.012 Y43.705
X15.843 Y43.566
X15.684 Y43.413
X15.538 Y43.247
X15.405 Y43.069
X15.286 Y42.881
X15.182 Y42.683
X15.095 Y42.477
X15.024 Y42.264
X14.971 Y42.046
X14.935 Y41.824
X14.917 Y41.599
Y41.373
X14.935 Y41.147
X14.971 Y40.923
X15.026 Y40.702
X15.097 Y40.486
X15.186 Y40.278
X15.291 Y40.077
X15.412 Y39.885
X15.549 Y39.703
X15.699 Y39.532
X15.863 Y39.374
X16.04 Y39.229
X16.227 Y39.099
X16.425 Y38.984
X16.631 Y38.886
X16.844 Y38.804
X17.062 Y38.74
X17.285 Y38.694
X17.511 Y38.666
X17.739 Y38.656
X17.967 Y38.664
X18.194 Y38.691
X18.418 Y38.735
X18.638 Y38.798
X18.852 Y38.878
X19.06 Y38.975
X19.26 Y39.09
X19.457 Y39.224
X19.649 Y39.379
X19.834 Y39.555
X20.009 Y39.749
X20.17 Y39.96
X20.314 Y40.185
X20.439 Y40.42
X20.545 Y40.664
X20.63 Y40.913
X20.695 Y41.167
X20.738 Y41.422
X20.761 Y41.677
X20.763 Y41.931
X20.745 Y42.182
X20.707 Y42.429
X20.649 Y42.671
X20.573 Y42.907
X20.478 Y43.135
X20.365 Y43.355
X20.235 Y43.565
X20.088 Y43.764
X19.925 Y43.952
X19.747 Y44.127
X19.555 Y44.287
X19.349 Y44.432
X19.131 Y44.561
X18.902 Y44.673
X18.664 Y44.766
X18.417 Y44.841
X18.163 Y44.896
X17.905 Y44.93
X17.642 Y44.944
X17.378 Y44.937
X17.114 Y44.908
X16.851 Y44.858
X16.592 Y44.786
X16.338 Y44.694
X16.092 Y44.581
X15.854 Y44.448
X15.626 Y44.295
X15.411 Y44.124
X15.209 Y43.935
X15.022 Y43.731
X14.852 Y43.511
X14.699 Y43.278
X14.566 Y43.032
X14.452 Y42.776
X14.359 Y42.512
X14.288 Y42.24
X14.238 Y41.962
X14.211 Y41.681
X14.206 Y41.399
X14.225 Y41.116
X14.265 Y40.836
X14.329 Y40.559
X14.414 Y40.289
X14.52 Y40.026
X14.648 Y39.772
X14.796 Y39.529
X14.962 Y39.299
X15.147 Y39.083
X15.349 Y38.882
X15.566 Y38.697
X15.798 Y38.531
X16.042 Y38.384
X16.297 Y38.257
X16.561 Y38.151
X16.834 Y38.066
X17.112 Y38.003
X17.394 Y37.963
X17.679 Y37.946
X17.964 Y37.952
X18.248 Y37.98
X18.529 Y38.032
X18.805 Y38.105
X19.076 Y38.202
X19.341 Y38.32
X19.599 Y38.462
X19.849 Y38.626
X20.089 Y38.814
X20.318 Y39.024
X20.532 Y39.255
X20.729 Y39.505
X20.906 Y39.772
X21.062 Y40.052
X21.194 Y40.343
X21.302 Y40.643
X21.386 Y40.95
X21.444 Y41.26
X21.476 Y41.572
X21.484 Y41.884
X21.467 Y42.193
X21.425 Y42.499
X21.359 Y42.8
X21.269 Y43.093
X21.156 Y43.377
X21.021 Y43.652
X20.864 Y43.914
X20.715 Y44.118
X20.416 Y44.437
X19.979 Y44.772
X19.65 Y44.971
X19.212 Y45.175
X18.884 Y45.288
X18.446 Y45.4
X18.118 Y45.443
X17.68 Y45.452
X17.352 Y45.437
X16.914 Y45.371
X16.546 Y45.267
X16.148 Y45.117
X15.796 Y44.939
X15.381 Y44.671
X15.162 Y44.501
X14.939 Y44.282
X14.645 Y43.953
X14.396 Y43.621
X14.126 Y43.077
X13.959 Y42.682
X13.849 Y42.143
X13.779 Y41.654
X13.825 Y40.997
X13.881 Y40.587
X14.128 Y39.902
X14.27 Y39.574
X14.725 Y38.942
X14.874 Y38.749
X15.491 Y38.245
X15.71 Y38.079
X16.695 Y37.656
X17.762 Y37.512
X18.802 Y37.655
X19.76 Y38.063
X19.886 Y38.151
X20.603 Y38.726
X20.921 Y39.136
X21.246 Y39.601
X21.412 Y40.012
X21.62 Y40.591
X21.686 Y41.107
X21.721 Y41.654
X21.642 Y42.202
X21.538 Y42.694
X21.374 Y43.077
X21.102 Y43.625
X20.766 Y44.063
X20.715 Y44.118
X20.69 Y44.134 Z-0.192
X20.669 Y44.148 Z-0.175
X20.655 Y44.158 Z-0.149
X20.65 Y44.161 Z-0.119
G0 Z5
X17.453 Y42.401
Z0.502
G1 Z0.302 F600
G3 X18.048 Y40.596 Z0.25 I0.297 J-0.902
X17.453 Y42.401 Z0.198 I-0.297 J0.902
X18.048 Y40.596 Z0.146 I0.297 J-0.902
X17.453 Y42.401 Z0.094 I-0.297 J0.902
X18.048 Y40.596 Z0.042 I0.297 J-0.902
X17.453 Y42.401 Z-0.011 I-0.297 J0.902
X18.048 Y40.596 Z-0.063 I0.297 J-0.902
X17.453 Y42.401 Z-0.115 I-0.297 J0.902
X18.048 Y40.596 Z-0.167 I0.297 J-0.902
X17.453 Y42.401 Z-0.219 I-0.297 J0.902
X18.048 Y40.596 Z-0.271 I0.297 J-0.902
X17.453 Y42.401 Z-0.323 I-0.297 J0.902
X18.048 Y40.596 Z-0.375 I0.297 J-0.902
X18.7 Y41.498 Z-0.396 I-0.297 J0.902
X16.8 I-0.95 J0
X18.7 I0.95 J0
G1 X18.725 Y41.98
X18.746 Y42.098
X18.737 Y42.233
X18.698 Y42.362
X18.637 Y42.482
X18.557 Y42.591
X18.463 Y42.688
X18.356 Y42.771
X18.24 Y42.84
X18.117 Y42.895
X17.988 Y42.935
X17.856 Y42.962
X17.721 Y42.975
X17.586 Y42.974
X17.452 Y42.959
X17.32 Y42.931
X17.191 Y42.891
X17.067 Y42.839
X16.948 Y42.775
X16.835 Y42.7
X16.73 Y42.615
X16.633 Y42.521
X16.546 Y42.419
X16.467 Y42.309
X16.399 Y42.192
X16.342 Y42.07
X16.296 Y41.943
X16.262 Y41.813
X16.239 Y41.679
X16.229 Y41.545
X16.23 Y41.41
X16.244 Y41.276
X16.269 Y41.143
X16.306 Y41.013
X16.354 Y40.887
X16.414 Y40.766
X16.484 Y40.65
X16.564 Y40.542
X16.653 Y40.44
X16.751 Y40.347
X16.856 Y40.263
X16.969 Y40.189
X17.088 Y40.125
X17.212 Y40.072
X17.34 Y40.03
X17.472 Y39.999
X17.606 Y39.98
X17.74 Y39.974
X17.875 Y39.979
X18.009 Y39.996
X18.141 Y40.025
X18.27 Y40.065
X18.395 Y40.116
X18.514 Y40.179
X18.628 Y40.252
X18.735 Y40.334
X18.834 Y40.426
X18.925 Y40.526
X19.006 Y40.634
X19.078 Y40.748
X19.152 Y40.893
X19.249 Y41.126
X19.318 Y41.338
X19.363 Y41.528
X19.387 Y41.684
X19.398 Y41.834
X19.397 Y41.978
X19.385 Y42.112
X19.361 Y42.249
X19.328 Y42.38
X19.283 Y42.507
X19.228 Y42.63
X19.164 Y42.749
X19.089 Y42.861
X19.006 Y42.968
X18.914 Y43.067
X18.812 Y43.16
X18.701 Y43.247
X18.585 Y43.323
X18.462 Y43.391
X18.328 Y43.451
X18.188 Y43.501
X18.046 Y43.538
X17.9 Y43.565
X17.747 Y43.58
X17.591 Y43.583
X17.434 Y43.574
X17.279 Y43.552
X17.126 Y43.517
X16.973 Y43.469
X16.821 Y43.409
X16.674 Y43.335
X16.532 Y43.25
X16.398 Y43.153
X16.273 Y43.047
X16.155 Y42.929
X16.046 Y42.802
X15.947 Y42.665
X15.859 Y42.519
X15.782 Y42.367
X15.718 Y42.208
X15.667 Y42.045
X15.629 Y41.879
X15.604 Y41.711
X15.593 Y41.54
X15.596 Y41.369
X15.613 Y41.197
X15.643 Y41.027
X15.688 Y40.859
X15.745 Y40.695
X15.816 Y40.537
X15.899 Y40.385
X15.993 Y40.241
X16.098 Y40.105
X16.214 Y39.978
X16.341 Y39.86
X16.476 Y39.752
X16.621 Y39.655
X16.773 Y39.57
X16.932 Y39.498
X17.096 Y39.438
X17.263 Y39.392
X17.433 Y39.359
X17.605 Y39.341
X17.777 Y39.336
X17.95 Y39.345
X18.122 Y39.368
X18.292 Y39.405
X18.458 Y39.455
X18.621 Y39.519
X18.778 Y39.596
X18.928 Y39.685
X19.07 Y39.785
X19.205 Y39.898
X19.334 Y40.025
X19.469 Y40.181
X19.6 Y40.358
X19.718 Y40.549
X19.821 Y40.75
X19.906 Y40.954
X19.972 Y41.159
X20.02 Y41.363
X20.052 Y41.567
X20.066 Y41.768
X20.064 Y41.965
X20.047 Y42.159
X20.015 Y42.349
X19.968 Y42.533
X19.906 Y42.713
X19.831 Y42.886
X19.742 Y43.053
X19.639 Y43.212
X19.524 Y43.363
X19.397 Y43.505
X19.257 Y43.638
X19.106 Y43.759
X18.945 Y43.869
X18.775 Y43.967
X18.595 Y44.051
X18.407 Y44.121
X18.212 Y44.176
X18.013 Y44.216
X17.809 Y44.24
X17.602 Y44.247
X17.394 Y44.238
X17.185 Y44.211
X16.978 Y44.168
X16.773 Y44.108
X16.573 Y44.031
X16.378 Y43.938
X16.191 Y43.83
X16.012 Y43.705
X15.843 Y43.566
X15.684 Y43.413
X15.538 Y43.247
X15.405 Y43.069
X15.286 Y42.881
X15.182 Y42.683
X15.095 Y42.477
X15.024 Y42.264
X14.971 Y42.046
X14.935 Y41.824
X14.917 Y41.599
Y41.373
X14.935 Y41.147
X14.971 Y40.923
X15.026 Y40.702
X15.097 Y40.486
X15.186 Y40.278
X15.291 Y40.077
X15.412 Y39.885
X15.549 Y39.703
X15.699 Y39.532
X15.863 Y39.374
X16.04 Y39.229
X16.227 Y39.099
X16.425 Y38.984
X16.631 Y38.886
X16.844 Y38.804
X17.062 Y38.74
X17.285 Y38.694
X17.511 Y38.666
X17.739 Y38.656
X17.967 Y38.664
X18.194 Y38.691
X18.418 Y38.735
X18.638 Y38.798
X18.852 Y38.878
X19.06 Y38.975
X19.26 Y39.09
X19.457 Y39.224
X19.649 Y39.379
X19.834 Y39.555
X20.009 Y39.749
X20.17 Y39.96
X20.314 Y40.185
X20.439 Y40.42
X20.545 Y40.664
X20.63 Y40.913
X20.695 Y41.167
X20.738 Y41.422
X20.761 Y41.677
X20.763 Y41.931
X20.745 Y42.182
X20.707 Y42.429
X20.649 Y42.671
X20.573 Y42.907
X20.478 Y43.135
X20.365 Y43.355
X20.235 Y43.565
X20.088 Y43.764
X19.925 Y43.952
X19.747 Y44.127
X19.555 Y44.287
X19.349 Y44.432
X19.131 Y44.561
X18.902 Y44.673
X18.664 Y44.766
X18.417 Y44.841
X18.163 Y44.896
X17.905 Y44.93
X17.642 Y44.944
X17.378 Y44.937
X17.114 Y44.908
X16.851 Y44.858
X16.592 Y44.786
X16.338 Y44.694
X16.092 Y44.581
X15.854 Y44.448
X15.626 Y44.295
X15.411 Y44.124
X15.209 Y43.935
X15.022 Y43.731
X14.852 Y43.511
X14.699 Y43.278
X14.566 Y43.032
X14.452 Y42.776
X14.359 Y42.512
X14.288 Y42.24
X14.238 Y41.962
X14.211 Y41.681
X14.206 Y41.399
X14.225 Y41.116
X14.265 Y40.836
X14.329 Y40.559
X14.414 Y40.289
X14.52 Y40.026
X14.648 Y39.772
X14.796 Y39.529
X14.962 Y39.299
X15.147 Y39.083
X15.349 Y38.882
X15.566 Y38.697
X15.798 Y38.531
X16.042 Y38.384
X16.297 Y38.257
X16.561 Y38.151
X16.834 Y38.066
X17.112 Y38.003
X17.394 Y37.963
X17.679 Y37.946
X17.964 Y37.952
X18.248 Y37.98
X18.529 Y38.032
X18.805 Y38.105
X19.076 Y38.202
X19.341 Y38.32
X19.599 Y38.462
X19.849 Y38.626
X20.089 Y38.814
X20.318 Y39.024
X20.532 Y39.255
X20.729 Y39.505
X20.906 Y39.772
X21.062 Y40.052
X21.194 Y40.343
X21.302 Y40.643
X21.386 Y40.95
X21.444 Y41.26
X21.476 Y41.572
X21.484 Y41.884
X21.467 Y42.193
X21.425 Y42.499
X21.359 Y42.8
X21.269 Y43.093
X21.156 Y43.377
X21.021 Y43.652
X20.864 Y43.914
X20.715 Y44.118
X20.416 Y44.437
X19.979 Y44.772
X19.65 Y44.971
X19.212 Y45.175
X18.884 Y45.288
X18.446 Y45.4
X18.118 Y45.443
X17.68 Y45.452
X17.352 Y45.437
X16.914 Y45.371
X16.546 Y45.267
X16.148 Y45.117
X15.796 Y44.939
X15.381 Y44.671
X15.162 Y44.501
X14.939 Y44.282
X14.645 Y43.953
X14.396 Y43.621
X14.126 Y43.077
X13.959 Y42.682
X13.849 Y42.143
X13.779 Y41.654
X13.825 Y40.997
X13.881 Y40.587
X14.128 Y39.902
X14.27 Y39.574
X14.725 Y38.942
X14.874 Y38.749
X15.491 Y38.245
X15.71 Y38.079
X16.695 Y37.656
X17.762 Y37.512
X18.802 Y37.655
X19.76 Y38.063
X19.886 Y38.151
X20.603 Y38.726
X20.921 Y39.136
X21.246 Y39.601
X21.412 Y40.012
X21.62 Y40.591
X21.686 Y41.107
X21.721 Y41.654
X21.642 Y42.202
X21.538 Y42.694
X21.374 Y43.077
X21.102 Y43.625
X20.766 Y44.063
X20.715 Y44.118
X20.69 Y44.134 Z-0.39
X20.669 Y44.148 Z-0.373
X20.655 Y44.158 Z-0.347
X20.65 Y44.161 Z-0.317
G0 Z5
X17.453 Y42.402
Z0.304
G1 Z0.104 F600
G3 X18.048 Y40.597 Z0.052 I0.297 J-0.902
X17.453 Y42.402 Z0 I-0.297 J0.902
X18.048 Y40.597 Z-0.052 I0.297 J-0.902
X17.453 Y42.402 Z-0.104 I-0.297 J0.902
X18.048 Y40.597 Z-0.156 I0.297 J-0.902
X17.453 Y42.402 Z-0.209 I-0.297 J0.902
X18.048 Y40.597 Z-0.261 I0.297 J-0.902
X17.453 Y42.402 Z-0.313 I-0.297 J0.902
X18.048 Y40.597 Z-0.365 I0.297 J-0.902
X17.453 Y42.402 Z-0.417 I-0.297 J0.902
X18.048 Y40.597 Z-0.469 I0.297 J-0.902
X17.453 Y42.402 Z-0.521 I-0.297 J0.902
X18.048 Y40.597 Z-0.573 I0.297 J-0.902
X18.7 Y41.5 Z-0.594 I-0.297 J0.902
X16.8 I-0.95 J0
X18.7 I0.95 J0
G1 X18.725 Y41.981
X18.746 Y42.099
X18.737 Y42.234
X18.698 Y42.363
X18.637 Y42.484
X18.557 Y42.593
X18.463 Y42.689
X18.356 Y42.772
X18.24 Y42.841
X18.117 Y42.896
X17.988 Y42.937
X17.856 Y42.963
X17.721 Y42.976
X17.586 Y42.975
X17.452 Y42.96
X17.32 Y42.933
X17.191 Y42.892
X17.067 Y42.84
X16.948 Y42.776
X16.835 Y42.701
X16.73 Y42.617
X16.633 Y42.523
X16.546 Y42.42
X16.467 Y42.31
X16.399 Y42.194
X16.342 Y42.071
X16.296 Y41.944
X16.262 Y41.814
X16.239 Y41.681
X16.229 Y41.546
X16.23 Y41.411
X16.244 Y41.277
X16.269 Y41.144
X16.306 Y41.014
X16.354 Y40.888
X16.414 Y40.767
X16.484 Y40.652
X16.564 Y40.543
X16.653 Y40.442
X16.751 Y40.349
X16.856 Y40.265
X16.969 Y40.19
X17.088 Y40.126
X17.212 Y40.073
X17.34 Y40.031
X17.472 Y40.001
X17.606 Y39.982
X17.74 Y39.975
X17.875 Y39.98
X18.009 Y39.997
X18.141 Y40.026
X18.27 Y40.066
X18.395 Y40.118
X18.514 Y40.18
X18.628 Y40.253
X18.735 Y40.335
X18.834 Y40.427
X18.925 Y40.527
X19.006 Y40.635
X19.078 Y40.749
X19.152 Y40.895
X19.249 Y41.127
X19.318 Y41.339
X19.363 Y41.529
X19.387 Y41.685
X19.398 Y41.835
X19.396 Y41.979
X19.385 Y42.113
X19.361 Y42.25
X19.328 Y42.381
X19.283 Y42.508
X19.228 Y42.632
X19.164 Y42.75
X19.089 Y42.863
X19.005 Y42.969
X18.914 Y43.069
X18.812 Y43.162
X18.701 Y43.249
X18.585 Y43.325
X18.462 Y43.392
X18.328 Y43.452
X18.188 Y43.502
X18.046 Y43.54
X17.9 Y43.566
X17.747 Y43.582
X17.591 Y43.585
X17.434 Y43.575
X17.279 Y43.553
X17.126 Y43.518
X16.973 Y43.471
X16.821 Y43.41
X16.674 Y43.336
X16.532 Y43.251
X16.398 Y43.154
X16.273 Y43.048
X16.155 Y42.931
X16.046 Y42.803
X15.947 Y42.666
X15.859 Y42.521
X15.782 Y42.368
X15.718 Y42.209
X15.667 Y42.046
X15.629 Y41.88
X15.604 Y41.712
X15.593 Y41.542
X15.596 Y41.37
X15.613 Y41.198
X15.643 Y41.028
X15.688 Y40.86
X15.745 Y40.696
X15.816 Y40.538
X15.898 Y40.386
X15.993 Y40.242
X16.098 Y40.106
X16.214 Y39.979
X16.341 Y39.861
X16.476 Y39.753
X16.621 Y39.656
X16.773 Y39.571
X16.932 Y39.499
X17.096 Y39.439
X17.263 Y39.393
X17.433 Y39.361
X17.605 Y39.342
X17.777 Y39.337
X17.95 Y39.346
X18.122 Y39.369
X18.291 Y39.406
X18.458 Y39.457
X18.621 Y39.52
X18.778 Y39.597
X18.928 Y39.686
X19.07 Y39.786
X19.205 Y39.899
X19.334 Y40.026
X19.469 Y40.182
X19.6 Y40.359
X19.718 Y40.55
X19.821 Y40.751
X19.906 Y40.955
X19.972 Y41.161
X20.02 Y41.365
X20.052 Y41.568
X20.066 Y41.769
X20.064 Y41.966
X20.047 Y42.16
X20.015 Y42.35
X19.968 Y42.535
X19.906 Y42.714
X19.831 Y42.887
X19.742 Y43.054
X19.639 Y43.214
X19.524 Y43.365
X19.397 Y43.507
X19.257 Y43.639
X19.106 Y43.761
X18.945 Y43.871
X18.775 Y43.968
X18.595 Y44.052
X18.407 Y44.122
X18.212 Y44.177
X18.013 Y44.217
X17.809 Y44.241
X17.602 Y44.248
X17.394 Y44.239
X17.185 Y44.213
X16.978 Y44.17
X16.773 Y44.109
X16.573 Y44.033
X16.378 Y43.94
X16.191 Y43.831
X16.012 Y43.707
X15.843 Y43.568
X15.684 Y43.415
X15.538 Y43.249
X15.405 Y43.071
X15.286 Y42.882
X15.182 Y42.684
X15.095 Y42.478
X15.024 Y42.266
X14.971 Y42.047
X14.935 Y41.825
X14.917 Y41.6
Y41.374
X14.935 Y41.148
X14.971 Y40.924
X15.026 Y40.703
X15.097 Y40.488
X15.186 Y40.279
X15.291 Y40.078
X15.412 Y39.886
X15.549 Y39.704
X15.699 Y39.533
X15.863 Y39.375
X16.04 Y39.231
X16.227 Y39.1
X16.425 Y38.986
X16.631 Y38.887
X16.844 Y38.806
X17.062 Y38.742
X17.285 Y38.695
X17.511 Y38.667
X17.739 Y38.657
X17.967 Y38.665
X18.194 Y38.692
X18.418 Y38.737
X18.638 Y38.799
X18.852 Y38.879
X19.06 Y38.977
X19.26 Y39.091
X19.457 Y39.225
X19.649 Y39.38
X19.834 Y39.556
X20.009 Y39.751
X20.17 Y39.962
X20.314 Y40.186
X20.439 Y40.422
X20.545 Y40.665
X20.63 Y40.915
X20.695 Y41.168
X20.738 Y41.423
X20.761 Y41.678
X20.763 Y41.932
X20.745 Y42.183
X20.707 Y42.43
X20.649 Y42.672
X20.573 Y42.908
X20.478 Y43.136
X20.365 Y43.356
X20.235 Y43.566
X20.088 Y43.766
X19.925 Y43.953
X19.747 Y44.128
X19.555 Y44.288
X19.349 Y44.433
X19.131 Y44.562
X18.902 Y44.674
X18.664 Y44.768
X18.417 Y44.842
X18.163 Y44.897
X17.905 Y44.932
X17.642 Y44.945
X17.378 Y44.938
X17.114 Y44.909
X16.851 Y44.859
X16.592 Y44.787
X16.338 Y44.695
X16.092 Y44.582
X15.854 Y44.449
X15.626 Y44.296
X15.411 Y44.125
X15.209 Y43.937
X15.022 Y43.732
X14.852 Y43.512
X14.699 Y43.279
X14.566 Y43.034
X14.452 Y42.778
X14.359 Y42.513
X14.288 Y42.241
X14.238 Y41.964
X14.211 Y41.683
X14.206 Y41.4
X14.225 Y41.118
X14.265 Y40.837
X14.329 Y40.561
X14.414 Y40.29
X14.52 Y40.027
X14.648 Y39.774
X14.796 Y39.531
X14.962 Y39.3
X15.147 Y39.084
X15.349 Y38.883
X15.566 Y38.699
X15.798 Y38.532
X16.042 Y38.385
X16.297 Y38.258
X16.561 Y38.152
X16.834 Y38.067
X17.112 Y38.005
X17.394 Y37.965
X17.678 Y37.947
X17.964 Y37.953
X18.248 Y37.982
X18.529 Y38.033
X18.805 Y38.107
X19.076 Y38.203
X19.341 Y38.322
X19.599 Y38.463
X19.849 Y38.628
X20.089 Y38.815
X20.318 Y39.026
X20.532 Y39.257
X20.729 Y39.507
X20.906 Y39.773
X21.062 Y40.053
X21.194 Y40.344
X21.302 Y40.645
X21.386 Y40.951
X21.444 Y41.261
X21.476 Y41.573
X21.484 Y41.885
X21.467 Y42.195
X21.425 Y42.5
X21.359 Y42.801
X21.256 Y43.124
X21.249 Y43.138
X20.939 Y43.734
X20.198 Y44.529
X19.295 Y45.075
X18.282 Y45.358
X17.215 Y45.357
X16.206 Y45.075
X15.299 Y44.526
X14.561 Y43.734
X14.081 Y42.807
X13.864 Y41.764
X13.94 Y40.696
X14.287 Y39.722
X14.616 Y39.246
X14.915 Y38.831
X15.741 Y38.166
X16.695 Y37.752
X17.762 Y37.606
X18.802 Y37.751
X19.787 Y38.182
X20.604 Y38.851
X21.209 Y39.711
X21.566 Y40.724
X21.635 Y41.764
X21.422 Y42.796
X21.249 Y43.138
X21.23 Y43.161 Z-0.588
X21.213 Y43.18 Z-0.571
X21.202 Y43.193 Z-0.545
X21.198 Y43.197 Z-0.515
G0 Z5
X17.452 Y42.403
Z0.106
G1 Z-0.094 F600
G3 X18.047 Y40.598 Z-0.146 I0.297 J-0.902
X17.452 Y42.403 Z-0.198 I-0.297 J0.902
X18.047 Y40.598 Z-0.25 I0.297 J-0.902
X17.452 Y42.403 Z-0.302 I-0.297 J0.902
X18.047 Y40.598 Z-0.354 I0.297 J-0.902
X17.452 Y42.403 Z-0.407 I-0.297 J0.902
X18.047 Y40.598 Z-0.459 I0.297 J-0.902
X17.452 Y42.403 Z-0.511 I-0.297 J0.902
X18.047 Y40.598 Z-0.563 I0.297 J-0.902
X17.452 Y42.403 Z-0.615 I-0.297 J0.902
X18.047 Y40.598 Z-0.667 I0.297 J-0.902
X17.452 Y42.403 Z-0.719 I-0.297 J0.902
X18.047 Y40.598 Z-0.771 I0.297 J-0.902
X18.7 Y41.501 Z-0.792 I-0.297 J0.902
X16.8 I-0.95 J0
X18.7 I0.95 J0
G1 X18.725 Y41.982
X18.746 Y42.1
X18.737 Y42.235
X18.698 Y42.364
X18.637 Y42.485
X18.557 Y42.593
X18.463 Y42.69
X18.356 Y42.773
X18.24 Y42.842
X18.117 Y42.897
X17.988 Y42.938
X17.856 Y42.964
X17.721 Y42.977
X17.586 Y42.976
X17.452 Y42.961
X17.32 Y42.933
X17.191 Y42.893
X17.067 Y42.841
X16.948 Y42.777
X16.835 Y42.702
X16.73 Y42.618
X16.633 Y42.524
X16.545 Y42.421
X16.467 Y42.311
X16.399 Y42.194
X16.342 Y42.072
X16.296 Y41.945
X16.262 Y41.815
X16.239 Y41.682
X16.228 Y41.547
X16.23 Y41.412
X16.243 Y41.278
X16.269 Y41.145
X16.306 Y41.015
X16.354 Y40.889
X16.414 Y40.768
X16.484 Y40.653
X16.563 Y40.544
X16.653 Y40.442
X16.751 Y40.349
X16.856 Y40.265
X16.969 Y40.191
X17.088 Y40.127
X17.212 Y40.074
X17.34 Y40.032
X17.472 Y40.001
X17.605 Y39.983
X17.74 Y39.976
X17.875 Y39.981
X18.009 Y39.998
X18.141 Y40.027
X18.27 Y40.067
X18.394 Y40.119
X18.514 Y40.181
X18.628 Y40.254
X18.735 Y40.336
X18.834 Y40.428
X18.924 Y40.528
X19.006 Y40.636
X19.077 Y40.75
X19.152 Y40.895
X19.249 Y41.128
X19.317 Y41.34
X19.363 Y41.53
X19.387 Y41.686
X19.397 Y41.836
X19.396 Y41.98
X19.384 Y42.114
X19.361 Y42.251
X19.327 Y42.382
X19.283 Y42.509
X19.228 Y42.632
X19.164 Y42.751
X19.089 Y42.864
X19.005 Y42.97
X18.914 Y43.069
X18.812 Y43.162
X18.701 Y43.249
X18.585 Y43.325
X18.461 Y43.393
X18.328 Y43.453
X18.188 Y43.503
X18.046 Y43.541
X17.899 Y43.567
X17.747 Y43.582
X17.591 Y43.585
X17.434 Y43.576
X17.279 Y43.554
X17.126 Y43.519
X16.972 Y43.472
X16.821 Y43.411
X16.674 Y43.337
X16.532 Y43.252
X16.398 Y43.155
X16.272 Y43.049
X16.155 Y42.931
X16.046 Y42.804
X15.947 Y42.667
X15.859 Y42.522
X15.782 Y42.369
X15.718 Y42.21
X15.666 Y42.047
X15.628 Y41.881
X15.604 Y41.713
X15.593 Y41.543
X15.596 Y41.371
X15.613 Y41.199
X15.643 Y41.029
X15.687 Y40.861
X15.745 Y40.697
X15.816 Y40.539
X15.898 Y40.387
X15.993 Y40.243
X16.098 Y40.107
X16.214 Y39.98
X16.34 Y39.862
X16.476 Y39.754
X16.621 Y39.657
X16.773 Y39.572
X16.931 Y39.5
X17.095 Y39.44
X17.263 Y39.394
X17.433 Y39.361
X17.605 Y39.343
X17.777 Y39.338
X17.95 Y39.347
X18.121 Y39.37
X18.291 Y39.407
X18.458 Y39.457
X18.62 Y39.521
X18.777 Y39.598
X18.928 Y39.687
X19.069 Y39.787
X19.204 Y39.9
X19.334 Y40.027
X19.469 Y40.183
X19.6 Y40.36
X19.718 Y40.551
X19.821 Y40.752
X19.905 Y40.956
X19.972 Y41.161
X20.02 Y41.366
X20.051 Y41.569
X20.066 Y41.77
X20.064 Y41.967
X20.047 Y42.161
X20.015 Y42.351
X19.968 Y42.535
X19.906 Y42.715
X19.831 Y42.888
X19.742 Y43.055
X19.639 Y43.214
X19.524 Y43.366
X19.397 Y43.507
X19.257 Y43.64
X19.106 Y43.762
X18.945 Y43.871
X18.774 Y43.969
X18.595 Y44.053
X18.407 Y44.123
X18.212 Y44.178
X18.012 Y44.218
X17.809 Y44.242
X17.602 Y44.249
X17.394 Y44.24
X17.185 Y44.214
X16.978 Y44.17
X16.773 Y44.11
X16.573 Y44.034
X16.378 Y43.941
X16.191 Y43.832
X16.012 Y43.707
X15.843 Y43.568
X15.684 Y43.416
X15.538 Y43.25
X15.404 Y43.071
X15.286 Y42.883
X15.182 Y42.685
X15.095 Y42.479
X15.024 Y42.266
X14.97 Y42.048
X14.934 Y41.826
X14.916 Y41.601
Y41.375
X14.935 Y41.149
X14.971 Y40.925
X15.025 Y40.704
X15.097 Y40.489
X15.186 Y40.28
X15.291 Y40.079
X15.412 Y39.887
X15.549 Y39.705
X15.699 Y39.534
X15.863 Y39.376
X16.04 Y39.231
X16.227 Y39.101
X16.425 Y38.986
X16.631 Y38.888
X16.844 Y38.807
X17.062 Y38.743
X17.285 Y38.696
X17.511 Y38.668
X17.739 Y38.658
X17.967 Y38.666
X18.194 Y38.693
X18.418 Y38.738
X18.638 Y38.8
X18.852 Y38.88
X19.06 Y38.977
X19.26 Y39.092
X19.457 Y39.226
X19.649 Y39.381
X19.834 Y39.557
X20.009 Y39.751
X20.169 Y39.962
X20.314 Y40.187
X20.439 Y40.422
X20.545 Y40.666
X20.63 Y40.916
X20.695 Y41.169
X20.738 Y41.424
X20.761 Y41.679
X20.763 Y41.933
X20.744 Y42.184
X20.706 Y42.431
X20.649 Y42.673
X20.573 Y42.909
X20.478 Y43.137
X20.365 Y43.357
X20.235 Y43.567
X20.088 Y43.767
X19.925 Y43.954
X19.747 Y44.129
X19.555 Y44.289
X19.349 Y44.434
X19.131 Y44.563
X18.902 Y44.675
X18.664 Y44.768
X18.417 Y44.843
X18.163 Y44.898
X17.905 Y44.932
X17.642 Y44.946
X17.378 Y44.939
X17.113 Y44.91
X16.851 Y44.86
X16.592 Y44.788
X16.338 Y44.696
X16.091 Y44.583
X15.854 Y44.45
X15.626 Y44.297
X15.41 Y44.126
X15.209 Y43.938
X15.022 Y43.733
X14.852 Y43.513
X14.699 Y43.28
X14.566 Y43.034
X14.452 Y42.779
X14.359 Y42.514
X14.288 Y42.242
X14.238 Y41.965
X14.211 Y41.684
X14.206 Y41.401
X14.224 Y41.118
X14.265 Y40.838
X14.328 Y40.562
X14.414 Y40.291
X14.52 Y40.028
X14.648 Y39.774
X14.795 Y39.532
X14.962 Y39.301
X15.147 Y39.085
X15.349 Y38.884
X15.566 Y38.699
X15.798 Y38.533
X16.042 Y38.386
X16.297 Y38.259
X16.561 Y38.153
X16.833 Y38.068
X17.111 Y38.006
X17.394 Y37.965
X17.678 Y37.948
X17.964 Y37.954
X18.248 Y37.982
X18.529 Y38.034
X18.805 Y38.107
X19.076 Y38.204
X19.341 Y38.323
X19.599 Y38.464
X19.849 Y38.628
X20.089 Y38.816
X20.318 Y39.026
X20.532 Y39.258
X20.729 Y39.507
X20.906 Y39.774
X21.062 Y40.054
X21.194 Y40.345
X21.302 Y40.645
X21.385 Y40.967
X21.388 Y40.997
X21.437 Y41.764
X21.229 Y42.749
X20.774 Y43.625
X20.088 Y44.363
X19.212 Y44.894
X18.252 Y45.162
X17.242 Y45.161
X16.284 Y44.893
X15.417 Y44.367
X14.725 Y43.624
X14.262 Y42.722
X14.063 Y41.764
X14.131 Y40.751
X14.473 Y39.793
X15.053 Y38.973
X15.819 Y38.349
X16.748 Y37.942
X17.762 Y37.804
X18.737 Y37.939
X19.679 Y38.348
X20.46 Y38.986
X21.028 Y39.793
X21.369 Y40.751
X21.388 Y40.997
Y41.004
X21.383 Y41.031 Z-0.784
X21.379 Y41.054 Z-0.766
X21.377 Y41.069 Z-0.742
X21.376 Y41.074 Z-0.713
G0 Z5
X17.453 Y42.403
Z-0.092
G1 Z-0.292 F600
G3 X18.048 Y40.598 Z-0.344 I0.297 J-0.902
X17.453 Y42.403 Z-0.396 I-0.297 J0.902
X18.048 Y40.598 Z-0.448 I0.297 J-0.902
X17.453 Y42.403 Z-0.5 I-0.297 J0.902
X18.048 Y40.598 Z-0.552 I0.297 J-0.902
X17.453 Y42.403 Z-0.605 I-0.297 J0.902
X18.048 Y40.598 Z-0.657 I0.297 J-0.902
X17.453 Y42.403 Z-0.709 I-0.297 J0.902
X18.048 Y40.598 Z-0.761 I0.297 J-0.902
X17.453 Y42.403 Z-0.813 I-0.297 J0.902
X18.048 Y40.598 Z-0.865 I0.297 J-0.902
X17.453 Y42.403 Z-0.917 I-0.297 J0.902
X18.048 Y40.598 Z-0.969 I0.297 J-0.902
X18.7 Y41.5 Z-0.99 I-0.297 J0.902
X16.8 I-0.95 J0
X18.7 I0.95 J0
G1 X18.725 Y41.982
X18.747 Y42.1
X18.737 Y42.235
X18.699 Y42.364
X18.637 Y42.484
X18.558 Y42.593
X18.463 Y42.69
X18.357 Y42.772
X18.241 Y42.842
X18.117 Y42.897
X17.989 Y42.937
X17.856 Y42.964
X17.722 Y42.977
X17.587 Y42.976
X17.453 Y42.961
X17.32 Y42.933
X17.192 Y42.893
X17.067 Y42.841
X16.948 Y42.777
X16.836 Y42.702
X16.731 Y42.617
X16.634 Y42.523
X16.546 Y42.421
X16.468 Y42.311
X16.4 Y42.194
X16.342 Y42.072
X16.297 Y41.945
X16.262 Y41.814
X16.24 Y41.681
X16.229 Y41.547
X16.23 Y41.412
X16.244 Y41.277
X16.269 Y41.145
X16.306 Y41.015
X16.355 Y40.889
X16.414 Y40.768
X16.484 Y40.652
X16.564 Y40.544
X16.653 Y40.442
X16.751 Y40.349
X16.857 Y40.265
X16.969 Y40.191
X17.088 Y40.127
X17.212 Y40.074
X17.341 Y40.032
X17.472 Y40.001
X17.606 Y39.982
X17.741 Y39.976
X17.876 Y39.981
X18.01 Y39.998
X18.141 Y40.026
X18.27 Y40.067
X18.395 Y40.118
X18.515 Y40.181
X18.628 Y40.254
X18.735 Y40.336
X18.834 Y40.428
X18.925 Y40.528
X19.006 Y40.636
X19.078 Y40.75
X19.152 Y40.895
X19.249 Y41.128
X19.318 Y41.34
X19.363 Y41.53
X19.387 Y41.686
X19.398 Y41.836
X19.397 Y41.98
X19.385 Y42.114
X19.361 Y42.251
X19.328 Y42.381
X19.284 Y42.509
X19.229 Y42.632
X19.164 Y42.751
X19.09 Y42.863
X19.006 Y42.97
X18.914 Y43.069
X18.813 Y43.162
X18.701 Y43.249
X18.586 Y43.325
X18.462 Y43.393
X18.328 Y43.453
X18.188 Y43.503
X18.046 Y43.54
X17.9 Y43.567
X17.748 Y43.582
X17.591 Y43.585
X17.435 Y43.576
X17.28 Y43.554
X17.126 Y43.519
X16.973 Y43.471
X16.822 Y43.411
X16.674 Y43.337
X16.533 Y43.251
X16.398 Y43.155
X16.273 Y43.048
X16.155 Y42.931
X16.047 Y42.804
X15.947 Y42.667
X15.859 Y42.521
X15.782 Y42.368
X15.718 Y42.21
X15.667 Y42.047
X15.629 Y41.881
X15.605 Y41.713
X15.594 Y41.542
X15.597 Y41.371
X15.613 Y41.199
X15.644 Y41.029
X15.688 Y40.861
X15.746 Y40.697
X15.816 Y40.539
X15.899 Y40.387
X15.993 Y40.242
X16.098 Y40.107
X16.214 Y39.98
X16.341 Y39.862
X16.477 Y39.754
X16.621 Y39.657
X16.773 Y39.572
X16.932 Y39.499
X17.096 Y39.44
X17.263 Y39.394
X17.434 Y39.361
X17.605 Y39.343
X17.777 Y39.338
X17.95 Y39.347
X18.122 Y39.37
X18.292 Y39.407
X18.459 Y39.457
X18.621 Y39.521
X18.778 Y39.598
X18.928 Y39.687
X19.07 Y39.787
X19.205 Y39.9
X19.334 Y40.026
X19.47 Y40.182
X19.6 Y40.36
X19.718 Y40.551
X19.821 Y40.752
X19.906 Y40.956
X19.972 Y41.161
X20.021 Y41.365
X20.052 Y41.569
X20.066 Y41.77
X20.065 Y41.967
X20.047 Y42.161
X20.015 Y42.351
X19.968 Y42.535
X19.907 Y42.715
X19.831 Y42.888
X19.742 Y43.055
X19.64 Y43.214
X19.525 Y43.365
X19.397 Y43.507
X19.258 Y43.64
X19.107 Y43.761
X18.945 Y43.871
X18.775 Y43.968
X18.595 Y44.052
X18.407 Y44.123
X18.213 Y44.178
X18.013 Y44.218
X17.809 Y44.241
X17.603 Y44.249
X17.394 Y44.24
X17.186 Y44.213
X16.978 Y44.17
X16.773 Y44.11
X16.573 Y44.033
X16.379 Y43.94
X16.191 Y43.831
X16.013 Y43.707
X15.843 Y43.568
X15.685 Y43.415
X15.538 Y43.249
X15.405 Y43.071
X15.286 Y42.883
X15.183 Y42.685
X15.095 Y42.479
X15.024 Y42.266
X14.971 Y42.048
X14.935 Y41.826
X14.917 Y41.601
Y41.375
X14.935 Y41.149
X14.972 Y40.924
X15.026 Y40.704
X15.098 Y40.488
X15.186 Y40.28
X15.292 Y40.079
X15.413 Y39.886
X15.549 Y39.705
X15.7 Y39.534
X15.864 Y39.376
X16.04 Y39.231
X16.228 Y39.101
X16.425 Y38.986
X16.631 Y38.888
X16.844 Y38.806
X17.063 Y38.742
X17.286 Y38.696
X17.512 Y38.668
X17.739 Y38.658
X17.967 Y38.666
X18.194 Y38.693
X18.419 Y38.737
X18.639 Y38.8
X18.853 Y38.88
X19.06 Y38.977
X19.261 Y39.091
X19.457 Y39.226
X19.65 Y39.381
X19.835 Y39.557
X20.009 Y39.751
X20.17 Y39.962
X20.314 Y40.187
X20.44 Y40.422
X20.545 Y40.666
X20.631 Y40.915
X20.695 Y41.169
X20.739 Y41.424
X20.761 Y41.679
X20.763 Y41.933
X20.745 Y42.184
X20.707 Y42.431
X20.65 Y42.673
X20.573 Y42.909
X20.478 Y43.137
X20.365 Y43.357
X20.235 Y43.567
X20.088 Y43.766
X19.926 Y43.954
X19.748 Y44.128
X19.555 Y44.289
X19.35 Y44.434
X19.132 Y44.563
X18.903 Y44.675
X18.664 Y44.768
X18.417 Y44.843
X18.164 Y44.898
X17.905 Y44.932
X17.643 Y44.946
X17.378 Y44.938
X17.114 Y44.91
X16.942 Y44.875
X16.804 Y44.837
X16.367 Y44.713
X15.55 Y44.219
X14.891 Y43.515
X14.453 Y42.667
X14.26 Y41.736
X14.327 Y40.778
X14.639 Y39.902
X15.195 Y39.111
X15.946 Y38.503
X16.804 Y38.132
X17.762 Y38.002
X18.705 Y38.134
X19.568 Y38.511
X20.307 Y39.113
X20.862 Y39.902
X21.177 Y40.8
X21.24 Y41.736
X21.047 Y42.667
X20.609 Y43.515
X19.951 Y44.219
X19.138 Y44.711
X18.227 Y44.965
X17.27
X16.942 Y44.875
X16.915 Y44.861 Z-0.984
X16.893 Y44.848 Z-0.967
X16.878 Y44.84 Z-0.941
X16.873 Y44.837 Z-0.911
G0 Z5
X17.453 Y42.402
Z-0.29
G1 Z-0.49 F600
G3 X18.048 Y40.597 Z-0.542 I0.297 J-0.902
X17.453 Y42.402 Z-0.594 I-0.297 J0.902
X18.048 Y40.597 Z-0.646 I0.297 J-0.902
X17.453 Y42.402 Z-0.698 I-0.297 J0.902
X18.048 Y40.597 Z-0.75 I0.297 J-0.902
X17.453 Y42.402 Z-0.803 I-0.297 J0.902
X18.048 Y40.597 Z-0.855 I0.297 J-0.902
X17.453 Y42.402 Z-0.907 I-0.297 J0.902
X18.048 Y40.597 Z-0.959 I0.297 J-0.902
X17.453 Y42.402 Z-1.011 I-0.297 J0.902
X18.048 Y40.597 Z-1.063 I0.297 J-0.902
X17.453 Y42.402 Z-1.115 I-0.297 J0.902
X18.048 Y40.597 Z-1.167 I0.297 J-0.902
X18.7 Y41.5 Z-1.188 I-0.297 J0.902
X16.8 I-0.95 J0
X18.7 I0.95 J0
G1 X18.725 Y41.981
X18.747 Y42.099
X18.737 Y42.234
X18.699 Y42.363
X18.637 Y42.484
X18.558 Y42.593
X18.463 Y42.689
X18.357 Y42.772
X18.241 Y42.841
X18.117 Y42.896
X17.989 Y42.937
X17.856 Y42.963
X17.722 Y42.976
X17.587 Y42.975
X17.453 Y42.96
X17.32 Y42.933
X17.192 Y42.892
X17.067 Y42.84
X16.948 Y42.776
X16.836 Y42.701
X16.731 Y42.617
X16.634 Y42.523
X16.546 Y42.42
X16.468 Y42.31
X16.4 Y42.194
X16.342 Y42.071
X16.296 Y41.944
X16.262 Y41.814
X16.24 Y41.681
X16.229 Y41.546
X16.23 Y41.411
X16.244 Y41.277
X16.269 Y41.144
X16.306 Y41.014
X16.355 Y40.888
X16.414 Y40.767
X16.484 Y40.652
X16.564 Y40.543
X16.653 Y40.442
X16.751 Y40.349
X16.857 Y40.265
X16.969 Y40.19
X17.088 Y40.126
X17.212 Y40.073
X17.341 Y40.031
X17.472 Y40.001
X17.606 Y39.982
X17.741 Y39.975
X17.876 Y39.98
X18.01 Y39.997
X18.141 Y40.026
X18.27 Y40.066
X18.395 Y40.118
X18.515 Y40.18
X18.628 Y40.253
X18.735 Y40.335
X18.834 Y40.427
X18.925 Y40.527
X19.006 Y40.635
X19.078 Y40.749
X19.152 Y40.895
X19.249 Y41.127
X19.318 Y41.339
X19.363 Y41.529
X19.387 Y41.685
X19.398 Y41.835
X19.397 Y41.979
X19.385 Y42.113
X19.361 Y42.25
X19.328 Y42.381
X19.283 Y42.508
X19.229 Y42.632
X19.164 Y42.75
X19.09 Y42.863
X19.006 Y42.969
X18.914 Y43.069
X18.813 Y43.162
X18.701 Y43.249
X18.586 Y43.325
X18.462 Y43.392
X18.328 Y43.452
X18.188 Y43.502
X18.046 Y43.54
X17.9 Y43.566
X17.748 Y43.582
X17.591 Y43.585
X17.434 Y43.575
X17.28 Y43.553
X17.126 Y43.518
X16.973 Y43.471
X16.822 Y43.41
X16.674 Y43.336
X16.532 Y43.251
X16.398 Y43.154
X16.273 Y43.048
X16.155 Y42.931
X16.047 Y42.803
X15.947 Y42.666
X15.859 Y42.521
X15.782 Y42.368
X15.718 Y42.209
X15.667 Y42.046
X15.629 Y41.88
X15.605 Y41.712
X15.594 Y41.542
X15.597 Y41.37
X15.613 Y41.198
X15.644 Y41.028
X15.688 Y40.86
X15.746 Y40.696
X15.816 Y40.538
X15.899 Y40.386
X15.993 Y40.242
X16.098 Y40.106
X16.214 Y39.979
X16.341 Y39.861
X16.477 Y39.753
X16.621 Y39.656
X16.773 Y39.571
X16.932 Y39.499
X17.096 Y39.439
X17.263 Y39.393
X17.434 Y39.361
X17.605 Y39.342
X17.777 Y39.337
X17.95 Y39.346
X18.122 Y39.369
X18.292 Y39.406
X18.459 Y39.457
X18.621 Y39.52
X18.778 Y39.597
X18.928 Y39.686
X19.07 Y39.786
X19.205 Y39.899
X19.334 Y40.026
X19.47 Y40.182
X19.6 Y40.359
X19.718 Y40.55
X19.821 Y40.751
X19.906 Y40.955
X19.972 Y41.161
X20.021 Y41.365
X20.052 Y41.568
X20.066 Y41.769
X20.065 Y41.966
X20.047 Y42.16
X20.015 Y42.35
X19.968 Y42.535
X19.907 Y42.714
X19.831 Y42.887
X19.742 Y43.054
X19.64 Y43.214
X19.525 Y43.365
X19.397 Y43.507
X19.258 Y43.639
X19.107 Y43.761
X18.945 Y43.871
X18.775 Y43.968
X18.595 Y44.052
X18.407 Y44.122
X18.213 Y44.177
X18.013 Y44.217
X17.809 Y44.241
X17.603 Y44.248
X17.394 Y44.239
X17.186 Y44.213
X16.978 Y44.17
X16.773 Y44.109
X16.573 Y44.033
X16.379 Y43.94
X16.191 Y43.831
X16.012 Y43.707
X15.843 Y43.568
X15.685 Y43.415
X15.538 Y43.249
X15.405 Y43.071
X15.286 Y42.882
X15.183 Y42.684
X15.095 Y42.478
X15.024 Y42.266
X14.971 Y42.047
X14.935 Y41.825
X14.917 Y41.6
Y41.374
X14.935 Y41.148
X14.972 Y40.924
X15.026 Y40.703
X15.098 Y40.488
X15.186 Y40.279
X15.292 Y40.078
X15.413 Y39.886
X15.549 Y39.704
X15.7 Y39.533
X15.864 Y39.375
X16.04 Y39.231
X16.228 Y39.1
X16.425 Y38.986
X16.631 Y38.887
X16.844 Y38.806
X17.063 Y38.742
X17.286 Y38.695
X17.512 Y38.667
X17.739 Y38.657
X17.967 Y38.665
X18.194 Y38.692
X18.419 Y38.737
X18.639 Y38.799
X18.853 Y38.879
X19.06 Y38.977
X19.261 Y39.091
X19.457 Y39.225
X19.65 Y39.38
X19.835 Y39.556
X20.009 Y39.751
X20.17 Y39.962
X20.314 Y40.186
X20.44 Y40.422
X20.545 Y40.665
X20.631 Y40.915
X20.695 Y41.168
X20.739 Y41.423
X20.761 Y41.678
X20.763 Y41.932
X20.745 Y42.183
X20.707 Y42.43
X20.65 Y42.672
X20.573 Y42.908
X20.478 Y43.136
X20.365 Y43.356
X20.235 Y43.566
X20.088 Y43.766
X19.926 Y43.953
X19.767 Y44.101
X19.737 Y44.121
X19.076 Y44.522
X18.2 Y44.77
X17.297 Y44.769
X16.432 Y44.526
X15.671 Y44.063
X15.053 Y43.401
X14.643 Y42.612
X14.457 Y41.709
X14.518 Y40.833
X14.818 Y39.985
X15.34 Y39.246
X16.038 Y38.678
X16.859 Y38.322
X17.762 Y38.2
X18.638 Y38.322
X19.461 Y38.678
X20.16 Y39.246
X20.683 Y39.987
X20.982 Y40.833
X21.041 Y41.736
X20.854 Y42.617
X20.444 Y43.406
X19.83 Y44.063
X19.737 Y44.121
X19.709 Y44.13 Z-1.182
X19.685 Y44.138 Z-1.165
X19.669 Y44.143 Z-1.139
X19.663 Y44.145 Z-1.109
G0 Z5
X17.453 Y42.402
Z-0.488
G1 Z-0.688 F600
G3 X18.048 Y40.598 Z-0.74 I0.297 J-0.902
X17.453 Y42.402 Z-0.792 I-0.297 J0.902
X18.048 Y40.598 Z-0.844 I0.297 J-0.902
X17.453 Y42.402 Z-0.896 I-0.297 J0.902
X18.048 Y40.598 Z-0.948 I0.297 J-0.902
X17.453 Y42.402 Z-1.001 I-0.297 J0.902
X18.048 Y40.598 Z-1.053 I0.297 J-0.902
X17.453 Y42.402 Z-1.105 I-0.297 J0.902
X18.048 Y40.598 Z-1.157 I0.297 J-0.902
X17.453 Y42.402 Z-1.209 I-0.297 J0.902
X18.048 Y40.598 Z-1.261 I0.297 J-0.902
X17.453 Y42.402 Z-1.313 I-0.297 J0.902
X18.048 Y40.598 Z-1.365 I0.297 J-0.902
X18.7 Y41.5 Z-1.386 I-0.297 J0.902
X16.8 I-0.95 J0
X18.7 I0.95 J0
G1 X18.725 Y41.981
X18.747 Y42.1
X18.737 Y42.234
X18.699 Y42.364
X18.637 Y42.484
X18.557 Y42.593
X18.463 Y42.689
X18.356 Y42.772
X18.24 Y42.841
X18.117 Y42.896
X17.988 Y42.937
X17.856 Y42.964
X17.722 Y42.976
X17.587 Y42.975
X17.452 Y42.961
X17.32 Y42.933
X17.191 Y42.893
X17.067 Y42.84
X16.948 Y42.776
X16.836 Y42.702
X16.73 Y42.617
X16.634 Y42.523
X16.546 Y42.421
X16.467 Y42.311
X16.399 Y42.194
X16.342 Y42.072
X16.296 Y41.945
X16.262 Y41.814
X16.239 Y41.681
X16.229 Y41.546
X16.23 Y41.411
X16.244 Y41.277
X16.269 Y41.145
X16.306 Y41.015
X16.354 Y40.889
X16.414 Y40.767
X16.484 Y40.652
X16.564 Y40.543
X16.653 Y40.442
X16.751 Y40.349
X16.857 Y40.265
X16.969 Y40.191
X17.088 Y40.127
X17.212 Y40.073
X17.34 Y40.031
X17.472 Y40.001
X17.606 Y39.982
X17.74 Y39.975
X17.875 Y39.98
X18.009 Y39.997
X18.141 Y40.026
X18.27 Y40.066
X18.395 Y40.118
X18.515 Y40.18
X18.628 Y40.253
X18.735 Y40.336
X18.834 Y40.427
X18.925 Y40.527
X19.006 Y40.635
X19.078 Y40.75
X19.152 Y40.895
X19.249 Y41.128
X19.318 Y41.34
X19.363 Y41.529
X19.387 Y41.685
X19.398 Y41.836
X19.397 Y41.979
X19.385 Y42.114
X19.361 Y42.25
X19.328 Y42.381
X19.283 Y42.509
X19.229 Y42.632
X19.164 Y42.75
X19.089 Y42.863
X19.006 Y42.97
X18.914 Y43.069
X18.813 Y43.162
X18.701 Y43.249
X18.585 Y43.325
X18.462 Y43.393
X18.328 Y43.453
X18.188 Y43.502
X18.046 Y43.54
X17.9 Y43.567
X17.747 Y43.582
X17.591 Y43.585
X17.434 Y43.575
X17.28 Y43.553
X17.126 Y43.519
X16.973 Y43.471
X16.822 Y43.41
X16.674 Y43.337
X16.532 Y43.251
X16.398 Y43.155
X16.273 Y43.048
X16.155 Y42.931
X16.046 Y42.803
X15.947 Y42.666
X15.859 Y42.521
X15.782 Y42.368
X15.718 Y42.209
X15.667 Y42.047
X15.629 Y41.881
X15.604 Y41.712
X15.594 Y41.542
X15.596 Y41.37
X15.613 Y41.199
X15.644 Y41.028
X15.688 Y40.861
X15.745 Y40.697
X15.816 Y40.538
X15.899 Y40.386
X15.993 Y40.242
X16.098 Y40.106
X16.214 Y39.979
X16.341 Y39.861
X16.477 Y39.753
X16.621 Y39.657
X16.773 Y39.572
X16.932 Y39.499
X17.096 Y39.439
X17.263 Y39.393
X17.433 Y39.361
X17.605 Y39.342
X17.777 Y39.338
X17.95 Y39.347
X18.122 Y39.37
X18.292 Y39.406
X18.458 Y39.457
X18.621 Y39.521
X18.778 Y39.597
X18.928 Y39.686
X19.07 Y39.787
X19.205 Y39.899
X19.334 Y40.026
X19.469 Y40.182
X19.6 Y40.36
X19.718 Y40.551
X19.821 Y40.751
X19.906 Y40.956
X19.972 Y41.161
X20.021 Y41.365
X20.052 Y41.568
X20.066 Y41.769
X20.065 Y41.967
X20.047 Y42.161
X20.015 Y42.35
X19.968 Y42.535
X19.906 Y42.714
X19.831 Y42.888
X19.742 Y43.054
X19.64 Y43.214
X19.524 Y43.365
X19.397 Y43.507
X19.258 Y43.639
X19.106 Y43.761
X18.945 Y43.871
X18.775 Y43.968
X18.595 Y44.052
X18.407 Y44.122
X18.213 Y44.178
X18.013 Y44.217
X17.809 Y44.241
X17.602 Y44.248
X17.394 Y44.239
X17.186 Y44.213
X16.978 Y44.17
X16.773 Y44.11
X16.573 Y44.033
X16.378 Y43.94
X16.191 Y43.831
X16.012 Y43.707
X15.843 Y43.568
X15.685 Y43.415
X15.538 Y43.249
X15.405 Y43.071
X15.286 Y42.882
X15.182 Y42.684
X15.095 Y42.478
X15.024 Y42.266
X14.971 Y42.048
X14.935 Y41.826
X14.917 Y41.601
Y41.374
X14.935 Y41.148
X14.971 Y40.924
X15.026 Y40.704
X15.097 Y40.488
X15.186 Y40.279
X15.291 Y40.078
X15.413 Y39.886
X15.549 Y39.704
X15.699 Y39.534
X15.863 Y39.375
X16.04 Y39.231
X16.228 Y39.101
X16.425 Y38.986
X16.631 Y38.887
X16.844 Y38.806
X17.063 Y38.742
X17.286 Y38.696
X17.512 Y38.667
X17.739 Y38.657
X17.967 Y38.666
X18.194 Y38.692
X18.418 Y38.737
X18.638 Y38.8
X18.853 Y38.88
X19.06 Y38.977
X19.26 Y39.091
X19.457 Y39.225
X19.649 Y39.381
X19.834 Y39.556
X20.009 Y39.751
X20.17 Y39.962
X20.314 Y40.187
X20.439 Y40.422
X20.545 Y40.666
X20.631 Y40.915
X20.695 Y41.168
X20.738 Y41.423
X20.761 Y41.678
X20.763 Y41.932
X20.734 Y42.256
X20.729 Y42.28
X20.668 Y42.552
X20.278 Y43.296
X19.705 Y43.909
X18.994 Y44.342
X18.173 Y44.573
X17.324
X16.503 Y44.339
X15.797 Y43.91
X15.222 Y43.296
X14.824 Y42.53
X14.654 Y41.709
X14.715 Y40.858
X14.999 Y40.067
X15.491 Y39.375
X16.148 Y38.844
X16.914 Y38.513
X17.762 Y38.398
X18.583 Y38.512
X19.349 Y38.842
X20.018 Y39.382
X20.502 Y40.067
X20.786 Y40.86
X20.846 Y41.709
X20.729 Y42.28
X20.717 Y42.307 Z-1.38
X20.706 Y42.33 Z-1.363
X20.699 Y42.346 Z-1.337
X20.696 Y42.351 Z-1.307
G0 Z5
X17.453 Y42.402
Z-0.686
G1 Z-0.886 F600
G3 X18.047 Y40.598 Z-0.938 I0.297 J-0.902
X17.453 Y42.402 Z-0.99 I-0.297 J0.902
X18.047 Y40.598 Z-1.042 I0.297 J-0.902
X17.453 Y42.402 Z-1.094 I-0.297 J0.902
X18.047 Y40.598 Z-1.146 I0.297 J-0.902
X17.453 Y42.402 Z-1.199 I-0.297 J0.902
X18.047 Y40.598 Z-1.251 I0.297 J-0.902
X17.453 Y42.402 Z-1.303 I-0.297 J0.902
X18.047 Y40.598 Z-1.355 I0.297 J-0.902
X17.453 Y42.402 Z-1.407 I-0.297 J0.902
X18.047 Y40.598 Z-1.459 I0.297 J-0.902
X17.453 Y42.402 Z-1.511 I-0.297 J0.902
X18.047 Y40.598 Z-1.563 I0.297 J-0.902
X18.7 Y41.5 Z-1.584 I-0.297 J0.902
X16.8 I-0.95 J0
X18.7 I0.95 J0
G1 X18.725 Y41.981
X18.746 Y42.1
X18.737 Y42.235
X18.698 Y42.364
X18.637 Y42.484
X18.557 Y42.593
X18.463 Y42.689
X18.356 Y42.772
X18.24 Y42.842
X18.117 Y42.897
X17.988 Y42.937
X17.856 Y42.964
X17.721 Y42.977
X17.586 Y42.975
X17.452 Y42.961
X17.32 Y42.933
X17.191 Y42.893
X17.067 Y42.84
X16.948 Y42.777
X16.835 Y42.702
X16.73 Y42.617
X16.633 Y42.523
X16.545 Y42.421
X16.467 Y42.311
X16.399 Y42.194
X16.342 Y42.072
X16.296 Y41.945
X16.262 Y41.814
X16.239 Y41.681
X16.229 Y41.547
X16.23 Y41.412
X16.243 Y41.277
X16.269 Y41.145
X16.306 Y41.015
X16.354 Y40.889
X16.414 Y40.768
X16.484 Y40.652
X16.564 Y40.543
X16.653 Y40.442
X16.751 Y40.349
X16.856 Y40.265
X16.969 Y40.191
X17.088 Y40.127
X17.212 Y40.074
X17.34 Y40.032
X17.472 Y40.001
X17.605 Y39.982
X17.74 Y39.975
X17.875 Y39.981
X18.009 Y39.998
X18.141 Y40.026
X18.27 Y40.067
X18.395 Y40.118
X18.514 Y40.181
X18.628 Y40.253
X18.735 Y40.336
X18.834 Y40.428
X18.925 Y40.528
X19.006 Y40.635
X19.078 Y40.75
X19.152 Y40.895
X19.249 Y41.128
X19.318 Y41.34
X19.363 Y41.53
X19.387 Y41.686
X19.398 Y41.836
X19.396 Y41.98
X19.385 Y42.114
X19.361 Y42.251
X19.328 Y42.381
X19.283 Y42.509
X19.228 Y42.632
X19.164 Y42.751
X19.089 Y42.863
X19.005 Y42.97
X18.914 Y43.069
X18.812 Y43.162
X18.701 Y43.249
X18.585 Y43.325
X18.462 Y43.393
X18.328 Y43.453
X18.188 Y43.502
X18.046 Y43.54
X17.9 Y43.567
X17.747 Y43.582
X17.591 Y43.585
X17.434 Y43.576
X17.279 Y43.554
X17.126 Y43.519
X16.973 Y43.471
X16.821 Y43.41
X16.674 Y43.337
X16.532 Y43.251
X16.398 Y43.155
X16.272 Y43.048
X16.155 Y42.931
X16.046 Y42.804
X15.947 Y42.667
X15.859 Y42.521
X15.782 Y42.368
X15.718 Y42.21
X15.666 Y42.047
X15.629 Y41.881
X15.604 Y41.713
X15.593 Y41.542
X15.596 Y41.371
X15.613 Y41.199
X15.643 Y41.029
X15.688 Y40.861
X15.745 Y40.697
X15.816 Y40.538
X15.898 Y40.387
X15.993 Y40.242
X16.098 Y40.107
X16.214 Y39.979
X16.341 Y39.861
X16.476 Y39.754
X16.621 Y39.657
X16.773 Y39.572
X16.932 Y39.499
X17.096 Y39.44
X17.263 Y39.394
X17.433 Y39.361
X17.605 Y39.343
X17.777 Y39.338
X17.95 Y39.347
X18.122 Y39.37
X18.291 Y39.407
X18.458 Y39.457
X18.621 Y39.521
X18.778 Y39.598
X18.928 Y39.687
X19.07 Y39.787
X19.204 Y39.899
X19.334 Y40.026
X19.469 Y40.182
X19.6 Y40.36
X19.718 Y40.551
X19.821 Y40.752
X19.906 Y40.956
X19.972 Y41.161
X20.02 Y41.365
X20.052 Y41.569
X20.066 Y41.77
X20.064 Y41.967
X20.047 Y42.161
X20.015 Y42.351
X19.968 Y42.535
X19.906 Y42.715
X19.831 Y42.888
X19.742 Y43.055
X19.639 Y43.214
X19.524 Y43.365
X19.397 Y43.507
X19.257 Y43.64
X19.106 Y43.761
X18.945 Y43.871
X18.774 Y43.968
X18.595 Y44.052
X18.407 Y44.123
X18.212 Y44.178
X18.013 Y44.218
X17.809 Y44.241
X17.602 Y44.249
X17.394 Y44.24
X17.185 Y44.213
X16.978 Y44.17
X16.773 Y44.11
X16.573 Y44.033
X16.378 Y43.94
X16.191 Y43.831
X16.012 Y43.707
X15.843 Y43.568
X15.684 Y43.415
X15.538 Y43.249
X15.405 Y43.071
X15.286 Y42.883
X15.182 Y42.685
X15.095 Y42.479
X15.024 Y42.266
X14.971 Y42.048
X14.935 Y41.826
X14.917 Y41.601
Y41.375
X14.935 Y41.149
X14.971 Y40.924
X15.025 Y40.704
X15.097 Y40.488
X15.186 Y40.279
X15.291 Y40.078
X15.412 Y39.886
X15.549 Y39.705
X15.699 Y39.534
X15.863 Y39.376
X16.04 Y39.231
X16.227 Y39.101
X16.425 Y38.986
X16.631 Y38.888
X16.844 Y38.806
X17.062 Y38.742
X17.285 Y38.696
X17.511 Y38.668
X17.739 Y38.658
X17.967 Y38.666
X18.194 Y38.693
X18.418 Y38.737
X18.638 Y38.8
X18.852 Y38.88
X19.06 Y38.977
X19.26 Y39.091
X19.457 Y39.226
X19.649 Y39.381
X19.834 Y39.556
X20.009 Y39.751
X20.17 Y39.962
X20.314 Y40.187
X20.402 Y40.363
X20.594 Y40.915
X20.647 Y41.709
X20.486 Y42.475
X20.114 Y43.187
X19.572 Y43.76
X18.912 Y44.161
X18.145 Y44.377
X17.352
X16.585 Y44.161
X15.929 Y43.761
X15.381 Y43.18
X15.015 Y42.475
X14.852 Y41.682
X14.906 Y40.915
X15.178 Y40.152
X15.619 Y39.527
X16.229 Y39.027
X16.97 Y38.702
X17.762 Y38.596
X18.533 Y38.703
X19.271 Y39.027
X19.869 Y39.515
X20.323 Y40.155
X20.402 Y40.363
X20.407 Y40.397 Z-1.576
X20.411 Y40.423 Z-1.555
Y40.436 Z-1.531
X20.41 Y40.441 Z-1.505
G0 Z5
X17.452 Y42.402
Z-0.884
G1 Z-1.084 F600
G3 X18.047 Y40.598 Z-1.136 I0.297 J-0.902
X17.452 Y42.402 Z-1.188 I-0.297 J0.902
X18.047 Y40.598 Z-1.24 I0.297 J-0.902
X17.452 Y42.402 Z-1.292 I-0.297 J0.902
X18.047 Y40.598 Z-1.344 I0.297 J-0.902
X17.452 Y42.402 Z-1.397 I-0.297 J0.902
X18.047 Y40.598 Z-1.449 I0.297 J-0.902
X17.452 Y42.402 Z-1.501 I-0.297 J0.902
X18.047 Y40.598 Z-1.553 I0.297 J-0.902
X17.452 Y42.402 Z-1.605 I-0.297 J0.902
X18.047 Y40.598 Z-1.657 I0.297 J-0.902
X17.452 Y42.402 Z-1.709 I-0.297 J0.902
X18.047 Y40.598 Z-1.761 I0.297 J-0.902
X18.7 Y41.5 Z-1.782 I-0.297 J0.902
X16.8 I-0.95 J0
X18.7 I0.95 J0
G1 X18.724 Y41.981
X18.746 Y42.1
X18.737 Y42.234
X18.698 Y42.364
X18.637 Y42.484
X18.557 Y42.593
X18.462 Y42.689
X18.356 Y42.772
X18.24 Y42.841
X18.117 Y42.896
X17.988 Y42.937
X17.856 Y42.964
X17.721 Y42.976
X17.586 Y42.975
X17.452 Y42.961
X17.32 Y42.933
X17.191 Y42.893
X17.067 Y42.84
X16.948 Y42.776
X16.835 Y42.702
X16.73 Y42.617
X16.633 Y42.523
X16.545 Y42.421
X16.467 Y42.311
X16.399 Y42.194
X16.342 Y42.072
X16.296 Y41.945
X16.261 Y41.814
X16.239 Y41.681
X16.228 Y41.546
X16.23 Y41.411
X16.243 Y41.277
X16.269 Y41.145
X16.306 Y41.015
X16.354 Y40.889
X16.413 Y40.768
X16.483 Y40.652
X16.563 Y40.543
X16.653 Y40.442
X16.75 Y40.349
X16.856 Y40.265
X16.969 Y40.191
X17.088 Y40.127
X17.212 Y40.073
X17.34 Y40.031
X17.472 Y40.001
X17.605 Y39.982
X17.74 Y39.975
X17.875 Y39.98
X18.009 Y39.997
X18.141 Y40.026
X18.27 Y40.066
X18.394 Y40.118
X18.514 Y40.18
X18.628 Y40.253
X18.735 Y40.336
X18.834 Y40.427
X18.924 Y40.528
X19.006 Y40.635
X19.077 Y40.75
X19.152 Y40.895
X19.249 Y41.128
X19.317 Y41.34
X19.362 Y41.529
X19.386 Y41.686
X19.397 Y41.836
X19.396 Y41.979
X19.384 Y42.114
X19.361 Y42.25
X19.327 Y42.381
X19.283 Y42.509
X19.228 Y42.632
X19.163 Y42.75
X19.089 Y42.863
X19.005 Y42.97
X18.914 Y43.069
X18.812 Y43.162
X18.701 Y43.249
X18.585 Y43.325
X18.461 Y43.393
X18.328 Y43.453
X18.188 Y43.502
X18.046 Y43.54
X17.899 Y43.567
X17.747 Y43.582
X17.591 Y43.585
X17.434 Y43.575
X17.279 Y43.553
X17.126 Y43.519
X16.972 Y43.471
X16.821 Y43.41
X16.674 Y43.337
X16.532 Y43.251
X16.398 Y43.155
X16.272 Y43.048
X16.155 Y42.931
X16.046 Y42.803
X15.947 Y42.666
X15.859 Y42.521
X15.782 Y42.368
X15.717 Y42.209
X15.666 Y42.047
X15.628 Y41.881
X15.604 Y41.712
X15.593 Y41.542
X15.596 Y41.37
X15.613 Y41.199
X15.643 Y41.028
X15.687 Y40.861
X15.745 Y40.697
X15.816 Y40.538
X15.898 Y40.386
X15.992 Y40.242
X16.098 Y40.106
X16.214 Y39.979
X16.34 Y39.861
X16.476 Y39.754
X16.621 Y39.657
X16.773 Y39.572
X16.931 Y39.499
X17.095 Y39.44
X17.263 Y39.393
X17.433 Y39.361
X17.605 Y39.342
X17.777 Y39.338
X17.949 Y39.347
X18.121 Y39.37
X18.291 Y39.407
X18.458 Y39.457
X18.62 Y39.521
X18.777 Y39.597
X18.927 Y39.686
X19.069 Y39.787
X19.204 Y39.899
X19.334 Y40.026
X19.469 Y40.182
X19.6 Y40.36
X19.718 Y40.551
X19.821 Y40.751
X19.905 Y40.956
X19.972 Y41.161
X20.02 Y41.365
X20.051 Y41.568
X20.066 Y41.769
X20.064 Y41.967
X20.047 Y42.161
X20.014 Y42.35
X19.967 Y42.535
X19.906 Y42.714
X19.831 Y42.888
X19.742 Y43.054
X19.639 Y43.214
X19.524 Y43.365
X19.397 Y43.507
X19.257 Y43.639
X19.106 Y43.761
X18.945 Y43.871
X18.774 Y43.968
X18.569 Y44.057
X18.118 Y44.181
X17.379
X16.657 Y43.975
X16.038 Y43.595
X15.533 Y43.051
X15.196 Y42.393
X15.05 Y41.682
X15.102 Y40.943
X15.346 Y40.258
X15.778 Y39.648
X16.342 Y39.189
X17.023 Y38.893
X17.762 Y38.794
X18.493 Y38.898
X19.158 Y39.189
X19.73 Y39.656
X20.154 Y40.258
X20.399 Y40.943
X20.45 Y41.682
X20.294 Y42.421
X19.966 Y43.054
X19.458 Y43.599
X18.827 Y43.982
X18.569 Y44.057
X18.544 Y44.06 Z-1.778
X18.522 Y44.063 Z-1.766
X18.505 Y44.062 Z-1.749
X18.495 Y44.061 Z-1.727
X18.491 Z-1.703
G0 Z5
X17.453 Y42.402
Z-1.082
G1 Z-1.282 F600
G3 X18.048 Y40.598 Z-1.334 I0.297 J-0.902
X17.453 Y42.402 Z-1.386 I-0.297 J0.902
X18.048 Y40.598 Z-1.438 I0.297 J-0.902
X17.453 Y42.402 Z-1.49 I-0.297 J0.902
X18.048 Y40.598 Z-1.542 I0.297 J-0.902
X17.453 Y42.402 Z-1.595 I-0.297 J0.902
X18.048 Y40.598 Z-1.647 I0.297 J-0.902
X17.453 Y42.402 Z-1.699 I-0.297 J0.902
X18.048 Y40.598 Z-1.751 I0.297 J-0.902
X17.453 Y42.402 Z-1.803 I-0.297 J0.902
X18.048 Y40.598 Z-1.855 I0.297 J-0.902
X17.453 Y42.402 Z-1.907 I-0.297 J0.902
X18.048 Y40.598 Z-1.959 I0.297 J-0.902
X18.7 Y41.5 Z-1.98 I-0.297 J0.902
X16.8 I-0.95 J0
X18.7 I0.95 J0
G1 X18.725 Y41.981
X18.746 Y42.1
X18.737 Y42.234
X18.698 Y42.364
X18.637 Y42.484
X18.557 Y42.593
X18.463 Y42.689
X18.356 Y42.772
X18.24 Y42.841
X18.117 Y42.896
X17.988 Y42.937
X17.856 Y42.964
X17.721 Y42.976
X17.586 Y42.975
X17.452 Y42.961
X17.32 Y42.933
X17.191 Y42.893
X17.067 Y42.84
X16.948 Y42.776
X16.835 Y42.702
X16.73 Y42.617
X16.633 Y42.523
X16.545 Y42.421
X16.467 Y42.311
X16.399 Y42.194
X16.342 Y42.072
X16.296 Y41.945
X16.262 Y41.814
X16.239 Y41.681
X16.229 Y41.547
X16.23 Y41.412
X16.243 Y41.277
X16.269 Y41.145
X16.306 Y41.015
X16.354 Y40.889
X16.414 Y40.768
X16.484 Y40.652
X16.564 Y40.543
X16.653 Y40.442
X16.751 Y40.349
X16.856 Y40.265
X16.969 Y40.191
X17.088 Y40.127
X17.212 Y40.073
X17.34 Y40.031
X17.472 Y40.001
X17.606 Y39.982
X17.74 Y39.975
X17.875 Y39.98
X18.009 Y39.997
X18.141 Y40.026
X18.27 Y40.067
X18.395 Y40.118
X18.514 Y40.181
X18.628 Y40.253
X18.735 Y40.336
X18.834 Y40.428
X18.925 Y40.528
X19.006 Y40.635
X19.078 Y40.75
X19.152 Y40.895
X19.249 Y41.128
X19.318 Y41.34
X19.363 Y41.53
X19.387 Y41.686
X19.398 Y41.836
X19.396 Y41.979
X19.385 Y42.114
X19.361 Y42.25
X19.328 Y42.381
X19.283 Y42.509
X19.228 Y42.632
X19.164 Y42.751
X19.089 Y42.863
X19.005 Y42.97
X18.914 Y43.069
X18.812 Y43.162
X18.701 Y43.249
X18.585 Y43.325
X18.462 Y43.393
X18.328 Y43.453
X18.188 Y43.502
X18.046 Y43.54
X17.9 Y43.567
X17.747 Y43.582
X17.591 Y43.585
X17.434 Y43.575
X17.279 Y43.553
X17.126 Y43.519
X16.973 Y43.471
X16.821 Y43.41
X16.674 Y43.337
X16.532 Y43.251
X16.398 Y43.155
X16.272 Y43.048
X16.155 Y42.931
X16.046 Y42.804
X15.947 Y42.667
X15.859 Y42.521
X15.782 Y42.368
X15.718 Y42.21
X15.666 Y42.047
X15.629 Y41.881
X15.604 Y41.712
X15.593 Y41.542
X15.596 Y41.37
X15.613 Y41.199
X15.643 Y41.029
X15.688 Y40.861
X15.745 Y40.697
X15.816 Y40.538
X15.898 Y40.386
X15.993 Y40.242
X16.098 Y40.106
X16.214 Y39.979
X16.341 Y39.861
X16.476 Y39.754
X16.621 Y39.657
X16.773 Y39.572
X16.932 Y39.499
X17.096 Y39.44
X17.263 Y39.393
X17.433 Y39.361
X17.605 Y39.342
X17.777 Y39.338
X17.95 Y39.347
X18.122 Y39.37
X18.291 Y39.407
X18.458 Y39.457
X18.621 Y39.521
X18.778 Y39.597
X18.928 Y39.686
X19.07 Y39.787
X19.205 Y39.899
X19.334 Y40.026
X19.469 Y40.182
X19.6 Y40.36
X19.718 Y40.551
X19.821 Y40.752
X19.906 Y40.956
X19.972 Y41.161
X20.02 Y41.365
X20.052 Y41.568
X20.066 Y41.769
X20.064 Y41.967
X20.047 Y42.161
X20.015 Y42.35
X19.968 Y42.535
X19.906 Y42.714
X19.804 Y42.934
X19.754 Y42.998
X19.322 Y43.455
X18.747 Y43.801
X18.09 Y43.985
X17.406 Y43.984
X16.75 Y43.8
X16.175 Y43.452
X15.692 Y42.934
X15.381 Y42.324
X15.247 Y41.654
X15.293 Y40.997
X15.526 Y40.34
X15.929 Y39.777
X16.451 Y39.355
X17.078 Y39.084
X17.762 Y38.992
X18.419 Y39.082
X19.05 Y39.355
X19.588 Y39.793
X19.979 Y40.35
X20.207 Y40.997
X20.251 Y41.682
X20.109 Y42.353
X19.803 Y42.941
X19.754 Y42.998
X19.729 Y43.015 Z-1.974
X19.708 Y43.029 Z-1.957
X19.694 Y43.038 Z-1.931
X19.689 Y43.041 Z-1.901
G0 Z5
X17.452 Y42.402
Z-1.28
G1 Z-1.48 F600
G3 X18.047 Y40.598 Z-1.532 I0.297 J-0.902
X17.452 Y42.402 Z-1.584 I-0.297 J0.902
X18.047 Y40.598 Z-1.636 I0.297 J-0.902
X17.452 Y42.402 Z-1.688 I-0.297 J0.902
X18.047 Y40.598 Z-1.74 I0.297 J-0.902
X17.452 Y42.402 Z-1.793 I-0.297 J0.902
X18.047 Y40.598 Z-1.845 I0.297 J-0.902
X17.452 Y42.402 Z-1.897 I-0.297 J0.902
X18.047 Y40.598 Z-1.949 I0.297 J-0.902
X17.452 Y42.402 Z-2.001 I-0.297 J0.902
X18.047 Y40.598 Z-2.053 I0.297 J-0.902
X17.452 Y42.402 Z-2.105 I-0.297 J0.902
X18.047 Y40.598 Z-2.157 I0.297 J-0.902
X18.7 Y41.5 Z-2.178 I-0.297 J0.902
X16.8 I-0.95 J0
X18.7 I0.95 J0
G1 X18.724 Y41.981
X18.746 Y42.1
X18.737 Y42.234
X18.698 Y42.364
X18.637 Y42.484
X18.557 Y42.593
X18.462 Y42.689
X18.356 Y42.772
X18.24 Y42.841
X18.117 Y42.896
X17.988 Y42.937
X17.856 Y42.963
X17.721 Y42.976
X17.586 Y42.975
X17.452 Y42.96
X17.32 Y42.933
X17.191 Y42.892
X17.067 Y42.84
X16.948 Y42.776
X16.835 Y42.702
X16.73 Y42.617
X16.633 Y42.523
X16.545 Y42.42
X16.467 Y42.31
X16.399 Y42.194
X16.342 Y42.071
X16.296 Y41.944
X16.261 Y41.814
X16.239 Y41.681
X16.228 Y41.546
X16.23 Y41.411
X16.243 Y41.277
X16.269 Y41.144
X16.306 Y41.015
X16.354 Y40.889
X16.413 Y40.767
X16.483 Y40.652
X16.563 Y40.543
X16.652 Y40.442
X16.75 Y40.349
X16.856 Y40.265
X16.969 Y40.19
X17.088 Y40.126
X17.212 Y40.073
X17.34 Y40.031
X17.471 Y40.001
X17.605 Y39.982
X17.74 Y39.975
X17.875 Y39.98
X18.009 Y39.997
X18.141 Y40.026
X18.27 Y40.066
X18.394 Y40.118
X18.514 Y40.18
X18.628 Y40.253
X18.735 Y40.336
X18.834 Y40.427
X18.924 Y40.527
X19.006 Y40.635
X19.077 Y40.749
X19.152 Y40.895
X19.249 Y41.127
X19.317 Y41.34
X19.362 Y41.529
X19.386 Y41.685
X19.397 Y41.835
X19.396 Y41.979
X19.384 Y42.114
X19.361 Y42.25
X19.327 Y42.381
X19.283 Y42.508
X19.228 Y42.632
X19.163 Y42.75
X19.089 Y42.863
X19.005 Y42.969
X18.914 Y43.069
X18.812 Y43.162
X18.701 Y43.249
X18.585 Y43.325
X18.461 Y43.393
X18.328 Y43.452
X18.188 Y43.502
X18.046 Y43.54
X17.899 Y43.566
X17.747 Y43.582
X17.59 Y43.585
X17.434 Y43.575
X17.279 Y43.553
X17.126 Y43.519
X16.972 Y43.471
X16.821 Y43.41
X16.673 Y43.336
X16.532 Y43.251
X16.398 Y43.155
X16.272 Y43.048
X16.155 Y42.931
X16.046 Y42.803
X15.947 Y42.666
X15.858 Y42.521
X15.782 Y42.368
X15.717 Y42.209
X15.666 Y42.046
X15.628 Y41.88
X15.604 Y41.712
X15.593 Y41.542
X15.596 Y41.37
X15.613 Y41.199
X15.643 Y41.028
X15.687 Y40.861
X15.745 Y40.697
X15.815 Y40.538
X15.898 Y40.386
X15.992 Y40.242
X16.098 Y40.106
X16.214 Y39.979
X16.34 Y39.861
X16.476 Y39.753
X16.621 Y39.657
X16.773 Y39.572
X16.931 Y39.499
X17.095 Y39.439
X17.263 Y39.393
X17.433 Y39.361
X17.605 Y39.342
X17.777 Y39.337
X17.949 Y39.346
X18.121 Y39.369
X18.291 Y39.406
X18.458 Y39.457
X18.62 Y39.521
X18.777 Y39.597
X18.927 Y39.686
X19.069 Y39.786
X19.204 Y39.899
X19.334 Y40.026
X19.469 Y40.182
X19.599 Y40.359
X19.718 Y40.55
X19.821 Y40.751
X19.905 Y40.955
X19.972 Y41.161
X20.02 Y41.365
X20.052 Y41.586
X20.055 Y41.654
X19.923 Y42.284
X19.635 Y42.835
X19.203 Y43.296
X18.665 Y43.621
X18.063 Y43.789
X17.434 Y43.788
X16.825 Y43.617
X16.278 Y43.279
X15.863 Y42.832
X15.578 Y42.284
X15.445 Y41.654
X15.491 Y41.016
X15.692 Y40.45
X16.057 Y39.927
X16.561 Y39.52
X17.133 Y39.273
X17.762 Y39.19
X18.391 Y39.281
X18.966 Y39.537
X19.431 Y39.917
X19.76 Y40.374
X19.807 Y40.45
X20.011 Y41.025
X20.052 Y41.586
Y41.589
X20.046 Y41.618 Z-2.171
X20.042 Y41.641 Z-2.154
X20.039 Y41.657 Z-2.129
X20.038 Y41.663 Z-2.099
G0 Z5
X17.452 Y42.402
Z-1.478
G1 Z-1.678 F600
G3 X18.047 Y40.598 Z-1.73 I0.297 J-0.902
X17.452 Y42.402 Z-1.782 I-0.297 J0.902
X18.047 Y40.598 Z-1.834 I0.297 J-0.902
X17.452 Y42.402 Z-1.886 I-0.297 J0.902
X18.047 Y40.598 Z-1.938 I0.297 J-0.902
X17.452 Y42.402 Z-1.991 I-0.297 J0.902
X18.047 Y40.598 Z-2.043 I0.297 J-0.902
X17.452 Y42.402 Z-2.095 I-0.297 J0.902
X18.047 Y40.598 Z-2.147 I0.297 J-0.902
X17.452 Y42.402 Z-2.199 I-0.297 J0.902
X18.047 Y40.598 Z-2.251 I0.297 J-0.902
X17.452 Y42.402 Z-2.303 I-0.297 J0.902
X18.047 Y40.598 Z-2.355 I0.297 J-0.902
X18.7 Y41.5 Z-2.376 I-0.297 J0.902
X16.8 I-0.95 J0
X18.7 I0.95 J0
G1 X18.725 Y41.981
X18.746 Y42.1
X18.737 Y42.235
X18.698 Y42.364
X18.637 Y42.484
X18.557 Y42.593
X18.463 Y42.689
X18.356 Y42.772
X18.24 Y42.841
X18.117 Y42.896
X17.988 Y42.937
X17.856 Y42.964
X17.721 Y42.977
X17.586 Y42.975
X17.452 Y42.961
X17.32 Y42.933
X17.191 Y42.893
X17.067 Y42.84
X16.948 Y42.777
X16.835 Y42.702
X16.73 Y42.617
X16.633 Y42.523
X16.545 Y42.421
X16.467 Y42.311
X16.399 Y42.194
X16.342 Y42.072
X16.296 Y41.945
X16.262 Y41.814
X16.239 Y41.681
X16.228 Y41.547
X16.23 Y41.412
X16.243 Y41.277
X16.269 Y41.145
X16.306 Y41.015
X16.354 Y40.889
X16.414 Y40.768
X16.484 Y40.652
X16.563 Y40.543
X16.653 Y40.442
X16.751 Y40.349
X16.856 Y40.265
X16.969 Y40.191
X17.088 Y40.127
X17.212 Y40.074
X17.34 Y40.032
X17.472 Y40.001
X17.605 Y39.982
X17.74 Y39.975
X17.875 Y39.981
X18.009 Y39.998
X18.141 Y40.026
X18.27 Y40.067
X18.394 Y40.118
X18.514 Y40.181
X18.628 Y40.253
X18.735 Y40.336
X18.834 Y40.428
X18.924 Y40.528
X19.006 Y40.635
X19.077 Y40.75
X19.152 Y40.895
X19.249 Y41.128
X19.317 Y41.34
X19.363 Y41.53
X19.387 Y41.686
X19.397 Y41.836
X19.396 Y41.979
X19.384 Y42.114
X19.361 Y42.251
X19.327 Y42.381
X19.283 Y42.509
X19.228 Y42.632
X19.164 Y42.751
X19.089 Y42.863
X19.005 Y42.97
X18.914 Y43.069
X18.812 Y43.162
X18.701 Y43.249
X18.585 Y43.325
X18.461 Y43.393
X18.328 Y43.453
X18.188 Y43.502
X18.046 Y43.54
X17.9 Y43.567
X17.747 Y43.582
X17.591 Y43.585
X17.361 Y43.565
X17.321 Y43.555
X17.133 Y43.503
X16.914 Y43.44
X16.408 Y43.131
X16.02 Y42.712
X15.759 Y42.202
X15.642 Y41.627
X15.68 Y41.079
X15.873 Y40.532
X16.198 Y40.068
X16.652 Y39.696
X17.186 Y39.465
X17.762 Y39.388
X18.337 Y39.472
X18.855 Y39.7
X19.289 Y40.053
X19.627 Y40.532
X19.82 Y41.079
X19.857 Y41.654
X19.743 Y42.202
X19.473 Y42.722
X19.079 Y43.142
X18.579 Y43.443
X18.036 Y43.593
X17.461
X17.321 Y43.555
X17.295 Y43.541 Z-2.37
X17.273 Y43.529 Z-2.353
X17.258 Y43.521 Z-2.327
X17.253 Y43.518 Z-2.297
G0 Z5
X17.453 Y42.402
Z-1.676
G1 Z-1.876 F600
G3 X18.048 Y40.598 Z-1.928 I0.297 J-0.902
X17.453 Y42.402 Z-1.98 I-0.297 J0.902
X18.048 Y40.598 Z-2.032 I0.297 J-0.902
X17.453 Y42.402 Z-2.084 I-0.297 J0.902
X18.048 Y40.598 Z-2.136 I0.297 J-0.902
X17.453 Y42.402 Z-2.189 I-0.297 J0.902
X18.048 Y40.598 Z-2.241 I0.297 J-0.902
X17.453 Y42.402 Z-2.293 I-0.297 J0.902
X18.048 Y40.598 Z-2.345 I0.297 J-0.902
X17.453 Y42.402 Z-2.397 I-0.297 J0.902
X18.048 Y40.598 Z-2.449 I0.297 J-0.902
X17.453 Y42.402 Z-2.501 I-0.297 J0.902
X18.048 Y40.598 Z-2.553 I0.297 J-0.902
X18.7 Y41.5 Z-2.574 I-0.297 J0.902
X16.8 I-0.95 J0
X18.7 I0.95 J0
G1 X18.725 Y41.981
X18.747 Y42.1
X18.737 Y42.234
X18.699 Y42.364
X18.637 Y42.484
X18.557 Y42.593
X18.463 Y42.689
X18.356 Y42.772
X18.24 Y42.841
X18.117 Y42.896
X17.988 Y42.937
X17.856 Y42.964
X17.722 Y42.976
X17.587 Y42.975
X17.452 Y42.961
X17.32 Y42.933
X17.191 Y42.893
X17.067 Y42.84
X16.948 Y42.776
X16.836 Y42.702
X16.73 Y42.617
X16.634 Y42.523
X16.546 Y42.421
X16.467 Y42.311
X16.399 Y42.194
X16.342 Y42.072
X16.296 Y41.945
X16.262 Y41.814
X16.239 Y41.681
X16.229 Y41.546
X16.23 Y41.411
X16.244 Y41.277
X16.269 Y41.145
X16.306 Y41.015
X16.354 Y40.889
X16.414 Y40.767
X16.484 Y40.652
X16.564 Y40.543
X16.653 Y40.442
X16.751 Y40.349
X16.857 Y40.265
X16.969 Y40.191
X17.088 Y40.127
X17.212 Y40.073
X17.34 Y40.031
X17.472 Y40.001
X17.606 Y39.982
X17.74 Y39.975
X17.875 Y39.98
X18.009 Y39.997
X18.141 Y40.026
X18.27 Y40.066
X18.395 Y40.118
X18.514 Y40.18
X18.628 Y40.253
X18.735 Y40.336
X18.834 Y40.427
X18.925 Y40.527
X19.006 Y40.635
X19.078 Y40.75
X19.152 Y40.895
X19.249 Y41.128
X19.318 Y41.34
X19.363 Y41.529
X19.387 Y41.686
X19.398 Y41.836
X19.397 Y41.979
X19.385 Y42.114
X19.361 Y42.25
X19.328 Y42.381
X19.283 Y42.509
X19.228 Y42.632
X19.131 Y42.799
X19.097 Y42.839
X18.954 Y42.989
X18.501 Y43.26
X18.008 Y43.397
X17.488 Y43.396
X16.996 Y43.26
X16.555 Y42.993
X16.193 Y42.613
X15.948 Y42.147
X15.84 Y41.627
X15.876 Y41.107
X16.048 Y40.625
X16.342 Y40.205
X16.755 Y39.865
X17.242 Y39.655
X17.762 Y39.586
X18.281 Y39.661
X18.747 Y39.866
X19.147 Y40.192
X19.454 Y40.629
X19.624 Y41.107
X19.66 Y41.627
X19.55 Y42.151
X19.304 Y42.616
X19.097 Y42.839
X19.073 Y42.856 Z-2.568
X19.051 Y42.87 Z-2.551
X19.037 Y42.879 Z-2.525
X19.032 Y42.882 Z-2.495
G0 Z5
X17.453 Y42.4
Z-1.874
G1 Z-2.074 F600
G3 X18.048 Y40.596 Z-2.126 I0.297 J-0.902
X17.453 Y42.4 Z-2.178 I-0.297 J0.902
X18.048 Y40.596 Z-2.23 I0.297 J-0.902
X17.453 Y42.4 Z-2.282 I-0.297 J0.902
X18.048 Y40.596 Z-2.334 I0.297 J-0.902
X17.453 Y42.4 Z-2.387 I-0.297 J0.902
X18.048 Y40.596 Z-2.439 I0.297 J-0.902
X17.453 Y42.4 Z-2.491 I-0.297 J0.902
X18.048 Y40.596 Z-2.543 I0.297 J-0.902
X17.453 Y42.4 Z-2.595 I-0.297 J0.902
X18.048 Y40.596 Z-2.647 I0.297 J-0.902
X17.453 Y42.4 Z-2.699 I-0.297 J0.902
X18.048 Y40.596 Z-2.751 I0.297 J-0.902
X18.7 Y41.498 Z-2.772 I-0.297 J0.902
X16.8 I-0.95 J0
X18.7 I0.95 J0
G1 X18.725 Y41.979
X18.747 Y42.098
X18.737 Y42.233
X18.699 Y42.362
X18.637 Y42.482
X18.558 Y42.591
X18.463 Y42.687
X18.357 Y42.77
X18.241 Y42.839
X18.117 Y42.894
X17.989 Y42.935
X17.856 Y42.962
X17.722 Y42.974
X17.587 Y42.973
X17.453 Y42.959
X17.321 Y42.931
X17.192 Y42.891
X17.067 Y42.838
X16.948 Y42.775
X16.836 Y42.7
X16.731 Y42.615
X16.634 Y42.521
X16.546 Y42.419
X16.468 Y42.309
X16.4 Y42.192
X16.343 Y42.07
X16.297 Y41.943
X16.262 Y41.812
X16.24 Y41.679
X16.229 Y41.545
X16.23 Y41.41
X16.244 Y41.275
X16.269 Y41.143
X16.306 Y41.013
X16.355 Y40.887
X16.414 Y40.766
X16.484 Y40.65
X16.564 Y40.541
X16.653 Y40.44
X16.751 Y40.347
X16.857 Y40.263
X16.97 Y40.189
X17.088 Y40.125
X17.212 Y40.072
X17.341 Y40.029
X17.472 Y39.999
X17.606 Y39.98
X17.741 Y39.973
X17.876 Y39.978
X18.01 Y39.995
X18.141 Y40.024
X18.27 Y40.065
X18.395 Y40.116
X18.515 Y40.179
X18.628 Y40.251
X18.735 Y40.334
X18.834 Y40.426
X18.925 Y40.526
X19.006 Y40.633
X19.078 Y40.748
X19.153 Y40.893
X19.249 Y41.126
X19.318 Y41.338
X19.363 Y41.528
X19.387 Y41.684
X19.398 Y41.871
X19.38 Y41.995
X19.3 Y42.256
X18.941 Y42.749
X18.884 Y42.801
X18.387 Y43.107
X18.227 Y43.143
X17.789 Y43.224
X17.68 Y43.22
X17.115 Y43.108
X16.585 Y42.776
X16.316 Y42.421
X16.2 Y42.256
X16.032 Y41.681
X16.046 Y41.435
X16.089 Y41.025
X16.316 Y40.559
X16.381 Y40.45
X16.84 Y40.031
X17.406 Y39.808
X17.461 Y39.799
X18.063 Y39.802
X18.227 Y39.858
X18.623 Y40.012
X18.69 Y40.053
X19.119 Y40.45
X19.293 Y40.778
X19.401 Y40.997
X19.424 Y41.107
X19.472 Y41.654
X19.38 Y41.995
X19.365 Y42.021 Z-2.766
X19.353 Y42.043 Z-2.749
X19.345 Y42.058 Z-2.723
X19.342 Y42.063 Z-2.693
G0 Z5
X17.453 Y42.401
Z-2.072
G1 Z-2.272 F600
G3 X18.048 Y40.596 Z-2.324 I0.297 J-0.902
X17.453 Y42.401 Z-2.376 I-0.297 J0.902
X18.048 Y40.596 Z-2.428 I0.297 J-0.902
X17.453 Y42.401 Z-2.48 I-0.297 J0.902
X18.048 Y40.596 Z-2.532 I0.297 J-0.902
X17.453 Y42.401 Z-2.585 I-0.297 J0.902
X18.048 Y40.596 Z-2.637 I0.297 J-0.902
X17.453 Y42.401 Z-2.689 I-0.297 J0.902
X18.048 Y40.596 Z-2.741 I0.297 J-0.902
X17.453 Y42.401 Z-2.793 I-0.297 J0.902
X18.048 Y40.596 Z-2.845 I0.297 J-0.902
X17.453 Y42.401 Z-2.897 I-0.297 J0.902
X18.048 Y40.596 Z-2.949 I0.297 J-0.902
X18.7 Y41.498 Z-2.97 I-0.297 J0.902
X16.8 I-0.95 J0
X18.7 I0.95 J0
G1 X18.725 Y41.98
X18.746 Y42.098
X18.737 Y42.233
X18.698 Y42.362
X18.637 Y42.482
X18.557 Y42.591
X18.463 Y42.688
X18.356 Y42.771
X18.24 Y42.84
X18.117 Y42.895
X17.988 Y42.935
X17.856 Y42.962
X17.721 Y42.975
X17.586 Y42.974
X17.452 Y42.959
X17.32 Y42.931
X17.191 Y42.891
X17.067 Y42.839
X16.948 Y42.775
X16.835 Y42.7
X16.73 Y42.615
X16.633 Y42.521
X16.546 Y42.419
X16.467 Y42.309
X16.399 Y42.192
X16.342 Y42.07
X16.296 Y41.943
X16.262 Y41.812
X16.239 Y41.679
X16.229 Y41.545
X16.23 Y41.41
X16.244 Y41.275
X16.269 Y41.143
X16.306 Y41.013
X16.354 Y40.887
X16.414 Y40.766
X16.484 Y40.65
X16.564 Y40.542
X16.653 Y40.44
X16.751 Y40.347
X16.856 Y40.263
X16.969 Y40.189
X17.088 Y40.125
X17.212 Y40.072
X17.34 Y40.03
X17.472 Y39.999
X17.606 Y39.98
X17.74 Y39.974
X17.875 Y39.979
X18.009 Y39.996
X18.141 Y40.024
X18.27 Y40.065
X18.395 Y40.116
X18.514 Y40.179
X18.628 Y40.252
X18.735 Y40.334
X18.834 Y40.426
X18.925 Y40.526
X19.006 Y40.634
X19.078 Y40.748
X19.152 Y40.893
X19.249 Y41.126
X19.318 Y41.338
X19.363 Y41.528
X19.387 Y41.684
X19.397 Y41.872
X19.38 Y41.996
X19.3 Y42.256
X18.941 Y42.749
X18.884 Y42.801
X18.387 Y43.107
X18.227 Y43.143
X17.789 Y43.224
X17.68 Y43.22
X17.115 Y43.108
X16.585 Y42.776
X16.316 Y42.421
X16.2 Y42.256
X16.032 Y41.681
X16.046 Y41.435
X16.089 Y41.025
X16.316 Y40.559
X16.381 Y40.45
X16.84 Y40.031
X17.406 Y39.808
X17.461 Y39.799
X18.063 Y39.802
X18.227 Y39.858
X18.623 Y40.012
X18.69 Y40.053
X19.119 Y40.45
X19.293 Y40.778
X19.401 Y40.997
X19.424 Y41.107
X19.472 Y41.654
X19.38 Y41.996
X19.365 Y42.023 Z-2.964
X19.353 Y42.045 Z-2.947
X19.344 Y42.059 Z-2.921
X19.342 Y42.065 Z-2.891
G0 Z5
X17.453 Y42.401
Z-2.27
G1 Z-2.47 F600
G3 X18.048 Y40.596 Z-2.522 I0.297 J-0.902
X17.453 Y42.401 Z-2.574 I-0.297 J0.902
X18.048 Y40.596 Z-2.626 I0.297 J-0.902
X17.453 Y42.401 Z-2.678 I-0.297 J0.902
X18.048 Y40.596 Z-2.73 I0.297 J-0.902
X17.453 Y42.401 Z-2.783 I-0.297 J0.902
X18.048 Y40.596 Z-2.835 I0.297 J-0.902
X17.453 Y42.401 Z-2.887 I-0.297 J0.902
X18.048 Y40.596 Z-2.939 I0.297 J-0.902
X17.453 Y42.401 Z-2.991 I-0.297 J0.902
X18.048 Y40.596 Z-3.043 I0.297 J-0.902
X17.453 Y42.401 Z-3.095 I-0.297 J0.902
X18.048 Y40.596 Z-3.147 I0.297 J-0.902
X18.7 Y41.498 Z-3.168 I-0.297 J0.902
X16.8 I-0.95 J0
X18.7 I0.95 J0
G1 X18.725 Y41.98
X18.746 Y42.098
X18.737 Y42.233
X18.698 Y42.362
X18.637 Y42.482
X18.557 Y42.591
X18.463 Y42.688
X18.356 Y42.771
X18.24 Y42.84
X18.117 Y42.895
X17.988 Y42.935
X17.856 Y42.962
X17.721 Y42.975
X17.586 Y42.974
X17.452 Y42.959
X17.32 Y42.931
X17.191 Y42.891
X17.067 Y42.839
X16.948 Y42.775
X16.835 Y42.7
X16.73 Y42.615
X16.633 Y42.521
X16.546 Y42.419
X16.467 Y42.309
X16.399 Y42.192
X16.342 Y42.07
X16.296 Y41.943
X16.262 Y41.812
X16.239 Y41.679
X16.229 Y41.545
X16.23 Y41.41
X16.244 Y41.275
X16.269 Y41.143
X16.306 Y41.013
X16.354 Y40.887
X16.414 Y40.766
X16.484 Y40.65
X16.564 Y40.542
X16.653 Y40.44
X16.751 Y40.347
X16.856 Y40.263
X16.969 Y40.189
X17.088 Y40.125
X17.212 Y40.072
X17.34 Y40.03
X17.472 Y39.999
X17.606 Y39.98
X17.74 Y39.974
X17.875 Y39.979
X18.009 Y39.996
X18.141 Y40.024
X18.27 Y40.065
X18.395 Y40.116
X18.514 Y40.179
X18.628 Y40.252
X18.735 Y40.334
X18.834 Y40.426
X18.925 Y40.526
X19.006 Y40.634
X19.078 Y40.748
X19.152 Y40.893
X19.249 Y41.126
X19.318 Y41.338
X19.363 Y41.528
X19.387 Y41.684
X19.397 Y41.872
X19.38 Y41.996
X19.3 Y42.256
X18.941 Y42.749
X18.884 Y42.801
X18.387 Y43.107
X18.227 Y43.143
X17.789 Y43.224
X17.68 Y43.22
X17.115 Y43.108
X16.585 Y42.776
X16.316 Y42.421
X16.2 Y42.256
X16.032 Y41.681
X16.046 Y41.435
X16.089 Y41.025
X16.316 Y40.559
X16.381 Y40.45
X16.84 Y40.031
X17.406 Y39.808
X17.461 Y39.799
X18.063 Y39.802
X18.227 Y39.858
X18.623 Y40.012
X18.69 Y40.053
X19.119 Y40.45
X19.293 Y40.778
X19.401 Y40.997
X19.424 Y41.107
X19.472 Y41.654
X19.38 Y41.996
X19.365 Y42.023 Z-3.162
X19.353 Y42.045 Z-3.145
X19.344 Y42.059 Z-3.119
X19.342 Y42.065 Z-3.089
G0 Z5
X17.453 Y42.401
Z-2.468
G1 Z-2.668 F600
G3 X18.048 Y40.596 Z-2.72 I0.297 J-0.902
X17.453 Y42.401 Z-2.772 I-0.297 J0.902
X18.048 Y40.596 Z-2.824 I0.297 J-0.902
X17.453 Y42.401 Z-2.876 I-0.297 J0.902
X18.048 Y40.596 Z-2.928 I0.297 J-0.902
X17.453 Y42.401 Z-2.981 I-0.297 J0.902
X18.048 Y40.596 Z-3.033 I0.297 J-0.902
X17.453 Y42.401 Z-3.085 I-0.297 J0.902
X18.048 Y40.596 Z-3.137 I0.297 J-0.902
X17.453 Y42.401 Z-3.189 I-0.297 J0.902
X18.048 Y40.596 Z-3.241 I0.297 J-0.902
X17.453 Y42.401 Z-3.293 I-0.297 J0.902
X18.048 Y40.596 Z-3.345 I0.297 J-0.902
X18.7 Y41.498 Z-3.366 I-0.297 J0.902
X16.8 I-0.95 J0
X18.7 I0.95 J0
G1 X18.725 Y41.98
X18.747 Y42.098
X18.737 Y42.233
X18.699 Y42.362
X18.637 Y42.482
X18.557 Y42.591
X18.463 Y42.688
X18.356 Y42.771
X18.24 Y42.84
X18.117 Y42.895
X17.988 Y42.935
X17.856 Y42.962
X17.722 Y42.975
X17.587 Y42.974
X17.452 Y42.959
X17.32 Y42.931
X17.191 Y42.891
X17.067 Y42.839
X16.948 Y42.775
X16.835 Y42.7
X16.73 Y42.615
X16.633 Y42.521
X16.546 Y42.419
X16.467 Y42.309
X16.399 Y42.192
X16.342 Y42.07
X16.296 Y41.943
X16.262 Y41.813
X16.239 Y41.679
X16.229 Y41.545
X16.23 Y41.41
X16.244 Y41.276
X16.269 Y41.143
X16.306 Y41.013
X16.354 Y40.887
X16.414 Y40.766
X16.484 Y40.65
X16.564 Y40.542
X16.653 Y40.44
X16.751 Y40.347
X16.856 Y40.263
X16.969 Y40.189
X17.088 Y40.125
X17.212 Y40.072
X17.34 Y40.03
X17.472 Y39.999
X17.606 Y39.98
X17.74 Y39.974
X17.875 Y39.979
X18.009 Y39.996
X18.141 Y40.024
X18.27 Y40.065
X18.395 Y40.116
X18.514 Y40.179
X18.628 Y40.252
X18.735 Y40.334
X18.834 Y40.426
X18.925 Y40.526
X19.006 Y40.634
X19.078 Y40.748
X19.152 Y40.893
X19.249 Y41.126
X19.318 Y41.338
X19.363 Y41.528
X19.387 Y41.684
X19.397 Y41.872
X19.38 Y41.996
X19.3 Y42.256
X18.941 Y42.749
X18.884 Y42.801
X18.387 Y43.107
X18.227 Y43.143
X17.789 Y43.224
X17.68 Y43.22
X17.115 Y43.108
X16.585 Y42.776
X16.316 Y42.421
X16.2 Y42.256
X16.032 Y41.681
X16.046 Y41.435
X16.089 Y41.025
X16.316 Y40.559
X16.381 Y40.45
X16.84 Y40.031
X17.406 Y39.808
X17.461 Y39.799
X18.063 Y39.802
X18.227 Y39.858
X18.623 Y40.012
X18.69 Y40.053
X19.119 Y40.45
X19.293 Y40.778
X19.401 Y40.997
X19.424 Y41.107
X19.472 Y41.654
X19.38 Y41.996
X19.365 Y42.022 Z-3.36
X19.353 Y42.044 Z-3.343
X19.344 Y42.059 Z-3.317
X19.342 Y42.064 Z-3.287
G0 Z5
X17.453 Y42.401
Z-2.666
G1 Z-2.866 F600
G3 X18.048 Y40.596 Z-2.918 I0.297 J-0.902
X17.453 Y42.401 Z-2.97 I-0.297 J0.902
X18.048 Y40.596 Z-3.022 I0.297 J-0.902
X17.453 Y42.401 Z-3.074 I-0.297 J0.902
X18.048 Y40.596 Z-3.126 I0.297 J-0.902
X17.453 Y42.401 Z-3.179 I-0.297 J0.902
X18.048 Y40.596 Z-3.231 I0.297 J-0.902
X17.453 Y42.401 Z-3.283 I-0.297 J0.902
X18.048 Y40.596 Z-3.335 I0.297 J-0.902
X17.453 Y42.401 Z-3.387 I-0.297 J0.902
X18.048 Y40.596 Z-3.439 I0.297 J-0.902
X17.453 Y42.401 Z-3.491 I-0.297 J0.902
X18.048 Y40.596 Z-3.543 I0.297 J-0.902
X18.7 Y41.498 Z-3.564 I-0.297 J0.902
X16.8 I-0.95 J0
X18.7 I0.95 J0
G1 X18.725 Y41.98
X18.746 Y42.098
X18.737 Y42.233
X18.698 Y42.362
X18.637 Y42.482
X18.557 Y42.591
X18.463 Y42.688
X18.356 Y42.771
X18.24 Y42.84
X18.117 Y42.895
X17.988 Y42.935
X17.856 Y42.962
X17.721 Y42.975
X17.586 Y42.974
X17.452 Y42.959
X17.32 Y42.931
X17.191 Y42.891
X17.067 Y42.839
X16.948 Y42.775
X16.835 Y42.7
X16.73 Y42.615
X16.633 Y42.521
X16.546 Y42.419
X16.467 Y42.309
X16.399 Y42.192
X16.342 Y42.07
X16.296 Y41.943
X16.262 Y41.812
X16.239 Y41.679
X16.229 Y41.545
X16.23 Y41.41
X16.244 Y41.275
X16.269 Y41.143
X16.306 Y41.013
X16.354 Y40.887
X16.414 Y40.766
X16.484 Y40.65
X16.564 Y40.542
X16.653 Y40.44
X16.751 Y40.347
X16.856 Y40.263
X16.969 Y40.189
X17.088 Y40.125
X17.212 Y40.072
X17.34 Y40.03
X17.472 Y39.999
X17.606 Y39.98
X17.74 Y39.974
X17.875 Y39.979
X18.009 Y39.996
X18.141 Y40.024
X18.27 Y40.065
X18.395 Y40.116
X18.514 Y40.179
X18.628 Y40.252
X18.735 Y40.334
X18.834 Y40.426
X18.925 Y40.526
X19.006 Y40.634
X19.078 Y40.748
X19.152 Y40.893
X19.249 Y41.126
X19.318 Y41.338
X19.363 Y41.528
X19.387 Y41.684
X19.397 Y41.872
X19.38 Y41.996
X19.3 Y42.256
X18.941 Y42.749
X18.884 Y42.801
X18.387 Y43.107
X18.227 Y43.143
X17.789 Y43.224
X17.68 Y43.22
X17.115 Y43.108
X16.585 Y42.776
X16.316 Y42.421
X16.2 Y42.256
X16.032 Y41.681
X16.046 Y41.435
X16.089 Y41.025
X16.316 Y40.559
X16.381 Y40.45
X16.84 Y40.031
X17.406 Y39.808
X17.461 Y39.799
X18.063 Y39.802
X18.227 Y39.858
X18.623 Y40.012
X18.69 Y40.053
X19.119 Y40.45
X19.293 Y40.778
X19.401 Y40.997
X19.424 Y41.107
X19.472 Y41.654
X19.38 Y41.996
X19.365 Y42.023 Z-3.558
X19.353 Y42.045 Z-3.541
X19.344 Y42.059 Z-3.515
X19.342 Y42.065 Z-3.485
G0 Z5
X17.453 Y42.401
Z-2.864
G1 Z-3.064 F600
G3 X18.048 Y40.596 Z-3.116 I0.297 J-0.902
X17.453 Y42.401 Z-3.168 I-0.297 J0.902
X18.048 Y40.596 Z-3.22 I0.297 J-0.902
X17.453 Y42.401 Z-3.272 I-0.297 J0.902
X18.048 Y40.596 Z-3.324 I0.297 J-0.902
X17.453 Y42.401 Z-3.377 I-0.297 J0.902
X18.048 Y40.596 Z-3.429 I0.297 J-0.902
X17.453 Y42.401 Z-3.481 I-0.297 J0.902
X18.048 Y40.596 Z-3.533 I0.297 J-0.902
X17.453 Y42.401 Z-3.585 I-0.297 J0.902
X18.048 Y40.596 Z-3.637 I0.297 J-0.902
X17.453 Y42.401 Z-3.689 I-0.297 J0.902
X18.048 Y40.596 Z-3.741 I0.297 J-0.902
X18.7 Y41.498 Z-3.762 I-0.297 J0.902
X16.8 I-0.95 J0
X18.7 I0.95 J0
G1 X18.725 Y41.98
X18.746 Y42.098
X18.737 Y42.233
X18.698 Y42.362
X18.637 Y42.482
X18.557 Y42.591
X18.463 Y42.688
X18.356 Y42.771
X18.24 Y42.84
X18.117 Y42.895
X17.988 Y42.935
X17.856 Y42.962
X17.721 Y42.975
X17.586 Y42.974
X17.452 Y42.959
X17.32 Y42.931
X17.191 Y42.891
X17.067 Y42.839
X16.948 Y42.775
X16.835 Y42.7
X16.73 Y42.615
X16.633 Y42.521
X16.546 Y42.419
X16.467 Y42.309
X16.399 Y42.192
X16.342 Y42.07
X16.296 Y41.943
X16.262 Y41.812
X16.239 Y41.679
X16.229 Y41.545
X16.23 Y41.41
X16.244 Y41.275
X16.269 Y41.143
X16.306 Y41.013
X16.354 Y40.887
X16.414 Y40.766
X16.484 Y40.65
X16.564 Y40.542
X16.653 Y40.44
X16.751 Y40.347
X16.856 Y40.263
X16.969 Y40.189
X17.088 Y40.125
X17.212 Y40.072
X17.34 Y40.03
X17.472 Y39.999
X17.606 Y39.98
X17.74 Y39.974
X17.875 Y39.979
X18.009 Y39.996
X18.141 Y40.024
X18.27 Y40.065
X18.395 Y40.116
X18.514 Y40.179
X18.628 Y40.252
X18.735 Y40.334
X18.834 Y40.426
X18.925 Y40.526
X19.006 Y40.634
X19.078 Y40.748
X19.152 Y40.893
X19.249 Y41.126
X19.318 Y41.338
X19.363 Y41.528
X19.387 Y41.684
X19.397 Y41.872
X19.38 Y41.996
X19.3 Y42.256
X18.941 Y42.749
X18.884 Y42.801
X18.387 Y43.107
X18.227 Y43.143
X17.789 Y43.224
X17.68 Y43.22
X17.115 Y43.108
X16.585 Y42.776
X16.316 Y42.421
X16.2 Y42.256
X16.032 Y41.681
X16.046 Y41.435
X16.089 Y41.025
X16.316 Y40.559
X16.381 Y40.45
X16.84 Y40.031
X17.406 Y39.808
X17.461 Y39.799
X18.063 Y39.802
X18.227 Y39.858
X18.623 Y40.012
X18.69 Y40.053
X19.119 Y40.45
X19.293 Y40.778
X19.401 Y40.997
X19.424 Y41.107
X19.472 Y41.654
X19.38 Y41.996
X19.365 Y42.023 Z-3.756
X19.353 Y42.045 Z-3.739
X19.344 Y42.059 Z-3.713
X19.342 Y42.065 Z-3.683
G0 Z5
X17.453 Y42.4
Z-3.062
G1 Z-3.262 F600
G3 X18.048 Y40.596 Z-3.314 I0.297 J-0.902
X17.453 Y42.4 Z-3.366 I-0.297 J0.902
X18.048 Y40.596 Z-3.418 I0.297 J-0.902
X17.453 Y42.4 Z-3.47 I-0.297 J0.902
X18.048 Y40.596 Z-3.522 I0.297 J-0.902
X17.453 Y42.4 Z-3.575 I-0.297 J0.902
X18.048 Y40.596 Z-3.627 I0.297 J-0.902
X17.453 Y42.4 Z-3.679 I-0.297 J0.902
X18.048 Y40.596 Z-3.731 I0.297 J-0.902
X17.453 Y42.4 Z-3.783 I-0.297 J0.902
X18.048 Y40.596 Z-3.835 I0.297 J-0.902
X17.453 Y42.4 Z-3.887 I-0.297 J0.902
X18.048 Y40.596 Z-3.939 I0.297 J-0.902
X18.7 Y41.498 Z-3.96 I-0.297 J0.902
X16.8 I-0.95 J0
X18.7 I0.95 J0
G1 X18.725 Y41.979
X18.747 Y42.098
X18.737 Y42.232
X18.699 Y42.362
X18.637 Y42.482
X18.557 Y42.591
X18.463 Y42.687
X18.356 Y42.77
X18.24 Y42.839
X18.117 Y42.894
X17.988 Y42.935
X17.856 Y42.962
X17.722 Y42.974
X17.587 Y42.973
X17.452 Y42.959
X17.32 Y42.931
X17.191 Y42.891
X17.067 Y42.838
X16.948 Y42.774
X16.836 Y42.7
X16.73 Y42.615
X16.634 Y42.521
X16.546 Y42.419
X16.467 Y42.309
X16.399 Y42.192
X16.342 Y42.07
X16.296 Y41.943
X16.262 Y41.812
X16.239 Y41.679
X16.229 Y41.545
X16.23 Y41.41
X16.244 Y41.275
X16.269 Y41.143
X16.306 Y41.013
X16.354 Y40.887
X16.414 Y40.766
X16.484 Y40.65
X16.564 Y40.541
X16.653 Y40.44
X16.751 Y40.347
X16.856 Y40.263
X16.969 Y40.189
X17.088 Y40.125
X17.212 Y40.072
X17.34 Y40.029
X17.472 Y39.999
X17.606 Y39.98
X17.74 Y39.973
X17.875 Y39.978
X18.009 Y39.995
X18.141 Y40.024
X18.27 Y40.065
X18.395 Y40.116
X18.514 Y40.179
X18.628 Y40.251
X18.735 Y40.334
X18.834 Y40.426
X18.925 Y40.526
X19.006 Y40.633
X19.078 Y40.748
X19.152 Y40.893
X19.249 Y41.126
X19.318 Y41.338
X19.363 Y41.528
X19.387 Y41.684
X19.397 Y41.872
X19.38 Y41.996
X19.3 Y42.256
X18.941 Y42.749
X18.884 Y42.801
X18.387 Y43.107
X18.227 Y43.143
X17.789 Y43.224
X17.68 Y43.22
X17.115 Y43.108
X16.585 Y42.776
X16.316 Y42.421
X16.2 Y42.256
X16.032 Y41.681
X16.046 Y41.435
X16.089 Y41.025
X16.316 Y40.559
X16.381 Y40.45
X16.84 Y40.031
X17.406 Y39.808
X17.461 Y39.799
X18.063 Y39.802
X18.227 Y39.858
X18.623 Y40.012
X18.69 Y40.053
X19.119 Y40.45
X19.293 Y40.778
X19.401 Y40.997
X19.424 Y41.107
X19.472 Y41.654
X19.38 Y41.996
X19.365 Y42.022 Z-3.954
X19.353 Y42.044 Z-3.937
X19.345 Y42.059 Z-3.911
X19.342 Y42.064 Z-3.881
G0 Z5
X17.453 Y42.402
Z-3.26
G1 Z-3.46 F600
G3 X18.048 Y40.598 Z-3.512 I0.297 J-0.902
X17.453 Y42.402 Z-3.564 I-0.297 J0.902
X18.048 Y40.598 Z-3.616 I0.297 J-0.902
X17.453 Y42.402 Z-3.668 I-0.297 J0.902
X18.048 Y40.598 Z-3.72 I0.297 J-0.902
X17.453 Y42.402 Z-3.773 I-0.297 J0.902
X18.048 Y40.598 Z-3.825 I0.297 J-0.902
X17.453 Y42.402 Z-3.877 I-0.297 J0.902
X18.048 Y40.598 Z-3.929 I0.297 J-0.902
X17.453 Y42.402 Z-3.981 I-0.297 J0.902
X18.048 Y40.598 Z-4.033 I0.297 J-0.902
X17.453 Y42.402 Z-4.085 I-0.297 J0.902
X18.048 Y40.598 Z-4.137 I0.297 J-0.902
X18.7 Y41.5 Z-4.158 I-0.297 J0.902
X16.8 I-0.95 J0
X18.7 I0.95 J0
G1 X18.725 Y41.981
X18.747 Y42.099
X18.737 Y42.234
X18.699 Y42.364
X18.637 Y42.484
X18.558 Y42.593
X18.463 Y42.689
X18.356 Y42.772
X18.24 Y42.841
X18.117 Y42.896
X17.989 Y42.937
X17.856 Y42.963
X17.722 Y42.976
X17.587 Y42.975
X17.453 Y42.96
X17.32 Y42.933
X17.192 Y42.892
X17.067 Y42.84
X16.948 Y42.776
X16.836 Y42.702
X16.731 Y42.617
X16.634 Y42.523
X16.546 Y42.42
X16.468 Y42.31
X16.4 Y42.194
X16.342 Y42.071
X16.296 Y41.944
X16.262 Y41.814
X16.239 Y41.681
X16.229 Y41.546
X16.23 Y41.411
X16.244 Y41.277
X16.269 Y41.144
X16.306 Y41.014
X16.355 Y40.888
X16.414 Y40.767
X16.484 Y40.652
X16.564 Y40.543
X16.653 Y40.442
X16.751 Y40.349
X16.857 Y40.265
X16.969 Y40.19
X17.088 Y40.126
X17.212 Y40.073
X17.341 Y40.031
X17.472 Y40.001
X17.606 Y39.982
X17.741 Y39.975
X17.876 Y39.98
X18.009 Y39.997
X18.141 Y40.026
X18.27 Y40.066
X18.395 Y40.118
X18.515 Y40.18
X18.628 Y40.253
X18.735 Y40.336
X18.834 Y40.427
X18.925 Y40.527
X19.006 Y40.635
X19.078 Y40.749
X19.152 Y40.895
X19.249 Y41.127
X19.318 Y41.34
X19.363 Y41.529
X19.387 Y41.685
X19.398 Y41.871
X19.38 Y41.995
X19.339 Y42.128
X19.189 Y42.421
X18.994 Y42.671
X18.775 Y42.868
X18.501 Y43.035
X18.227 Y43.141
X17.899 Y43.203
X17.571 Y43.199
X17.297 Y43.148
X16.969 Y43.019
X16.695 Y42.843
X16.476 Y42.639
X16.281 Y42.372
X16.148 Y42.092
X16.071 Y41.818
X16.041 Y41.49
X16.076 Y41.162
X16.154 Y40.888
X16.288 Y40.614
X16.495 Y40.34
X16.741 Y40.121
X16.971 Y39.98
X17.297 Y39.852
X17.571 Y39.801
X17.899 Y39.797
X18.227 Y39.859
X18.501 Y39.965
X18.775 Y40.132
X19.006 Y40.34
X19.212 Y40.616
X19.346 Y40.888
X19.434 Y41.216
X19.459 Y41.49
X19.431 Y41.809
X19.38 Y41.995
X19.365 Y42.022 Z-4.152
X19.353 Y42.044 Z-4.135
X19.345 Y42.058 Z-4.109
X19.342 Y42.064 Z-4.079
G0 Z5
X17.356 Y42.365
Z-3.458
G1 Z-3.658 F600
G3 X18.144 Y40.636 Z-3.71 I0.394 J-0.864
X17.356 Y42.365 Z-3.762 I-0.394 J0.864
X18.144 Y40.636 Z-3.814 I0.394 J-0.864
X17.356 Y42.365 Z-3.866 I-0.394 J0.864
X18.144 Y40.636 Z-3.918 I0.394 J-0.864
X17.356 Y42.365 Z-3.971 I-0.394 J0.864
X18.144 Y40.636 Z-4.023 I0.394 J-0.864
X17.356 Y42.365 Z-4.075 I-0.394 J0.864
X18.144 Y40.636 Z-4.127 I0.394 J-0.864
X17.356 Y42.365 Z-4.179 I-0.394 J0.864
X18.144 Y40.636 Z-4.231 I0.394 J-0.864
X18.7 Y41.5 Z-4.25 I-0.394 J0.864
X16.8 I-0.95 J0
X18.7 I0.95 J0
G1 X18.725 Y41.981
X18.747 Y42.1
X18.737 Y42.234
X18.699 Y42.364
X18.637 Y42.484
X18.558 Y42.593
X18.463 Y42.689
X18.356 Y42.772
X18.24 Y42.841
X18.117 Y42.896
X17.988 Y42.937
X17.856 Y42.964
X17.722 Y42.976
X17.587 Y42.975
X17.452 Y42.961
X17.32 Y42.933
X17.192 Y42.893
X17.067 Y42.84
X16.948 Y42.776
X16.836 Y42.702
X16.731 Y42.617
X16.634 Y42.523
X16.546 Y42.421
X16.467 Y42.311
X16.4 Y42.194
X16.342 Y42.072
X16.296 Y41.945
X16.262 Y41.814
X16.239 Y41.681
X16.229 Y41.547
X16.23 Y41.412
X16.244 Y41.277
X16.269 Y41.145
X16.306 Y41.015
X16.355 Y40.889
X16.414 Y40.768
X16.484 Y40.652
X16.564 Y40.543
X16.653 Y40.442
X16.751 Y40.349
X16.857 Y40.265
X16.969 Y40.191
X17.088 Y40.127
X17.212 Y40.073
X17.341 Y40.031
X17.472 Y40.001
X17.606 Y39.982
X17.741 Y39.975
X17.875 Y39.98
X18.009 Y39.997
X18.141 Y40.026
X18.27 Y40.067
X18.395 Y40.118
X18.515 Y40.181
X18.628 Y40.253
X18.735 Y40.336
X18.834 Y40.427
X18.925 Y40.528
X19.006 Y40.635
X19.078 Y40.75
X19.152 Y40.895
X19.249 Y41.128
X19.318 Y41.34
X19.363 Y41.53
X19.387 Y41.686
X19.398 Y41.872
X19.38 Y41.996
X19.339 Y42.128
X19.189 Y42.421
X18.994 Y42.671
X18.775 Y42.868
X18.501 Y43.035
X18.227 Y43.141
X17.899 Y43.203
X17.571 Y43.199
X17.297 Y43.148
X16.969 Y43.019
X16.695 Y42.843
X16.476 Y42.639
X16.281 Y42.372
X16.148 Y42.092
X16.071 Y41.818
X16.041 Y41.49
X16.076 Y41.162
X16.154 Y40.888
X16.288 Y40.614
X16.495 Y40.34
X16.741 Y40.121
X16.971 Y39.98
X17.297 Y39.852
X17.571 Y39.801
X17.899 Y39.797
X18.227 Y39.859
X18.501 Y39.965
X18.775 Y40.132
X19.006 Y40.34
X19.212 Y40.616
X19.346 Y40.888
X19.434 Y41.216
X19.459 Y41.49
X19.431 Y41.809
X19.38 Y41.996
G3 X19.342 Y42.064 I-0.19 J-0.061
G1 X19.308 Y42.103 Z-4.243
X19.277 Y42.14 Z-4.223
X19.25 Y42.172 Z-4.191
X19.23 Y42.196 Z-4.15
X19.217 Y42.211 Z-4.102
X19.212 Y42.216 Z-4.05
G0 Z15

M9
M30
