(ADAPTIVE1)
(T56  D=2 CR=0 - ZMIN=-4.25 - FLAT END MILL)
G90 G94 G91.1 G40 G49 G17
G21

(2MM FLAT 3D POCKET HOLE 1)
M5
M9
T56
(1 FLUTE FISH)
S20000 M3
G54
M8
G0 X17.978 Y41.69
G43 Z15 H1
Z2
G1 Z0.41 F50
G3 X17.975 Y41.705 Z0.334 I-0.931 J-0.189 F600
X17.965 Y41.746 Z0.27 I-0.928 J-0.204
X17.946 Y41.807 Z0.226 I-0.918 J-0.245
X17.919 Y41.878 Z0.21 I-0.899 J-0.306
X16.175 Y41.124 Z0.158 I-0.872 J-0.377
X17.919 Y41.878 Z0.106 I0.872 J0.377
X16.175 Y41.124 Z0.054 I-0.872 J-0.377
X17.919 Y41.878 Z0.002 I0.872 J0.377
X16.175 Y41.124 Z-0.05 I-0.872 J-0.377
X17.919 Y41.878 Z-0.103 I0.872 J0.377
X16.175 Y41.124 Z-0.155 I-0.872 J-0.377
X17.997 Y41.501 Z-0.2 I0.872 J0.377
X17.507 I-0.245 J0
X19.897 I1.195 J0
X15.607 I-2.145 J0
X19.897 I2.145 J0
G2 X20.56 Y42.68 I1.38 J0
G3 X20.812 Y44.01 I-0.473 J0.778
G1 X20.799 Y44.026
X20.404 Y44.451
X19.997 Y44.76
X19.503 Y45.057
X19.036 Y45.245
X18.524 Y45.389
X18.021 Y45.453
X17.425 Y45.448
X16.963 Y45.385
X16.408 Y45.227
X15.986 Y45.052
X15.459 Y44.73
X15.083 Y44.436
X14.694 Y44.018
X14.406 Y43.64
X14.139 Y43.124
X13.959 Y42.686
X13.838 Y42.104
X13.779 Y41.657
X13.83 Y40.956
X13.879 Y40.587
X14.151 Y39.848
X14.258 Y39.591
X14.647 Y39.044
X14.898 Y38.724
X15.406 Y38.31
X15.704 Y38.082
X16.68 Y37.66
X16.703 Y37.653
X17.75 Y37.509
X18.799 Y37.654
X19.485 Y37.944
X19.778 Y38.071
X20.261 Y38.447
X20.628 Y38.75
X20.852 Y39.042
X21.242 Y39.591
X21.395 Y39.959
X21.62 Y40.585
X21.658 Y40.869
X21.692 Y41.196
X21.721 Y41.654
X21.658 Y42.123
X21.542 Y42.684
X21.345 Y43.154
X21.094 Y43.64
X20.812 Y44.01
G3 X20.663 Y44.022 I-0.08 J-0.061
G1 X20.156 Y43.535
X17.878 Y41.961
G3 X16.216 Y41.041 Z-0.252 I-0.831 J-0.46
X17.878 Y41.961 Z-0.304 I0.831 J0.46
X16.216 Y41.041 Z-0.356 I-0.831 J-0.46
X17.997 Y41.501 Z-0.4 I0.831 J0.46
X17.507 I-0.245 J0
X19.897 I1.195 J0
X15.607 I-2.145 J0
X19.897 I2.145 J0
G2 X20.56 Y42.68 I1.38 J0
G3 X20.812 Y44.01 I-0.473 J0.778
G1 X20.799 Y44.026
X20.404 Y44.451
X19.997 Y44.76
X19.503 Y45.057
X19.036 Y45.245
X18.524 Y45.389
X18.021 Y45.453
X17.425 Y45.448
X16.963 Y45.385
X16.408 Y45.227
X15.986 Y45.052
X15.459 Y44.73
X15.083 Y44.436
X14.694 Y44.018
X14.406 Y43.64
X14.139 Y43.124
X13.959 Y42.686
X13.838 Y42.104
X13.779 Y41.657
X13.83 Y40.956
X13.879 Y40.587
X14.151 Y39.848
X14.258 Y39.591
X14.647 Y39.044
X14.898 Y38.724
X15.406 Y38.31
X15.704 Y38.082
X16.68 Y37.66
X16.703 Y37.653
X17.75 Y37.509
X18.799 Y37.654
X19.485 Y37.944
X19.778 Y38.071
X20.261 Y38.447
X20.628 Y38.75
X20.852 Y39.042
X21.242 Y39.591
X21.395 Y39.959
X21.62 Y40.585
X21.658 Y40.869
X21.692 Y41.196
X21.721 Y41.654
X21.658 Y42.123
X21.542 Y42.684
X21.345 Y43.154
X21.094 Y43.64
X20.812 Y44.01
G3 X20.663 Y44.022 I-0.08 J-0.061
G1 X20.152 Y43.541
X17.779 Y41.96
G3 X16.117 Y41.04 Z-0.452 I-0.831 J-0.46
X17.779 Y41.96 Z-0.504 I0.831 J0.46
X16.117 Y41.04 Z-0.556 I-0.831 J-0.46
X17.898 Y41.5 Z-0.6 I0.831 J0.46
X17.603 I-0.147 J0
X19.798 I1.097 J0
X15.703 I-2.047 J0
X19.798 I2.047 J0
G2 X20.485 Y42.659 I1.322 J0
G3 X20.698 Y43.99 I-0.41 J0.748
G1 X20.214 Y44.508
X20.121 Y44.569
X19.305 Y45.066
X18.29 Y45.351
X17.236 Y45.354
X16.199 Y45.068
X15.309 Y44.527
X15.048 Y44.254
X14.575 Y43.747
X14.083 Y42.799
X13.869 Y41.766
X13.944 Y40.699
X14.157 Y40.101
X14.296 Y39.709
X14.9 Y38.854
X15.724 Y38.18
X15.753 Y38.165
X16.688 Y37.759
X17.743 Y37.611
X18.797 Y37.753
X19.773 Y38.177
X20.595 Y38.847
X21.204 Y39.709
X21.556 Y40.699
X21.631 Y41.766
X21.412 Y42.809
X20.926 Y43.747
X20.698 Y43.99
G3 X20.545 Y43.981 I-0.073 J-0.068
G1 X19.385 Y42.412
G2 X19.366 Y42.39 I-0.084 J0.054
G1 X17.944 Y41.163
G3 X17.922 Y41.039 I0.065 J-0.076
X19.584 Y41.959 Z-0.652 I0.831 J0.46
X17.922 Y41.039 Z-0.704 I-0.831 J-0.46
X19.584 Y41.959 Z-0.756 I0.831 J0.46
X17.803 Y41.499 Z-0.8 I-0.831 J-0.46
X19.599 I0.898 J0
X15.903 I-1.848 J0
X19.599 I1.848 J0
G2 X20.259 Y42.649 I1.332 J0
G3 X20.451 Y43.96 I-0.428 J0.733
G1 X20.069 Y44.369
X19.226 Y44.882
X18.239 Y45.156
X17.251
X16.268 Y44.878
X15.416 Y44.357
X14.73 Y43.618
X14.279 Y42.749
X14.071 Y41.765
X14.142 Y40.735
X14.157 Y40.693
X14.47 Y39.811
X15.045 Y38.992
X15.076 Y38.962
X15.843 Y38.342
X16.749 Y37.949
X16.77 Y37.944
X17.742 Y37.81
X18.752 Y37.949
X19.668 Y38.347
X20.447 Y38.981
X21.02 Y39.793
X21.363 Y40.748
X21.429 Y41.764
X21.221 Y42.749
X20.771 Y43.618
X20.451 Y43.96
G3 X20.292 Y43.944 I-0.073 J-0.068
G1 X19.354 Y42.404
G2 X19.334 Y42.373 I-0.092 J0.04
G1 X18.134 Y41.159
G3 X18.118 Y41.04 I0.071 J-0.07
X19.78 Y41.96 Z-0.852 I0.831 J0.46
X18.118 Y41.04 Z-0.904 I-0.831 J-0.46
X19.78 Y41.96 Z-0.956 I0.831 J0.46
X17.999 Y41.5 Z-1 I-0.831 J-0.46
X19.401 I0.701 J0
X16.099 I-1.651 J0
X19.401 I1.651 J0
G2 X20.034 Y42.644 I1.349 J0
G3 X20.203 Y43.94 I-0.45 J0.718
G1 X19.955 Y44.205
X19.129 Y44.705
X18.225 Y44.958
X17.282
X16.356 Y44.699
X15.546 Y44.206
X14.897 Y43.51
X14.46 Y42.665
X14.269 Y41.724
X14.334 Y40.784
X14.509 Y40.294
X14.659 Y39.883
X15.193 Y39.126
X15.933 Y38.521
X16.795 Y38.145
X17.743 Y38.011
X18.701 Y38.143
X19.564 Y38.518
X20.304 Y39.121
X20.841 Y39.882
X21.166 Y40.786
X21.231 Y41.724
X21.04 Y42.665
X20.594 Y43.521
X20.203 Y43.94
G3 X20.04 Y43.914 I-0.073 J-0.068
G1 X19.328 Y42.399
G2 X19.308 Y42.357 I-0.098 J0.021
G1 X18.329 Y41.154
G3 X18.319 Y41.042 I0.078 J-0.063
X19.981 Y41.962 Z-1.052 I0.831 J0.46
X18.319 Y41.042 Z-1.104 I-0.831 J-0.46
X19.981 Y41.962 Z-1.156 I0.831 J0.46
X18.2 Y41.502 Z-1.2 I-0.831 J-0.46
X19.203 I0.501 J0
X16.3 I-1.451 J0
X19.203 I1.451 J0
G2 X19.808 Y42.637 I1.366 J0
G3 X19.955 Y43.914 I-0.471 J0.701
G1 X19.825 Y44.054
X19.072 Y44.512
X19.005 Y44.534
X18.202 Y44.759
X17.302 Y44.76
X16.456 Y44.523
X15.679 Y44.056
X15.663 Y44.042
X15.056 Y43.387
X14.657 Y42.616
X14.613 Y42.425
X14.467 Y41.724
X14.532 Y40.821
X14.838 Y39.972
X15.344 Y39.256
X16.039 Y38.689
X16.864 Y38.331
X17.75 Y38.209
X18.62 Y38.329
X19.474 Y38.7
X20.141 Y39.243
X20.486 Y39.724
X20.667 Y39.979
X20.973 Y40.844
X21.033 Y41.723
X20.853 Y42.59
X20.822 Y42.656
X20.44 Y43.395
X19.955 Y43.914
G3 X19.792 Y43.89 I-0.073 J-0.068
G1 X18.681 Y41.634
G3 X18.672 Y41.609 I0.09 J-0.044
G1 X18.576 Y41.123
X18.515 Y41.039
G3 X20.177 Y41.959 Z-1.252 I0.831 J0.46
X18.515 Y41.039 Z-1.304 I-0.831 J-0.46
X20.177 Y41.959 Z-1.356 I0.831 J0.46
X18.396 Y41.499 Z-1.4 I-0.831 J-0.46
X19.004 I0.304 J0
X16.496 I-1.254 J0
X19.004 I1.254 J0
G2 X19.584 Y42.625 I1.383 J0
G3 X19.712 Y43.885 I-0.489 J0.686
G1 X19.711 Y43.886
X19.592 Y43.963
X18.996 Y44.326
X18.158 Y44.562
X17.326 Y44.561
X16.531 Y44.338
X15.811 Y43.904
X15.22 Y43.273
X14.838 Y42.534
X14.669 Y41.722
X14.725 Y40.869
X14.862 Y40.483
X15 Y40.095
X15.485 Y39.4
X16.137 Y38.865
X16.906 Y38.529
X17.743 Y38.411
X18.592 Y38.527
X19.355 Y38.859
X20.017 Y39.403
X20.5 Y40.095
X20.775 Y40.869
X20.831 Y41.722
X20.664 Y42.525
X20.279 Y43.275
X19.712 Y43.885
X19.698 Y43.861
X19.14 Y41.598
G2 X19.114 Y41.552 I-0.097 J0.024
G1 X18.729 Y41.159
G3 X18.713 Y41.04 I0.071 J-0.07
X20.375 Y41.96 Z-1.452 I0.831 J0.46
X18.713 Y41.04 Z-1.504 I-0.831 J-0.46
X20.375 Y41.96 Z-1.556 I0.831 J0.46
X18.594 Y41.5 Z-1.6 I-0.831 J-0.46
X18.806 I0.106 J0
X16.694 I-1.056 J0
X18.806 I1.056 J0
G2 X19.418 Y42.583 I1.265 J0
G3 X19.434 Y43.827 I-0.378 J0.627
G1 X19.419 Y43.837
X18.892 Y44.154
X18.157 Y44.36
X17.368 Y44.363
X16.604 Y44.153
X15.94 Y43.751
X15.76 Y43.564
X15.395 Y43.174
X15.378 Y43.147
X15.023 Y42.452
X14.867 Y41.681
X14.89 Y41.351
X14.92 Y40.914
X15.191 Y40.16
X15.648 Y39.519
X16.243 Y39.034
X16.954 Y38.724
X17.744 Y38.611
X18.532 Y38.718
X19.244 Y39.027
X19.863 Y39.527
X20.312 Y40.164
X20.58 Y40.914
X20.633 Y41.681
X20.477 Y42.452
X20.122 Y43.147
X20.105 Y43.174
X19.586 Y43.73
X19.434 Y43.827
G3 X19.285 Y43.775 I-0.054 J-0.084
G1 X18.672 Y41.977
G2 X18.49 Y41.96 I-0.095 J0.032
G3 X16.828 Y41.041 Z-1.652 I-0.831 J-0.46
X18.49 Y41.96 Z-1.704 I0.831 J0.46
X16.828 Y41.041 Z-1.756 I-0.831 J-0.46
X18.609 Y41.501 Z-1.8 I0.831 J0.46
X16.893 I-0.858 J0
X18.609 I0.858 J0
G2 X19.18 Y42.56 I1.267 J0
G3 X19.158 Y43.763 I-0.391 J0.595
G1 X18.818 Y43.969
X18.116 Y44.165
X17.372 Y44.162
X16.669 Y43.962
X16.054 Y43.588
X15.549 Y43.045
X15.219 Y42.409
X15.066 Y41.679
X15.115 Y40.956
X15.215 Y40.673
X15.359 Y40.268
X15.778 Y39.671
X16.366 Y39.195
X17.016 Y38.913
X17.044 Y38.906
X17.742 Y38.811
X18.488 Y38.914
X19.133 Y39.195
X19.715 Y39.662
X20.141 Y40.268
X20.385 Y40.956
X20.434 Y41.68
X20.285 Y42.402
X19.956 Y43.037
X19.786 Y43.225
X19.44 Y43.592
X19.158 Y43.763
G3 X19.015 Y43.718 I-0.052 J-0.086
G1 X18.291 Y42.121
G2 X18.231 Y42.068 I-0.091 J0.041
G1 X17.118 Y41.71
G3 X17.058 Y41.656 I0.031 J-0.095
X18.791 Y40.878 Z-1.852 I0.867 J-0.389
X17.058 Y41.656 Z-1.904 I-0.867 J0.389
X18.791 Y40.878 Z-1.956 I0.867 J-0.389
X17.354 Y42.027 Z-2 I-0.867 J0.389
X18.146 Y40.971 I0.396 J-0.528
X17.354 Y42.027 I-0.396 J0.528
G2 X16.21 Y41.811 I-0.792 J1.055
G3 X15.306 Y41.076 I-0.191 J-0.688
G1 X15.311 Y40.999
X15.544 Y40.346
X15.93 Y39.8
X16.46 Y39.37
X17.084 Y39.101
X17.743 Y39.01
X18.417 Y39.101
X18.44 Y39.109
X19.029 Y39.365
X19.178 Y39.481
X19.561 Y39.793
X19.584 Y39.819
X19.961 Y40.354
X20.189 Y40.998
X20.233 Y41.679
X20.1 Y42.321
X19.787 Y42.93
X19.318 Y43.434
X18.749 Y43.78
X18.071 Y43.967
X17.415
X16.745 Y43.777
X16.171 Y43.424
X15.713 Y42.931
X15.4 Y42.321
X15.267 Y41.679
X15.306 Y41.076
G3 X15.447 Y40.991 I0.1 J0.006
G1 X15.913 Y41.197
X17.894 Y41.874
X18.068 Y41.908
G3 X18.092 Y41.961 I-0.007 J0.036
X16.43 Y41.042 Z-2.052 I-0.831 J-0.46
X18.092 Y41.961 Z-2.104 I0.831 J0.46
X16.43 Y41.042 Z-2.156 I-0.831 J-0.46
X18.211 Y41.501 Z-2.2 I0.831 J0.46
X17.287 I-0.462 J0
X18.211 I0.462 J0
G2 X18.561 Y42.63 I1.995 J0
G3 X18.156 Y43.741 I-0.598 J0.411
G1 X18.053 Y43.769
X17.443
X16.84 Y43.602
X16.307 Y43.278
X15.881 Y42.823
X15.592 Y42.267
X15.465 Y41.656
X15.507 Y41.04
X15.568 Y40.863
X15.72 Y40.441
X16.066 Y39.951
X16.564 Y39.541
X17.129 Y39.296
X17.743 Y39.21
X18.357 Y39.293
X18.934 Y39.541
X19.43 Y39.945
X19.78 Y40.44
X19.993 Y41.042
X20.034 Y41.639
X19.911 Y42.252
X19.622 Y42.819
X19.187 Y43.282
X18.669 Y43.597
X18.646 Y43.605
X18.156 Y43.741
G3 X18.029 Y43.641 I-0.027 J-0.096
G1 X18.083 Y42.011
G2 X17.895 Y41.959 I-0.1 J-0.003
G3 X16.233 Y41.04 Z-2.252 I-0.831 J-0.46
X17.895 Y41.959 Z-2.304 I0.831 J0.46
X16.233 Y41.04 Z-2.356 I-0.831 J-0.46
X18.014 Y41.5 Z-2.4 I0.831 J0.46
X17.486 I-0.264 J0
X18.014 I0.264 J0
G2 X18.489 Y42.45 I1.188 J0
G3 X18.294 Y43.496 I-0.356 J0.474
G1 X18.027 Y43.571
X17.46 Y43.569
X16.904 Y43.409
X16.432 Y43.122
X16.04 Y42.701
X15.779 Y42.192
X15.665 Y41.637
X15.702 Y41.085
X15.898 Y40.533
X16.219 Y40.077
X16.661 Y39.716
X17.175 Y39.492
X17.744 Y39.411
X18.312 Y39.487
X18.83 Y39.711
X19.28 Y40.076
X19.6 Y40.529
X19.614 Y40.56
X19.798 Y41.084
X19.835 Y41.637
X19.721 Y42.192
X19.458 Y42.705
X19.054 Y43.131
X18.592 Y43.412
X18.294 Y43.496
G3 X18.168 Y43.387 I-0.027 J-0.096
G1 X18.34 Y42.02
G2 X18.153 Y41.96 I-0.099 J-0.012
G3 X16.491 Y41.04 Z-2.452 I-0.831 J-0.46
X18.153 Y41.96 Z-2.504 I0.831 J0.46
X16.491 Y41.04 Z-2.556 I-0.831 J-0.46
X18.272 Y41.5 Z-2.6 I0.831 J0.46
X17.227 I-0.522 J0
X18.272 I0.522 J0
G2 X18.672 Y42.277 I0.955 J0
G3 X18.638 Y43.151 I-0.304 J0.426
G1 X18.498 Y43.236
X18.024 Y43.368
X17.5 Y43.372
X16.991 Y43.23
X16.562 Y42.969
X16.203 Y42.585
X15.975 Y42.146
X15.865 Y41.634
X15.899 Y41.119
X15.921 Y41.053
X16.079 Y40.62
X16.37 Y40.209
X16.77 Y39.884
X17.229 Y39.684
X17.294 Y39.672
X17.742 Y39.61
X18.267 Y39.683
X18.716 Y39.878
X19.132 Y40.21
X19.425 Y40.626
X19.435 Y40.648
X19.596 Y41.102
X19.634 Y41.636
X19.525 Y42.146
X19.297 Y42.586
X18.943 Y42.966
X18.638 Y43.151
G3 X18.488 Y43.084 I-0.052 J-0.086
G1 X18.283 Y41.99
G2 X18.098 Y41.96 I-0.098 J0.018
G3 X16.435 Y41.041 Z-2.652 I-0.831 J-0.46
X18.098 Y41.96 Z-2.704 I0.831 J0.46
X16.435 Y41.041 Z-2.756 I-0.831 J-0.46
X18.216 Y41.501 Z-2.8 I0.831 J0.46
X17.284 I-0.466 J0
X18.216 I0.466 J0
G2 X18.579 Y42.211 I0.877 J0
G3 X18.55 Y43.008 I-0.282 J0.389
G1 X18.388 Y43.108
X18.353 Y43.12
X17.786 Y43.224
X17.703
X17.117 Y43.111
X16.604 Y42.794
X16.573 Y42.764
X16.229 Y42.311
X16.185 Y42.222
X16.029 Y41.666
X16.082 Y41.05
X16.113 Y40.967
X16.25 Y40.692
X16.339 Y40.512
X16.408 Y40.419
X16.837 Y40.028
X17.419 Y39.806
X17.503 Y39.797
X18.055 Y39.802
X18.097 Y39.808
X18.665 Y40.029
X19.091 Y40.418
X19.156 Y40.504
X19.404 Y41.004
X19.418 Y41.045
X19.471 Y41.666
X19.316 Y42.217
X19.259 Y42.327
X18.917 Y42.774
X18.896 Y42.794
X18.55 Y43.008
G3 X18.398 Y42.935 I-0.053 J-0.085
G1 X18.284 Y41.997
G2 X18.098 Y41.96 I-0.099 J0.012
G3 X16.435 Y41.041 Z-2.852 I-0.831 J-0.46
X18.098 Y41.96 Z-2.904 I0.831 J0.46
X16.435 Y41.041 Z-2.956 I-0.831 J-0.46
X18.216 Y41.501 Z-3 I0.831 J0.46
X17.284 I-0.466 J0
X18.216 I0.466 J0
G2 X18.579 Y42.211 I0.877 J0
G3 X18.55 Y43.008 I-0.282 J0.389
G1 X18.388 Y43.108
X18.353 Y43.12
X17.786 Y43.224
X17.703
X17.117 Y43.111
X16.604 Y42.794
X16.573 Y42.764
X16.229 Y42.311
X16.185 Y42.222
X16.029 Y41.666
X16.082 Y41.05
X16.113 Y40.967
X16.25 Y40.692
X16.339 Y40.512
X16.408 Y40.419
X16.837 Y40.028
X17.419 Y39.806
X17.503 Y39.797
X18.055 Y39.802
X18.097 Y39.808
X18.665 Y40.029
X19.091 Y40.418
X19.156 Y40.504
X19.404 Y41.004
X19.418 Y41.045
X19.471 Y41.666
X19.316 Y42.217
X19.259 Y42.327
X18.917 Y42.774
X18.896 Y42.794
X18.55 Y43.008
G3 X18.398 Y42.935 I-0.053 J-0.085
G1 X18.284 Y41.997
G2 X18.098 Y41.96 I-0.099 J0.012
G3 X16.435 Y41.041 Z-3.052 I-0.831 J-0.46
X18.098 Y41.96 Z-3.104 I0.831 J0.46
X16.435 Y41.041 Z-3.156 I-0.831 J-0.46
X18.216 Y41.501 Z-3.2 I0.831 J0.46
X17.284 I-0.466 J0
X18.216 I0.466 J0
G2 X18.579 Y42.211 I0.877 J0
G3 X18.55 Y43.008 I-0.282 J0.389
G1 X18.388 Y43.108
X18.353 Y43.12
X17.786 Y43.224
X17.703
X17.117 Y43.111
X16.604 Y42.794
X16.573 Y42.764
X16.229 Y42.311
X16.185 Y42.222
X16.029 Y41.666
X16.082 Y41.05
X16.113 Y40.967
X16.25 Y40.692
X16.339 Y40.512
X16.408 Y40.419
X16.837 Y40.028
X17.419 Y39.806
X17.503 Y39.797
X18.055 Y39.802
X18.097 Y39.808
X18.665 Y40.029
X19.091 Y40.418
X19.156 Y40.504
X19.404 Y41.004
X19.418 Y41.045
X19.471 Y41.666
X19.316 Y42.217
X19.259 Y42.327
X18.917 Y42.774
X18.896 Y42.794
X18.55 Y43.008
G3 X18.398 Y42.935 I-0.053 J-0.085
G1 X18.284 Y41.997
G2 X18.098 Y41.96 I-0.099 J0.012
G3 X16.435 Y41.041 Z-3.252 I-0.831 J-0.46
X18.098 Y41.96 Z-3.304 I0.831 J0.46
X16.435 Y41.041 Z-3.356 I-0.831 J-0.46
X18.216 Y41.501 Z-3.4 I0.831 J0.46
X17.284 I-0.466 J0
X18.216 I0.466 J0
G2 X18.579 Y42.211 I0.877 J0
G3 X18.55 Y43.008 I-0.282 J0.389
G1 X18.388 Y43.108
X18.353 Y43.12
X17.786 Y43.224
X17.703
X17.117 Y43.111
X16.604 Y42.794
X16.573 Y42.764
X16.229 Y42.311
X16.185 Y42.222
X16.029 Y41.666
X16.082 Y41.05
X16.113 Y40.967
X16.25 Y40.692
X16.339 Y40.512
X16.408 Y40.419
X16.837 Y40.028
X17.419 Y39.806
X17.503 Y39.797
X18.055 Y39.802
X18.097 Y39.808
X18.665 Y40.029
X19.091 Y40.418
X19.156 Y40.504
X19.404 Y41.004
X19.418 Y41.045
X19.471 Y41.666
X19.316 Y42.217
X19.259 Y42.327
X18.917 Y42.774
X18.896 Y42.794
X18.55 Y43.008
G3 X18.398 Y42.935 I-0.053 J-0.085
G1 X18.284 Y41.997
G2 X18.098 Y41.96 I-0.099 J0.012
G3 X16.435 Y41.041 Z-3.452 I-0.831 J-0.46
X18.098 Y41.96 Z-3.504 I0.831 J0.46
X16.435 Y41.041 Z-3.556 I-0.831 J-0.46
X18.216 Y41.501 Z-3.6 I0.831 J0.46
X17.284 I-0.466 J0
X18.216 I0.466 J0
G2 X18.579 Y42.211 I0.877 J0
G3 X18.55 Y43.008 I-0.282 J0.389
G1 X18.388 Y43.108
X18.353 Y43.12
X17.786 Y43.224
X17.703
X17.117 Y43.111
X16.604 Y42.794
X16.573 Y42.764
X16.229 Y42.311
X16.185 Y42.222
X16.029 Y41.666
X16.082 Y41.05
X16.113 Y40.967
X16.25 Y40.692
X16.339 Y40.512
X16.408 Y40.419
X16.837 Y40.028
X17.419 Y39.806
X17.503 Y39.797
X18.055 Y39.802
X18.097 Y39.808
X18.665 Y40.029
X19.091 Y40.418
X19.156 Y40.504
X19.404 Y41.004
X19.418 Y41.045
X19.471 Y41.666
X19.316 Y42.217
X19.259 Y42.327
X18.917 Y42.774
X18.896 Y42.794
X18.55 Y43.008
G3 X18.398 Y42.935 I-0.053 J-0.085
G1 X18.284 Y41.997
G2 X18.098 Y41.96 I-0.099 J0.012
G3 X16.435 Y41.041 Z-3.652 I-0.831 J-0.46
X18.098 Y41.96 Z-3.704 I0.831 J0.46
X16.435 Y41.041 Z-3.756 I-0.831 J-0.46
X18.216 Y41.501 Z-3.8 I0.831 J0.46
X17.284 I-0.466 J0
X18.216 I0.466 J0
G2 X18.579 Y42.211 I0.877 J0
G3 X18.55 Y43.008 I-0.282 J0.389
G1 X18.388 Y43.108
X18.353 Y43.12
X17.786 Y43.224
X17.703
X17.117 Y43.111
X16.604 Y42.794
X16.573 Y42.764
X16.229 Y42.311
X16.185 Y42.222
X16.029 Y41.666
X16.082 Y41.05
X16.113 Y40.967
X16.25 Y40.692
X16.339 Y40.512
X16.408 Y40.419
X16.837 Y40.028
X17.419 Y39.806
X17.503 Y39.797
X18.055 Y39.802
X18.097 Y39.808
X18.665 Y40.029
X19.091 Y40.418
X19.156 Y40.504
X19.404 Y41.004
X19.418 Y41.045
X19.471 Y41.666
X19.316 Y42.217
X19.259 Y42.327
X18.917 Y42.774
X18.896 Y42.794
X18.55 Y43.008
G3 X18.398 Y42.935 I-0.053 J-0.085
G1 X18.284 Y41.997
G2 X18.098 Y41.96 I-0.099 J0.012
G3 X16.435 Y41.041 Z-3.852 I-0.831 J-0.46
X18.098 Y41.96 Z-3.904 I0.831 J0.46
X16.435 Y41.041 Z-3.956 I-0.831 J-0.46
X18.216 Y41.501 Z-4 I0.831 J0.46
X17.284 I-0.466 J0
X18.216 I0.466 J0
G2 X18.579 Y42.211 I0.877 J0
G3 X18.55 Y43.008 I-0.282 J0.389
G1 X18.388 Y43.108
X18.353 Y43.12
X17.786 Y43.224
X17.703
X17.117 Y43.111
X16.604 Y42.794
X16.573 Y42.764
X16.229 Y42.311
X16.185 Y42.222
X16.029 Y41.666
X16.082 Y41.05
X16.113 Y40.967
X16.25 Y40.692
X16.339 Y40.512
X16.408 Y40.419
X16.837 Y40.028
X17.419 Y39.806
X17.503 Y39.797
X18.055 Y39.802
X18.097 Y39.808
X18.665 Y40.029
X19.091 Y40.418
X19.156 Y40.504
X19.404 Y41.004
X19.418 Y41.045
X19.471 Y41.666
X19.316 Y42.217
X19.259 Y42.327
X18.917 Y42.774
X18.896 Y42.794
X18.55 Y43.008
G3 X18.404 Y42.888 I-0.053 J-0.085
G1 X18.736 Y42.008
G2 X18.585 Y41.891 I-0.094 J-0.035
G3 X17.494 Y40.335 Z-4.052 I-0.545 J-0.778
X18.585 Y41.891 Z-4.104 I0.545 J0.778
X17.47 Y41.873 Z-4.125 I-0.545 J-0.778
X18.029 Y41.127 I0.28 J-0.373
X17.47 Y41.873 I-0.28 J0.373
G2 X16.684 Y41.733 I-0.532 J0.709
G3 X16.069 Y41.223 I-0.138 J-0.46
G1 X16.075 Y41.166
X16.163 Y40.866
X16.25 Y40.692
X16.295 Y40.601
X16.484 Y40.35
X16.738 Y40.124
X16.994 Y39.967
X17.29 Y39.854
X17.609 Y39.797
X17.914 Y39.798
X18.222 Y39.857
X18.529 Y39.979
X18.789 Y40.142
X19.002 Y40.337
X19.214 Y40.62
X19.35 Y40.901
X19.433 Y41.202
X19.46 Y41.497
X19.426 Y41.833
X19.338 Y42.131
X19.195 Y42.412
X19.005 Y42.661
X18.792 Y42.854
X18.492 Y43.039
X18.198 Y43.149
X17.918 Y43.201
X17.572 Y43.199
X17.265 Y43.139
X16.997 Y43.035
X16.706 Y42.853
X16.485 Y42.651
X16.296 Y42.399
X16.149 Y42.097
X16.067 Y41.797
X16.04 Y41.502
X16.069 Y41.223
G3 X16.196 Y41.138 I0.099 J0.01
G1 X17.297 Y41.46
X18.433 Y41.782
X18.577 Y41.832
G3 X18.585 Y41.891 I-0.011 J0.031
X17.494 Y40.335 Z-4.177 I-0.545 J-0.778
X18.585 Y41.891 Z-4.229 I0.545 J0.778
X17.47 Y41.873 Z-4.25 I-0.545 J-0.778
X18.029 Y41.127 I0.28 J-0.373
X17.47 Y41.873 I-0.28 J0.373
G2 X16.684 Y41.733 I-0.532 J0.709
G3 X16.069 Y41.223 I-0.138 J-0.46
G1 X16.075 Y41.166
X16.163 Y40.866
X16.25 Y40.692
X16.295 Y40.601
X16.484 Y40.35
X16.738 Y40.124
X16.994 Y39.967
X17.29 Y39.854
X17.609 Y39.797
X17.914 Y39.798
X18.222 Y39.857
X18.529 Y39.979
X18.789 Y40.142
X19.002 Y40.337
X19.214 Y40.62
X19.35 Y40.901
X19.433 Y41.202
X19.46 Y41.497
X19.426 Y41.833
X19.338 Y42.131
X19.195 Y42.412
X19.005 Y42.661
X18.792 Y42.854
X18.492 Y43.039
X18.198 Y43.149
X17.918 Y43.201
X17.572 Y43.199
X17.265 Y43.139
X16.997 Y43.035
X16.706 Y42.853
X16.485 Y42.651
X16.296 Y42.399
X16.149 Y42.097
X16.067 Y41.797
X16.04 Y41.502
X16.069 Y41.223
G3 X16.091 Y41.151 Z-4.235 I0.199 J0.021
X16.13 Y41.099 Z-4.191 I0.177 J0.093
X16.164 Y41.073 Z-4.127 I0.138 J0.145
X16.178 Y41.065 Z-4.05 I0.103 J0.171
G0 Z15

M9
M30
