(ADAPTIVE1)
(T56  D=2 CR=0 - ZMIN=-4.25 - FLAT END MILL)
G90 G94 G91.1 G40 G49 G17
G21

(2MM FLAT 3D POCKET HOLE 2)
M5
M9
T56
(1 FLUTE FISH)
S20000 M3
G54
M8
G0 X17.976 Y14.189
G43 Z15 H1
Z2
G1 Z0.41 F50
G3 X17.973 Y14.204 Z0.334 I-0.931 J-0.189 F600
X17.963 Y14.245 Z0.27 I-0.928 J-0.204
X17.944 Y14.306 Z0.226 I-0.918 J-0.245
X17.917 Y14.376 Z0.21 I-0.899 J-0.306
X16.173 Y13.623 Z0.158 I-0.872 J-0.377
X17.917 Y14.376 Z0.106 I0.872 J0.377
X16.173 Y13.623 Z0.054 I-0.872 J-0.377
X17.917 Y14.376 Z0.002 I0.872 J0.377
X16.173 Y13.623 Z-0.05 I-0.872 J-0.377
X17.917 Y14.376 Z-0.103 I0.872 J0.377
X16.173 Y13.623 Z-0.155 I-0.872 J-0.377
X17.995 Y14 Z-0.2 I0.872 J0.377
X17.504 I-0.245 J0
X19.895 I1.195 J0
X15.604 I-2.145 J0
X19.895 I2.145 J0
G2 X20.559 Y15.179 I1.379 J0
G3 X20.807 Y16.51 I-0.47 J0.776
G1 X20.766 Y16.562
X20.377 Y16.972
X19.984 Y17.269
X19.519 Y17.551
X19.055 Y17.74
X18.504 Y17.892
X18 Y17.953
X17.451 Y17.952
X16.948 Y17.881
X16.394 Y17.722
X15.974 Y17.547
X15.445 Y17.219
X15.105 Y16.958
X14.698 Y16.523
X14.402 Y16.131
X14.134 Y15.61
X13.962 Y15.195
X13.871 Y14.765
X13.815 Y14.432
X13.778 Y14.138
X13.826 Y13.493
X13.882 Y13.078
X14.065 Y12.563
X14.255 Y12.097
X14.59 Y11.621
X14.874 Y11.248
X15.397 Y10.818
X15.7 Y10.585
X15.819 Y10.529
X16.682 Y10.16
X16.747 Y10.147
X17.765 Y10.012
X18.817 Y10.16
X19.77 Y10.568
X19.814 Y10.596
X20.398 Y11.057
X20.616 Y11.236
X21.009 Y11.762
X21.245 Y12.097
X21.435 Y12.562
X21.623 Y13.104
X21.675 Y13.496
X21.722 Y14.138
X21.685 Y14.431
X21.626 Y14.78
X21.539 Y15.191
X21.313 Y15.716
X21.095 Y16.138
X20.807 Y16.51
G3 X20.666 Y16.528 I-0.079 J-0.061
G1 X18.69 Y15
X17.876 Y14.46
G3 X16.213 Y13.54 Z-0.252 I-0.831 J-0.46
X17.876 Y14.46 Z-0.304 I0.831 J0.46
X16.213 Y13.54 Z-0.356 I-0.831 J-0.46
X17.995 Y14 Z-0.4 I0.831 J0.46
X17.504 I-0.245 J0
X19.895 I1.195 J0
X15.604 I-2.145 J0
X19.895 I2.145 J0
G2 X20.559 Y15.179 I1.379 J0
G3 X20.807 Y16.51 I-0.47 J0.776
G1 X20.766 Y16.562
X20.377 Y16.972
X19.984 Y17.269
X19.519 Y17.551
X19.055 Y17.74
X18.504 Y17.892
X18 Y17.953
X17.451 Y17.952
X16.948 Y17.881
X16.394 Y17.722
X15.974 Y17.547
X15.445 Y17.219
X15.105 Y16.958
X14.698 Y16.523
X14.402 Y16.131
X14.134 Y15.61
X13.962 Y15.195
X13.871 Y14.765
X13.815 Y14.432
X13.778 Y14.138
X13.826 Y13.493
X13.882 Y13.078
X14.065 Y12.563
X14.255 Y12.097
X14.59 Y11.621
X14.874 Y11.248
X15.397 Y10.818
X15.7 Y10.585
X15.819 Y10.529
X16.682 Y10.16
X16.747 Y10.147
X17.765 Y10.012
X18.817 Y10.16
X19.77 Y10.568
X19.814 Y10.596
X20.398 Y11.057
X20.616 Y11.236
X21.009 Y11.762
X21.245 Y12.097
X21.435 Y12.562
X21.623 Y13.104
X21.675 Y13.496
X21.722 Y14.138
X21.685 Y14.431
X21.626 Y14.78
X21.539 Y15.191
X21.313 Y15.716
X21.095 Y16.138
X20.807 Y16.51
G3 X20.667 Y16.529 I-0.079 J-0.061
G1 X18.674 Y15.025
X17.778 Y14.46
G3 X16.115 Y13.54 Z-0.452 I-0.831 J-0.46
X17.778 Y14.46 Z-0.504 I0.831 J0.46
X16.115 Y13.54 Z-0.556 I-0.831 J-0.46
X17.897 Y14 Z-0.6 I0.831 J0.46
X17.603 I-0.147 J0
X19.797 I1.097 J0
X15.703 I-2.047 J0
X19.797 I2.047 J0
G2 X20.484 Y15.159 I1.321 J0
G3 X20.696 Y16.49 I-0.408 J0.747
G1 X20.192 Y17.026
X19.285 Y17.573
X18.27 Y17.854
X17.221
X16.189 Y17.562
X15.309 Y17.027
X15.097 Y16.806
X14.576 Y16.248
X14.086 Y15.307
X13.87 Y14.251
X13.946 Y13.195
X14.151 Y12.618
X14.291 Y12.224
X14.905 Y11.348
X15.744 Y10.669
X16.714 Y10.252
X17.764 Y10.112
X18.816 Y10.261
X19.771 Y10.675
X20.603 Y11.358
X21.208 Y12.219
X21.554 Y13.195
X21.631 Y14.264
X21.414 Y15.306
X20.927 Y16.245
X20.696 Y16.49
G3 X20.543 Y16.481 I-0.073 J-0.069
G1 X19.384 Y14.911
G2 X19.365 Y14.89 I-0.084 J0.054
G1 X17.942 Y13.665
G3 X17.92 Y13.541 I0.065 J-0.076
X19.583 Y14.46 Z-0.652 I0.831 J0.46
X17.92 Y13.541 Z-0.704 I-0.831 J-0.46
X19.583 Y14.46 Z-0.756 I0.831 J0.46
X17.801 Y14.001 Z-0.8 I-0.831 J-0.46
X19.598 I0.898 J0
X15.901 I-1.848 J0
X19.598 I1.848 J0
G2 X20.256 Y15.153 I1.338 J0
G3 X20.448 Y16.465 I-0.433 J0.733
G1 X20.079 Y16.862
X19.234 Y17.376
X18.267 Y17.652
X17.262 Y17.656
X16.295 Y17.389
X16.045 Y17.243
X15.422 Y16.863
X14.728 Y16.114
X14.269 Y15.219
X14.068 Y14.25
X14.14 Y13.239
X14.15 Y13.21
X14.479 Y12.294
X15.044 Y11.493
X15.205 Y11.357
X15.831 Y10.848
X16.759 Y10.446
X17.766 Y10.312
X18.73 Y10.444
X19.658 Y10.843
X20.455 Y11.492
X21.029 Y12.308
X21.36 Y13.239
X21.432 Y14.25
X21.231 Y15.219
X20.771 Y16.117
X20.448 Y16.465
G3 X20.289 Y16.449 I-0.073 J-0.068
G1 X19.352 Y14.907
G2 X19.331 Y14.877 I-0.092 J0.039
G1 X18.134 Y13.659
G3 X18.118 Y13.541 I0.071 J-0.07
X19.781 Y14.46 Z-0.852 I0.831 J0.46
X18.118 Y13.541 Z-0.904 I-0.831 J-0.46
X19.781 Y14.46 Z-0.956 I0.831 J0.46
X17.999 Y14 Z-1 I-0.831 J-0.46
X19.4 I0.7 J0
X16.099 I-1.65 J0
X19.4 I1.65 J0
G2 X20.034 Y15.143 I1.346 J0
G3 X20.205 Y16.438 I-0.448 J0.718
G1 X19.953 Y16.708
X19.147 Y17.198
X18.225 Y17.458
X17.265 Y17.455
X16.359 Y17.202
X15.553 Y16.712
X14.901 Y16.016
X14.464 Y15.176
X14.27 Y14.248
X14.335 Y13.282
X14.502 Y12.812
X14.65 Y12.396
X15.191 Y11.628
X15.936 Y11.018
X16.803 Y10.641
X17.766 Y10.512
X18.684 Y10.638
X19.577 Y11.028
X20.305 Y11.623
X20.85 Y12.396
X21.165 Y13.282
X21.23 Y14.249
X21.041 Y15.162
X20.592 Y16.023
X20.205 Y16.438
G3 X20.041 Y16.413 I-0.073 J-0.068
G1 X19.328 Y14.897
G2 X19.308 Y14.856 I-0.098 J0.021
G1 X18.328 Y13.653
G3 X18.318 Y13.541 I0.078 J-0.063
X19.98 Y14.461 Z-1.052 I0.831 J0.46
X18.318 Y13.541 Z-1.104 I-0.831 J-0.46
X19.98 Y14.461 Z-1.156 I0.831 J0.46
X18.199 Y14.001 Z-1.2 I-0.831 J-0.46
X19.202 I0.502 J0
X16.299 I-1.452 J0
X19.202 I1.452 J0
G2 X19.807 Y15.136 I1.368 J0
G3 X19.955 Y16.415 I-0.472 J0.702
G1 X19.838 Y16.54
X19.25 Y16.903
X19.061 Y17.018
X18.182 Y17.26
X17.308
X16.43 Y17.013
X15.686 Y16.56
X15.059 Y15.891
X14.646 Y15.087
X14.47 Y14.236
X14.471 Y14.172
X14.528 Y13.331
X14.831 Y12.483
X15.342 Y11.759
X16.051 Y11.184
X16.848 Y10.838
X17.766 Y10.712
X18.641 Y10.833
X19.446 Y11.183
X19.515 Y11.233
X20.157 Y11.757
X20.671 Y12.485
X20.97 Y13.327
X21.032 Y14.207
X20.922 Y14.758
X20.854 Y15.087
X20.441 Y15.892
X19.955 Y16.415
G3 X19.792 Y16.392 I-0.073 J-0.068
G1 X18.743 Y14.316
X18.588 Y13.638
X18.518 Y13.567
G3 X18.514 Y13.54 I0.015 J-0.016
X20.176 Y14.459 Z-1.252 I0.831 J0.46
X18.514 Y13.54 Z-1.304 I-0.831 J-0.46
X20.176 Y14.459 Z-1.356 I0.831 J0.46
X18.395 Y14 Z-1.4 I-0.831 J-0.46
X19.003 I0.304 J0
X16.495 I-1.254 J0
X19.003 I1.254 J0
G2 X19.581 Y15.126 I1.387 J0
G3 X19.706 Y16.387 I-0.492 J0.685
G1 X19.689 Y16.404
X18.985 Y16.833
X18.18 Y17.059
X17.334 Y17.062
X17.314 Y17.057
X16.524 Y16.836
X15.8 Y16.397
X15.232 Y15.79
X15.214 Y15.761
X14.841 Y15.042
X14.667 Y14.205
X14.724 Y13.371
X14.854 Y13.006
X15.005 Y12.581
X15.485 Y11.899
X16.131 Y11.37
X16.794 Y11.077
X16.916 Y11.024
X17.765 Y10.912
X18.58 Y11.023
X19.351 Y11.357
X19.997 Y11.881
X20.068 Y11.974
X20.491 Y12.573
X20.776 Y13.371
X20.833 Y14.205
X20.659 Y15.042
X20.283 Y15.767
X19.706 Y16.387
G3 X19.631 Y16.368 I-0.032 J-0.03
G1 X19.577 Y16.167
X19.042 Y13.97
G2 X19.013 Y13.921 I-0.096 J0.023
G1 X18.731 Y13.659
G3 X18.712 Y13.539 I0.067 J-0.072
X20.375 Y14.458 Z-1.452 I0.831 J0.46
X18.712 Y13.539 Z-1.504 I-0.831 J-0.46
X20.375 Y14.458 Z-1.556 I0.831 J0.46
X18.594 Y13.998 Z-1.6 I-0.831 J-0.46
X18.805 I0.106 J0
X16.694 I-1.056 J0
X18.805 I1.056 J0
G2 X19.424 Y15.078 I1.251 J0
G3 X19.434 Y16.323 I-0.366 J0.625
G1 X18.885 Y16.656
X18.138 Y16.864
X17.352 Y16.862
X16.613 Y16.655
X15.916 Y16.232
X15.389 Y15.666
X15.023 Y14.954
X14.867 Y14.203
X14.882 Y13.971
X14.92 Y13.415
X15.182 Y12.673
X15.642 Y12.023
X16.242 Y11.536
X16.268 Y11.522
X16.979 Y11.215
X17.75 Y11.109
X18.513 Y11.214
X18.756 Y11.315
X19.261 Y11.538
X19.858 Y12.023
X20.311 Y12.662
X20.581 Y13.42
X20.632 Y14.204
X20.477 Y14.953
X20.099 Y15.68
X19.584 Y16.232
X19.434 Y16.323
G3 X19.299 Y16.294 I-0.052 J-0.086
G1 X18.93 Y15.75
G2 X18.909 Y15.728 I-0.083 J0.056
G1 X17.159 Y14.342
G2 X17.13 Y14.333 I-0.027 J0.034
G1 X16.98 Y14.34
G3 X16.939 Y14.314 I-0.002 J-0.043
X18.672 Y13.536 Z-1.652 I0.867 J-0.389
X16.939 Y14.314 Z-1.704 I-0.867 J0.389
X18.672 Y13.536 Z-1.756 I0.867 J-0.389
X17.235 Y14.685 Z-1.8 I-0.867 J0.389
X18.264 Y13.313 I0.515 J-0.686
X17.235 Y14.685 I-0.515 J0.686
G2 X16.047 Y14.495 I-0.775 J1.033
G3 X15.095 Y13.76 I-0.231 J-0.685
G1 X15.115 Y13.458
X15.205 Y13.201
X15.369 Y12.751
X15.777 Y12.173
X16.345 Y11.707
X17.023 Y11.41
X17.765 Y11.311
X18.466 Y11.408
X19.134 Y11.695
X19.343 Y11.86
X19.72 Y12.169
X20.131 Y12.75
X20.385 Y13.46
X20.434 Y14.172
X20.423 Y14.237
X20.289 Y14.884
X20.06 Y15.336
X19.947 Y15.553
X19.452 Y16.083
X18.833 Y16.461
X18.717 Y16.497
X18.126 Y16.663
X18.063 Y16.666
X17.395
X16.692 Y16.471
X16.046 Y16.08
X15.545 Y15.538
X15.223 Y14.917
X15.067 Y14.187
Y14.169
X15.095 Y13.76
G3 X15.229 Y13.673 I0.1 J0.007
G1 X16.931 Y14.292
G2 X17.057 Y14.157 I0.034 J-0.094
G3 X18.79 Y13.379 Z-1.852 I0.867 J-0.389
X17.057 Y14.157 Z-1.904 I-0.867 J0.389
X18.79 Y13.379 Z-1.956 I0.867 J-0.389
X17.353 Y14.528 Z-2 I-0.867 J0.389
X18.144 Y13.473 I0.395 J-0.527
X17.353 Y14.528 I-0.395 J0.527
G2 X16.209 Y14.313 I-0.79 J1.053
G3 X15.306 Y13.578 I-0.192 J-0.686
G1 X15.311 Y13.502
X15.535 Y12.866
X15.929 Y12.302
X16.444 Y11.882
X17.069 Y11.606
X17.766 Y11.512
X18.421 Y11.602
X19.043 Y11.871
X19.561 Y12.292
X19.961 Y12.854
X20.189 Y13.502
X20.234 Y14.164
X20.099 Y14.821
X19.773 Y15.449
X19.332 Y15.921
X19.214 Y15.997
X18.751 Y16.279
X18.093 Y16.466
X17.397 Y16.463
X16.765 Y16.286
X16.739 Y16.273
X16.171 Y15.924
X15.711 Y15.428
X15.401 Y14.823
X15.266 Y14.162
X15.306 Y13.578
G3 X15.446 Y13.494 I0.1 J0.007
G1 X15.92 Y13.702
X17.884 Y14.369
X18.065 Y14.405
G3 X18.091 Y14.46 I-0.007 J0.037
X16.428 Y13.54 Z-2.052 I-0.831 J-0.46
X18.091 Y14.46 Z-2.104 I0.831 J0.46
X16.428 Y13.54 Z-2.156 I-0.831 J-0.46
X18.209 Y14 Z-2.2 I0.831 J0.46
X17.288 I-0.461 J0
X18.209 I0.461 J0
G2 X18.756 Y14.994 I1.177 J0
G3 X18.592 Y16.116 I-0.332 J0.525
G1 X18.049 Y16.269
X17.441
X16.826 Y16.094
X16.305 Y15.777
X15.877 Y15.317
X15.596 Y14.776
X15.466 Y14.161
X15.512 Y13.521
X15.557 Y13.396
X15.722 Y12.939
X16.074 Y12.439
X16.548 Y12.052
X17.123 Y11.799
X17.766 Y11.712
X18.37 Y11.795
X18.939 Y12.043
X19.426 Y12.439
X19.783 Y12.946
X19.993 Y13.546
X20.034 Y14.159
X19.901 Y14.782
X19.627 Y15.31
X19.183 Y15.784
X18.676 Y16.093
X18.592 Y16.116
G3 X18.477 Y16.067 I-0.027 J-0.096
G1 X17.295 Y13.84
G3 X19.028 Y13.062 Z-2.252 I0.867 J-0.389
X17.295 Y13.84 Z-2.304 I-0.867 J0.389
X19.028 Y13.062 Z-2.356 I0.867 J-0.389
X17.591 Y14.211 Z-2.4 I-0.867 J0.389
X17.907 Y13.79 I0.158 J-0.21
X17.591 Y14.211 I-0.158 J0.21
G2 X16.549 Y14.009 I-0.729 J0.972
G3 X15.827 Y13.231 I-0.155 J-0.581
G1 X15.892 Y13.045
X15.911 Y13.014
X16.216 Y12.582
X16.666 Y12.213
X17.197 Y11.986
X17.765 Y11.911
X18.308 Y11.986
X18.331 Y11.994
X18.823 Y12.208
X19.287 Y12.586
X19.598 Y13.027
X19.626 Y13.093
X19.797 Y13.588
X19.832 Y14.159
X19.722 Y14.69
X19.465 Y15.192
X19.071 Y15.619
X18.576 Y15.919
X18.048 Y16.067
X17.48 Y16.071
X16.926 Y15.92
X16.429 Y15.62
X16.043 Y15.206
X15.778 Y14.69
X15.668 Y14.159
X15.703 Y13.588
X15.827 Y13.231
G3 X15.973 Y13.177 I0.094 J0.033
G1 X17.013 Y13.794
X18.109 Y14.322
G3 X18.153 Y14.46 I-0.043 J0.09
X16.49 Y13.541 Z-2.452 I-0.831 J-0.46
X18.153 Y14.46 Z-2.504 I0.831 J0.46
X16.49 Y13.541 Z-2.556 I-0.831 J-0.46
X18.272 Y14.001 Z-2.6 I0.831 J0.46
X17.228 I-0.522 J0
X18.272 I0.522 J0
G2 X18.668 Y14.779 I0.961 J0
G3 X18.632 Y15.651 I-0.308 J0.424
G1 X18.489 Y15.738
X18.007 Y15.873
X17.485 Y15.871
X17 Y15.735
X16.557 Y15.466
X16.202 Y15.083
X15.976 Y14.648
X15.865 Y14.116
X15.898 Y13.624
X15.912 Y13.577
X16.066 Y13.145
X16.36 Y12.722
X16.462 Y12.633
X16.755 Y12.395
X17.243 Y12.18
X17.764 Y12.112
X18.269 Y12.183
X18.726 Y12.382
X19.12 Y12.7
X19.435 Y13.147
X19.597 Y13.604
X19.605 Y13.668
X19.635 Y14.118
X19.531 Y14.631
X19.295 Y15.089
X18.951 Y15.458
X18.632 Y15.651
G3 X18.482 Y15.583 I-0.052 J-0.086
G1 X18.283 Y14.491
G2 X18.097 Y14.461 I-0.098 J0.018
G3 X16.435 Y13.541 Z-2.652 I-0.831 J-0.46
X18.097 Y14.461 Z-2.704 I0.831 J0.46
X16.435 Y13.541 Z-2.756 I-0.831 J-0.46
X18.216 Y14.001 Z-2.8 I0.831 J0.46
X17.284 I-0.466 J0
X18.216 I0.466 J0
G2 X18.577 Y14.713 I0.883 J0
G3 X18.546 Y15.511 I-0.285 J0.388
G1 X18.382 Y15.612
X17.809 Y15.721
X17.685 Y15.72
X17.124 Y15.613
X16.606 Y15.294
X16.552 Y15.239
X16.217 Y14.788
X16.186 Y14.726
X16.026 Y14.15
X16.081 Y13.555
X16.113 Y13.466
X16.236 Y13.219
X16.348 Y12.996
X16.384 Y12.945
X16.849 Y12.523
X17.406 Y12.307
X17.489 Y12.297
X18.039 Y12.299
X18.081 Y12.305
X18.663 Y12.527
X19.097 Y12.924
X19.154 Y13
X19.403 Y13.504
X19.419 Y13.549
X19.474 Y14.149
X19.309 Y14.736
X19.261 Y14.825
X18.926 Y15.266
X18.903 Y15.289
X18.546 Y15.511
G3 X18.394 Y15.437 I-0.053 J-0.085
G1 X18.284 Y14.498
G2 X18.097 Y14.461 I-0.099 J0.012
G3 X16.435 Y13.541 Z-2.852 I-0.831 J-0.46
X18.097 Y14.461 Z-2.904 I0.831 J0.46
X16.435 Y13.541 Z-2.956 I-0.831 J-0.46
X18.216 Y14.001 Z-3 I0.831 J0.46
X17.284 I-0.466 J0
X18.216 I0.466 J0
G2 X18.577 Y14.713 I0.883 J0
G3 X18.546 Y15.511 I-0.285 J0.388
G1 X18.382 Y15.612
X17.809 Y15.721
X17.685 Y15.72
X17.124 Y15.613
X16.606 Y15.294
X16.552 Y15.239
X16.217 Y14.788
X16.186 Y14.726
X16.026 Y14.15
X16.081 Y13.555
X16.113 Y13.466
X16.236 Y13.219
X16.348 Y12.996
X16.384 Y12.945
X16.849 Y12.523
X17.406 Y12.307
X17.489 Y12.297
X18.039 Y12.299
X18.081 Y12.305
X18.663 Y12.527
X19.097 Y12.924
X19.154 Y13
X19.403 Y13.504
X19.419 Y13.549
X19.474 Y14.149
X19.309 Y14.736
X19.261 Y14.825
X18.926 Y15.266
X18.903 Y15.289
X18.546 Y15.511
G3 X18.394 Y15.437 I-0.053 J-0.085
G1 X18.284 Y14.498
G2 X18.097 Y14.461 I-0.099 J0.012
G3 X16.435 Y13.541 Z-3.052 I-0.831 J-0.46
X18.097 Y14.461 Z-3.104 I0.831 J0.46
X16.435 Y13.541 Z-3.156 I-0.831 J-0.46
X18.216 Y14.001 Z-3.2 I0.831 J0.46
X17.284 I-0.466 J0
X18.216 I0.466 J0
G2 X18.577 Y14.713 I0.883 J0
G3 X18.546 Y15.511 I-0.285 J0.388
G1 X18.382 Y15.612
X17.809 Y15.721
X17.685 Y15.72
X17.124 Y15.613
X16.606 Y15.294
X16.552 Y15.239
X16.217 Y14.788
X16.186 Y14.726
X16.026 Y14.15
X16.081 Y13.555
X16.113 Y13.466
X16.236 Y13.219
X16.348 Y12.996
X16.384 Y12.945
X16.849 Y12.523
X17.406 Y12.307
X17.489 Y12.297
X18.039 Y12.299
X18.081 Y12.305
X18.663 Y12.527
X19.097 Y12.924
X19.154 Y13
X19.403 Y13.504
X19.419 Y13.549
X19.474 Y14.149
X19.309 Y14.736
X19.261 Y14.825
X18.926 Y15.266
X18.903 Y15.289
X18.546 Y15.511
G3 X18.394 Y15.437 I-0.053 J-0.085
G1 X18.284 Y14.498
G2 X18.097 Y14.461 I-0.099 J0.012
G3 X16.435 Y13.541 Z-3.252 I-0.831 J-0.46
X18.097 Y14.461 Z-3.304 I0.831 J0.46
X16.435 Y13.541 Z-3.356 I-0.831 J-0.46
X18.216 Y14.001 Z-3.4 I0.831 J0.46
X17.284 I-0.466 J0
X18.216 I0.466 J0
G2 X18.577 Y14.713 I0.883 J0
G3 X18.546 Y15.511 I-0.285 J0.388
G1 X18.382 Y15.612
X17.809 Y15.721
X17.685 Y15.72
X17.124 Y15.613
X16.606 Y15.294
X16.552 Y15.239
X16.217 Y14.788
X16.186 Y14.726
X16.026 Y14.15
X16.081 Y13.555
X16.113 Y13.466
X16.236 Y13.219
X16.348 Y12.996
X16.384 Y12.945
X16.849 Y12.523
X17.406 Y12.307
X17.489 Y12.297
X18.039 Y12.299
X18.081 Y12.305
X18.663 Y12.527
X19.097 Y12.924
X19.154 Y13
X19.403 Y13.504
X19.419 Y13.549
X19.474 Y14.149
X19.309 Y14.736
X19.261 Y14.825
X18.926 Y15.266
X18.903 Y15.289
X18.546 Y15.511
G3 X18.394 Y15.437 I-0.053 J-0.085
G1 X18.284 Y14.498
G2 X18.097 Y14.461 I-0.099 J0.012
G3 X16.435 Y13.541 Z-3.452 I-0.831 J-0.46
X18.097 Y14.461 Z-3.504 I0.831 J0.46
X16.435 Y13.541 Z-3.556 I-0.831 J-0.46
X18.216 Y14.001 Z-3.6 I0.831 J0.46
X17.284 I-0.466 J0
X18.216 I0.466 J0
G2 X18.577 Y14.713 I0.883 J0
G3 X18.546 Y15.511 I-0.285 J0.388
G1 X18.382 Y15.612
X17.809 Y15.721
X17.685 Y15.72
X17.124 Y15.613
X16.606 Y15.294
X16.552 Y15.239
X16.217 Y14.788
X16.186 Y14.726
X16.026 Y14.15
X16.081 Y13.555
X16.113 Y13.466
X16.236 Y13.219
X16.348 Y12.996
X16.384 Y12.945
X16.849 Y12.523
X17.406 Y12.307
X17.489 Y12.297
X18.039 Y12.299
X18.081 Y12.305
X18.663 Y12.527
X19.097 Y12.924
X19.154 Y13
X19.403 Y13.504
X19.419 Y13.549
X19.474 Y14.149
X19.309 Y14.736
X19.261 Y14.825
X18.926 Y15.266
X18.903 Y15.289
X18.546 Y15.511
G3 X18.394 Y15.437 I-0.053 J-0.085
G1 X18.284 Y14.498
G2 X18.097 Y14.461 I-0.099 J0.012
G3 X16.435 Y13.541 Z-3.652 I-0.831 J-0.46
X18.097 Y14.461 Z-3.704 I0.831 J0.46
X16.435 Y13.541 Z-3.756 I-0.831 J-0.46
X18.216 Y14.001 Z-3.8 I0.831 J0.46
X17.284 I-0.466 J0
X18.216 I0.466 J0
G2 X18.577 Y14.713 I0.883 J0
G3 X18.546 Y15.511 I-0.285 J0.388
G1 X18.382 Y15.612
X17.809 Y15.721
X17.685 Y15.72
X17.124 Y15.613
X16.606 Y15.294
X16.552 Y15.239
X16.217 Y14.788
X16.186 Y14.726
X16.026 Y14.15
X16.081 Y13.555
X16.113 Y13.466
X16.236 Y13.219
X16.348 Y12.996
X16.384 Y12.945
X16.849 Y12.523
X17.406 Y12.307
X17.489 Y12.297
X18.039 Y12.299
X18.081 Y12.305
X18.663 Y12.527
X19.097 Y12.924
X19.154 Y13
X19.403 Y13.504
X19.419 Y13.549
X19.474 Y14.149
X19.309 Y14.736
X19.261 Y14.825
X18.926 Y15.266
X18.903 Y15.289
X18.546 Y15.511
G3 X18.394 Y15.437 I-0.053 J-0.085
G1 X18.284 Y14.498
G2 X18.097 Y14.461 I-0.099 J0.012
G3 X16.435 Y13.541 Z-3.852 I-0.831 J-0.46
X18.097 Y14.461 Z-3.904 I0.831 J0.46
X16.435 Y13.541 Z-3.956 I-0.831 J-0.46
X18.216 Y14.001 Z-4 I0.831 J0.46
X17.284 I-0.466 J0
X18.216 I0.466 J0
G2 X18.577 Y14.713 I0.883 J0
G3 X18.546 Y15.511 I-0.285 J0.388
G1 X18.382 Y15.612
X17.809 Y15.721
X17.685 Y15.72
X17.124 Y15.613
X16.606 Y15.294
X16.552 Y15.239
X16.217 Y14.788
X16.186 Y14.726
X16.026 Y14.15
X16.081 Y13.555
X16.113 Y13.466
X16.236 Y13.219
X16.348 Y12.996
X16.384 Y12.945
X16.849 Y12.523
X17.406 Y12.307
X17.489 Y12.297
X18.039 Y12.299
X18.081 Y12.305
X18.663 Y12.527
X19.097 Y12.924
X19.154 Y13
X19.403 Y13.504
X19.419 Y13.549
X19.474 Y14.149
X19.309 Y14.736
X19.261 Y14.825
X18.926 Y15.266
X18.903 Y15.289
X18.546 Y15.511
G3 X18.397 Y15.453 I-0.053 J-0.085
G1 X18.243 Y14.926
X17.572 Y13.334
X17.509 Y13.151
G3 X17.562 Y13.098 I0.04 J-0.014
X16.972 Y14.904 Z-4.052 I-0.295 J0.903
X17.562 Y13.098 Z-4.104 I0.295 J-0.903
X18.217 Y14.001 Z-4.125 I-0.295 J0.903
X17.284 I-0.466 J0
X18.217 I0.466 J0
G2 X18.574 Y14.715 I0.891 J0
G3 X18.537 Y15.513 I-0.289 J0.386
G1 X18.5 Y15.536
X18.204 Y15.648
X17.897 Y15.703
X17.593
X17.289 Y15.647
X16.977 Y15.524
X16.722 Y15.367
X16.477 Y15.14
X16.293 Y14.895
X16.161 Y14.63
X16.072 Y14.324
X16.042 Y13.978
X16.072 Y13.674
X16.164 Y13.363
X16.236 Y13.219
X16.296 Y13.099
X16.479 Y12.856
X16.733 Y12.626
X16.991 Y12.468
X17.288 Y12.354
X17.593 Y12.297
X17.894
X18.24 Y12.364
X18.528 Y12.479
X18.796 Y12.649
X19.014 Y12.848
X19.209 Y13.109
X19.349 Y13.4
X19.433 Y13.708
X19.459 Y14.015
X19.429 Y14.321
X19.339 Y14.63
X19.205 Y14.899
X19.024 Y15.139
X18.782 Y15.364
X18.537 Y15.513
G3 X18.39 Y15.46 I-0.052 J-0.085
G1 X18.119 Y14.679
X17.568 Y13.304
X17.516 Y13.144
G3 X17.562 Y13.098 I0.035 J-0.011
X16.972 Y14.904 Z-4.177 I-0.295 J0.903
X17.562 Y13.098 Z-4.229 I0.295 J-0.903
X18.217 Y14.001 Z-4.25 I-0.295 J0.903
X17.284 I-0.466 J0
X18.217 I0.466 J0
G2 X18.574 Y14.715 I0.891 J0
G3 X18.537 Y15.513 I-0.289 J0.386
G1 X18.5 Y15.536
X18.204 Y15.648
X17.897 Y15.703
X17.593
X17.289 Y15.647
X16.977 Y15.524
X16.722 Y15.367
X16.477 Y15.14
X16.293 Y14.895
X16.161 Y14.63
X16.072 Y14.324
X16.042 Y13.978
X16.072 Y13.674
X16.164 Y13.363
X16.236 Y13.219
X16.296 Y13.099
X16.479 Y12.856
X16.733 Y12.626
X16.991 Y12.468
X17.288 Y12.354
X17.593 Y12.297
X17.894
X18.24 Y12.364
X18.528 Y12.479
X18.796 Y12.649
X19.014 Y12.848
X19.209 Y13.109
X19.349 Y13.4
X19.433 Y13.708
X19.459 Y14.015
X19.429 Y14.321
X19.339 Y14.63
X19.205 Y14.899
X19.024 Y15.139
X18.782 Y15.364
X18.537 Y15.513
G3 X18.466 Y15.539 Z-4.235 I-0.104 J-0.171
X18.401 Y15.54 Z-4.191 I-0.033 J-0.197
X18.359 Y15.528 Z-4.127 I0.032 J-0.197
X18.345 Y15.522 Z-4.05 I0.073 J-0.186
G0 Z5
X37.977 Y14.19
Z0.41
G3 X37.974 Y14.205 Z0.334 I-0.931 J-0.189 F600
X37.964 Y14.246 Z0.27 I-0.928 J-0.204
X37.945 Y14.307 Z0.226 I-0.918 J-0.245
X37.918 Y14.378 Z0.21 I-0.899 J-0.306
X36.174 Y13.624 Z0.158 I-0.872 J-0.377
X37.918 Y14.378 Z0.106 I0.872 J0.377
X36.174 Y13.624 Z0.054 I-0.872 J-0.377
X37.918 Y14.378 Z0.002 I0.872 J0.377
X36.174 Y13.624 Z-0.05 I-0.872 J-0.377
X37.918 Y14.378 Z-0.103 I0.872 J0.377
X36.174 Y13.624 Z-0.155 I-0.872 J-0.377
X37.996 Y14.001 Z-0.2 I0.872 J0.377
X37.506 I-0.245 J0
X39.896 I1.195 J0
X35.606 I-2.145 J0
X39.896 I2.145 J0
G2 X40.561 Y15.181 I1.38 J0
G3 X40.81 Y16.512 I-0.471 J0.777
G1 X40.793 Y16.534
X40.397 Y16.957
X39.984 Y17.268
X39.514 Y17.552
X39.051 Y17.741
X38.5 Y17.893
X38.038 Y17.953
X37.444 Y17.951
X36.985 Y17.891
X36.39 Y17.72
X35.969 Y17.544
X35.464 Y17.234
X35.105 Y16.959
X34.69 Y16.513
X34.401 Y16.131
X34.171 Y15.687
X33.961 Y15.192
X33.86 Y14.711
X33.778 Y14.134
X33.825 Y13.496
X33.863 Y13.211
X33.881 Y13.08
X34.065 Y12.563
X34.255 Y12.097
X34.59 Y11.621
X34.878 Y11.243
X35.6 Y10.662
X35.726 Y10.569
X36.687 Y10.158
X36.709 Y10.153
X37.761 Y10.011
X38.813 Y10.158
X39.792 Y10.579
X40.088 Y10.806
X40.624 Y11.245
X40.91 Y11.621
X41.245 Y12.097
X41.435 Y12.563
X41.618 Y13.078
X41.675 Y13.497
X41.722 Y14.137
X41.663 Y14.596
X41.538 Y15.195
X41.352 Y15.641
X41.074 Y16.168
X40.81 Y16.512
G3 X40.664 Y16.526 I-0.079 J-0.061
G1 X39.897 Y15.85
X37.877 Y14.461
G3 X36.215 Y13.541 Z-0.252 I-0.831 J-0.46
X37.877 Y14.461 Z-0.304 I0.831 J0.46
X36.215 Y13.541 Z-0.356 I-0.831 J-0.46
X37.996 Y14.001 Z-0.4 I0.831 J0.46
X37.506 I-0.245 J0
X39.896 I1.195 J0
X35.606 I-2.145 J0
X39.896 I2.145 J0
G2 X40.561 Y15.181 I1.38 J0
G3 X40.81 Y16.512 I-0.471 J0.777
G1 X40.793 Y16.534
X40.397 Y16.957
X39.984 Y17.268
X39.514 Y17.552
X39.051 Y17.741
X38.5 Y17.893
X38.038 Y17.953
X37.444 Y17.951
X36.985 Y17.891
X36.39 Y17.72
X35.969 Y17.544
X35.464 Y17.234
X35.105 Y16.959
X34.69 Y16.513
X34.401 Y16.131
X34.171 Y15.687
X33.961 Y15.192
X33.86 Y14.711
X33.778 Y14.134
X33.825 Y13.496
X33.863 Y13.211
X33.881 Y13.08
X34.065 Y12.563
X34.255 Y12.097
X34.59 Y11.621
X34.878 Y11.243
X35.6 Y10.662
X35.726 Y10.569
X36.687 Y10.158
X36.709 Y10.153
X37.761 Y10.011
X38.813 Y10.158
X39.792 Y10.579
X40.088 Y10.806
X40.624 Y11.245
X40.91 Y11.621
X41.245 Y12.097
X41.435 Y12.563
X41.618 Y13.078
X41.675 Y13.497
X41.722 Y14.137
X41.663 Y14.596
X41.538 Y15.195
X41.352 Y15.641
X41.074 Y16.168
X40.81 Y16.512
G3 X40.665 Y16.527 I-0.079 J-0.061
G1 X39.892 Y15.858
X37.778 Y14.459
G3 X36.115 Y13.54 Z-0.452 I-0.831 J-0.46
X37.778 Y14.459 Z-0.504 I0.831 J0.46
X36.115 Y13.54 Z-0.556 I-0.831 J-0.46
X37.897 Y14 Z-0.6 I0.831 J0.46
X37.603 I-0.147 J0
X39.797 I1.097 J0
X35.703 I-2.047 J0
X39.797 I2.047 J0
G2 X40.484 Y15.16 I1.323 J0
G3 X40.697 Y16.491 I-0.411 J0.749
G1 X40.206 Y17.018
X39.285 Y17.573
X38.265 Y17.854
X37.216 Y17.853
X36.216 Y17.573
X35.303 Y17.023
X34.567 Y16.235
X34.086 Y15.306
X33.869 Y14.266
X33.946 Y13.195
X34.292 Y12.219
X34.907 Y11.344
X35.738 Y10.672
X36.71 Y10.253
X37.76 Y10.111
X38.81 Y10.259
X39.784 Y10.686
X40.593 Y11.344
X41.208 Y12.221
X41.554 Y13.195
X41.63 Y14.251
X41.414 Y15.306
X40.918 Y16.255
X40.697 Y16.491
G3 X40.544 Y16.483 I-0.073 J-0.068
G1 X39.384 Y14.913
G2 X39.365 Y14.891 I-0.084 J0.054
G1 X37.944 Y13.665
G3 X37.922 Y13.541 I0.065 J-0.076
X39.585 Y14.46 Z-0.652 I0.831 J0.46
X37.922 Y13.541 Z-0.704 I-0.831 J-0.46
X39.585 Y14.46 Z-0.756 I0.831 J0.46
X37.804 Y14 Z-0.8 I-0.831 J-0.46
X39.599 I0.898 J0
X35.904 I-1.848 J0
X39.599 I1.848 J0
G2 X40.258 Y15.152 I1.336 J0
G3 X40.449 Y16.465 I-0.431 J0.733
G1 X40.08 Y16.862
X39.229 Y17.38
X38.263 Y17.653
X37.258 Y17.656
X36.291 Y17.388
X35.427 Y16.867
X35.405 Y16.846
X34.745 Y16.139
X34.269 Y15.219
X34.068 Y14.25
X34.14 Y13.239
X34.19 Y13.099
X34.471 Y12.309
X35.062 Y11.474
X35.827 Y10.851
X36.755 Y10.446
X37.761 Y10.311
X38.735 Y10.445
X38.803 Y10.471
X39.653 Y10.84
X40.452 Y11.488
X41.031 Y12.314
X41.36 Y13.239
X41.432 Y14.25
X41.231 Y15.219
X40.767 Y16.124
X40.449 Y16.465
G3 X40.291 Y16.449 I-0.073 J-0.068
G1 X39.354 Y14.906
G2 X39.334 Y14.875 I-0.092 J0.039
G1 X38.136 Y13.658
G3 X38.12 Y13.54 I0.071 J-0.07
X39.782 Y14.459 Z-0.852 I0.831 J0.46
X38.12 Y13.54 Z-0.904 I-0.831 J-0.46
X39.782 Y14.459 Z-0.956 I0.831 J0.46
X38.001 Y14 Z-1 I-0.831 J-0.46
X39.401 I0.7 J0
X36.101 I-1.65 J0
X39.401 I1.65 J0
G2 X40.035 Y15.14 I1.343 J0
G3 X40.204 Y16.435 I-0.445 J0.717
G1 X39.941 Y16.715
X39.143 Y17.2
X38.222 Y17.458
X37.26 Y17.454
X36.374 Y17.206
X36.257 Y17.14
X35.547 Y16.708
X34.907 Y16.022
X34.457 Y15.151
X34.27 Y14.249
X34.335 Y13.282
X34.541 Y12.702
X34.65 Y12.396
X35.194 Y11.625
X35.945 Y11.014
X36.799 Y10.643
X37.762 Y10.511
X38.681 Y10.637
X39.561 Y11.017
X40.308 Y11.627
X40.85 Y12.396
X41.165 Y13.282
X41.23 Y14.249
X41.04 Y15.164
X40.597 Y16.018
X40.204 Y16.435
G3 X40.041 Y16.409 I-0.073 J-0.069
G1 X39.328 Y14.894
G2 X39.308 Y14.853 I-0.098 J0.022
G1 X38.326 Y13.652
G3 X38.316 Y13.54 I0.077 J-0.063
X39.978 Y14.46 Z-1.052 I0.831 J0.46
X38.316 Y13.54 Z-1.104 I-0.831 J-0.46
X39.978 Y14.46 Z-1.156 I0.831 J0.46
X38.197 Y14 Z-1.2 I-0.831 J-0.46
X39.201 I0.502 J0
X36.297 I-1.452 J0
X39.201 I1.452 J0
G2 X39.807 Y15.134 I1.366 J0
G3 X39.952 Y16.412 I-0.469 J0.701
G1 X39.812 Y16.561
X39.055 Y17.02
X38.212 Y17.256
X38.104 Y17.26
X37.304
X36.426 Y17.01
X35.688 Y16.561
X35.488 Y16.354
X35.059 Y15.892
X34.646 Y15.087
X34.47 Y14.236
X34.471 Y14.172
X34.528 Y13.338
X34.544 Y13.285
X34.836 Y12.475
X35.342 Y11.759
X36.051 Y11.184
X36.851 Y10.837
X36.958 Y10.818
X37.761 Y10.711
X38.636 Y10.831
X39.469 Y11.196
X40.157 Y11.757
X40.676 Y12.499
X40.97 Y13.327
X41.032 Y14.207
X40.922 Y14.758
X40.854 Y15.087
X40.441 Y15.891
X39.952 Y16.412
G3 X39.789 Y16.386 I-0.073 J-0.068
G1 X38.645 Y13.944
G3 X38.636 Y13.917 I0.091 J-0.042
G1 X38.596 Y13.657
X38.518 Y13.571
G3 X38.513 Y13.539 I0.019 J-0.019
X40.176 Y14.459 Z-1.252 I0.831 J0.46
X38.513 Y13.539 Z-1.304 I-0.831 J-0.46
X40.176 Y14.459 Z-1.356 I0.831 J0.46
X38.395 Y13.999 Z-1.4 I-0.831 J-0.46
X39 I0.303 J0
X36.495 I-1.253 J0
X39 I1.253 J0
G2 X39.58 Y15.126 I1.386 J0
G3 X39.704 Y16.388 I-0.49 J0.685
G1 X39.688 Y16.405
X38.971 Y16.838
X38.176 Y17.06
X37.346 Y17.062
X36.507 Y16.828
X35.796 Y16.393
X35.221 Y15.775
X34.841 Y15.042
X34.667 Y14.205
X34.724 Y13.371
X34.893 Y12.897
X35.008 Y12.575
X35.494 Y11.889
X36.135 Y11.367
X36.911 Y11.027
X37.761 Y10.911
X38.571 Y11.022
X39.369 Y11.37
X39.995 Y11.879
X40.343 Y12.364
X40.494 Y12.578
X40.776 Y13.371
X40.833 Y14.205
X40.659 Y15.042
X40.276 Y15.779
X39.704 Y16.388
G3 X39.632 Y16.37 I-0.031 J-0.029
G1 X39.581 Y16.177
X39.04 Y13.967
G2 X39.011 Y13.918 I-0.095 J0.023
G1 X38.731 Y13.658
G3 X38.712 Y13.538 I0.067 J-0.072
X40.375 Y14.458 Z-1.452 I0.831 J0.46
X38.712 Y13.538 Z-1.504 I-0.831 J-0.46
X40.375 Y14.458 Z-1.556 I0.831 J0.46
X38.593 Y13.998 Z-1.6 I-0.831 J-0.46
X38.806 I0.106 J0
X36.693 I-1.056 J0
X38.806 I1.056 J0
G2 X39.427 Y15.078 I1.25 J0
G3 X39.439 Y16.324 I-0.365 J0.627
G1 X38.917 Y16.642
X38.133 Y16.863
X37.348 Y16.861
X36.601 Y16.652
X35.918 Y16.233
X35.382 Y15.653
X35.023 Y14.954
X34.868 Y14.204
X34.92 Y13.412
X35.189 Y12.662
X35.642 Y12.023
X36.248 Y11.53
X36.975 Y11.216
X37.75 Y11.109
X38.523 Y11.216
X38.546 Y11.224
X39.257 Y11.534
X39.858 Y12.023
X40.313 Y12.666
X40.321 Y12.683
X40.58 Y13.414
X40.631 Y14.21
X40.477 Y14.954
X40.109 Y15.669
X39.559 Y16.251
X39.439 Y16.324
G3 X39.293 Y16.272 I-0.052 J-0.085
G1 X38.671 Y14.476
G2 X38.489 Y14.46 I-0.094 J0.033
G3 X36.826 Y13.54 Z-1.652 I-0.831 J-0.46
X38.489 Y14.46 Z-1.704 I0.831 J0.46
X36.826 Y13.54 Z-1.756 I-0.831 J-0.46
X38.608 Y14 Z-1.8 I0.831 J0.46
X36.892 I-0.858 J0
X38.608 I0.858 J0
G2 X39.179 Y15.06 I1.269 J0
G3 X39.157 Y16.264 I-0.392 J0.595
G1 X38.834 Y16.46
X38.13 Y16.661
X37.389 Y16.665
X36.687 Y16.47
X36.058 Y16.091
X36.037 Y16.071
X35.551 Y15.55
X35.214 Y14.898
X35.067 Y14.188
Y14.169
X35.115 Y13.458
X35.244 Y13.091
X35.368 Y12.752
X35.774 Y12.178
X36.353 Y11.701
X37.019 Y11.412
X37.761 Y11.311
X38.462 Y11.407
X39.15 Y11.703
X39.716 Y12.163
X40.131 Y12.75
X40.385 Y13.46
X40.434 Y14.172
X40.423 Y14.237
X40.287 Y14.893
X39.947 Y15.552
X39.444 Y16.09
X39.157 Y16.264
G3 X39.014 Y16.22 I-0.052 J-0.085
G1 X38.291 Y14.623
G2 X38.23 Y14.569 I-0.091 J0.041
G1 X37.12 Y14.211
G3 X37.059 Y14.157 I0.031 J-0.095
X38.792 Y13.379 Z-1.852 I0.867 J-0.389
X37.059 Y14.157 Z-1.904 I-0.867 J0.389
X38.792 Y13.379 Z-1.956 I0.867 J-0.389
X37.356 Y14.528 Z-2 I-0.867 J0.389
X38.147 Y13.473 I0.396 J-0.527
X37.356 Y14.528 I-0.396 J0.527
G2 X36.21 Y14.313 I-0.792 J1.055
G3 X35.306 Y13.576 I-0.192 J-0.688
G1 X35.311 Y13.503
X35.544 Y12.847
X35.936 Y12.295
X36.443 Y11.882
X37.065 Y11.608
X37.762 Y11.511
X38.417 Y11.601
X39.044 Y11.872
X39.569 Y12.299
X39.967 Y12.869
X40.189 Y13.502
X40.234 Y14.162
X40.099 Y14.823
X39.785 Y15.436
X39.328 Y15.926
X38.746 Y16.282
X38.088 Y16.467
X37.423
X37.358 Y16.453
X36.775 Y16.289
X36.188 Y15.938
X35.725 Y15.446
X35.4 Y14.821
X35.265 Y14.171
X35.272 Y14.066
X35.306 Y13.576
G3 X35.443 Y13.49 I0.1 J0.007
G1 X37.048 Y14.133
G2 X37.176 Y13.999 I0.037 J-0.093
G3 X38.91 Y13.221 Z-2.052 I0.867 J-0.389
X37.176 Y13.999 Z-2.104 I-0.867 J0.389
X38.91 Y13.221 Z-2.156 I0.867 J-0.389
X37.473 Y14.37 Z-2.2 I-0.867 J0.389
X38.026 Y13.632 I0.277 J-0.369
X37.473 Y14.37 I-0.277 J0.369
G2 X36.357 Y14.197 I-0.72 J0.96
G3 X35.556 Y13.401 I-0.207 J-0.592
G1 X35.596 Y13.284
X35.726 Y12.933
X36.074 Y12.439
X36.557 Y12.045
X37.127 Y11.797
X37.76 Y11.711
X38.374 Y11.797
X38.948 Y12.05
X39.426 Y12.439
X39.776 Y12.935
X39.993 Y13.547
X40.034 Y14.159
X39.901 Y14.782
X39.626 Y15.312
X39.602 Y15.341
X39.202 Y15.77
X38.664 Y16.1
X38.046 Y16.269
X37.435 Y16.268
X36.85 Y16.105
X36.308 Y15.779
X35.888 Y15.33
X35.599 Y14.781
X35.466 Y14.159
X35.507 Y13.544
X35.556 Y13.401
G3 X35.695 Y13.344 I0.095 J0.033
G1 X37.634 Y14.318
X37.7 Y14.354
X37.872 Y14.407
G3 X37.893 Y14.46 I-0.011 J0.035
X36.231 Y13.54 Z-2.252 I-0.831 J-0.46
X37.893 Y14.46 Z-2.304 I0.831 J0.46
X36.231 Y13.54 Z-2.356 I-0.831 J-0.46
X38.012 Y14 Z-2.4 I0.831 J0.46
X37.486 I-0.263 J0
X38.012 I0.263 J0
G2 X38.49 Y14.951 I1.185 J0
G3 X38.297 Y15.998 I-0.354 J0.476
G1 X38.044 Y16.069
X37.477 Y16.071
X36.911 Y15.913
X36.421 Y15.611
X36.043 Y15.206
X35.778 Y14.69
X35.668 Y14.159
X35.703 Y13.589
X35.896 Y13.035
X36.222 Y12.574
X36.661 Y12.216
X37.193 Y11.986
X37.759 Y11.911
X38.327 Y11.993
X38.82 Y12.207
X39.236 Y12.539
X39.273 Y12.569
X39.599 Y13.028
X39.797 Y13.589
X39.832 Y14.159
X39.722 Y14.69
X39.462 Y15.198
X39.433 Y15.232
X39.06 Y15.627
X38.594 Y15.911
X38.497 Y15.942
X38.297 Y15.998
G3 X38.182 Y15.95 I-0.027 J-0.096
G1 X37.139 Y14.048
G3 X38.873 Y13.27 Z-2.452 I0.867 J-0.389
X37.139 Y14.048 Z-2.504 I-0.867 J0.389
X38.873 Y13.27 Z-2.556 I0.867 J-0.389
X37.436 Y14.419 Z-2.6 I-0.867 J0.389
X38.063 Y13.583 I0.313 J-0.418
X37.436 Y14.419 I-0.313 J0.418
G2 X36.574 Y14.26 I-0.59 J0.786
G3 X35.892 Y13.71 I-0.148 J-0.514
G1 X35.898 Y13.63
X35.95 Y13.473
X36.066 Y13.145
X36.359 Y12.723
X36.5 Y12.602
X36.763 Y12.388
X37.226 Y12.186
X37.762 Y12.111
X38.243 Y12.177
X38.732 Y12.385
X39.131 Y12.709
X39.434 Y13.145
X39.597 Y13.604
X39.605 Y13.668
X39.635 Y14.118
X39.532 Y14.627
X39.284 Y15.101
X38.937 Y15.471
X38.51 Y15.73
X38.487 Y15.739
X38.003 Y15.873
X37.48 Y15.87
X36.996 Y15.734
X36.564 Y15.471
X36.537 Y15.445
X36.2 Y15.078
X35.967 Y14.624
X35.865 Y14.118
X35.892 Y13.71
G3 X36.037 Y13.628 I0.1 J0.007
G1 X37.036 Y14.132
G2 X37.172 Y14.001 I0.045 J-0.089
G3 X38.906 Y13.223 Z-2.652 I0.867 J-0.389
X37.172 Y14.001 Z-2.704 I-0.867 J0.389
X38.906 Y13.223 Z-2.756 I0.867 J-0.389
X37.469 Y14.372 Z-2.8 I-0.867 J0.389
X38.028 Y13.627 I0.28 J-0.373
X37.469 Y14.372 I-0.28 J0.373
G2 X36.683 Y14.236 I-0.526 J0.702
G3 X36.064 Y13.734 I-0.142 J-0.458
G1 X36.081 Y13.555
X36.113 Y13.466
X36.275 Y13.141
X36.347 Y12.998
X36.396 Y12.93
X36.848 Y12.523
X37.397 Y12.31
X37.524 Y12.297
X38.026 Y12.298
X38.11 Y12.313
X38.667 Y12.532
X39.107 Y12.934
X39.164 Y13.018
X39.403 Y13.504
X39.419 Y13.549
X39.474 Y14.148
X39.301 Y14.755
X39.272 Y14.81
X38.917 Y15.274
X38.898 Y15.293
X38.388 Y15.608
X38.345 Y15.621
X37.808 Y15.722
X37.682 Y15.72
X37.121 Y15.611
X36.591 Y15.284
X36.556 Y15.245
X36.229 Y14.811
X36.189 Y14.736
X36.026 Y14.15
X36.064 Y13.734
G3 X36.214 Y13.656 I0.1 J0.009
G1 X37.031 Y14.129
G2 X37.172 Y14.001 I0.05 J-0.087
G3 X38.906 Y13.223 Z-2.852 I0.867 J-0.389
X37.172 Y14.001 Z-2.904 I-0.867 J0.389
X38.906 Y13.223 Z-2.956 I0.867 J-0.389
X37.469 Y14.372 Z-3 I-0.867 J0.389
X38.028 Y13.627 I0.28 J-0.373
X37.469 Y14.372 I-0.28 J0.373
G2 X36.683 Y14.236 I-0.526 J0.702
G3 X36.064 Y13.734 I-0.142 J-0.458
G1 X36.081 Y13.555
X36.113 Y13.466
X36.275 Y13.141
X36.347 Y12.998
X36.396 Y12.93
X36.848 Y12.523
X37.397 Y12.31
X37.524 Y12.297
X38.026 Y12.298
X38.11 Y12.313
X38.667 Y12.532
X39.107 Y12.934
X39.164 Y13.018
X39.403 Y13.504
X39.419 Y13.549
X39.474 Y14.148
X39.301 Y14.755
X39.272 Y14.81
X38.917 Y15.274
X38.898 Y15.293
X38.388 Y15.608
X38.345 Y15.621
X37.808 Y15.722
X37.682 Y15.72
X37.121 Y15.611
X36.591 Y15.284
X36.556 Y15.245
X36.229 Y14.811
X36.189 Y14.736
X36.026 Y14.15
X36.064 Y13.734
G3 X36.214 Y13.656 I0.1 J0.009
G1 X37.031 Y14.129
G2 X37.172 Y14.001 I0.05 J-0.087
G3 X38.906 Y13.223 Z-3.052 I0.867 J-0.389
X37.172 Y14.001 Z-3.104 I-0.867 J0.389
X38.906 Y13.223 Z-3.156 I0.867 J-0.389
X37.469 Y14.372 Z-3.2 I-0.867 J0.389
X38.028 Y13.627 I0.28 J-0.373
X37.469 Y14.372 I-0.28 J0.373
G2 X36.683 Y14.236 I-0.526 J0.702
G3 X36.064 Y13.734 I-0.142 J-0.458
G1 X36.081 Y13.555
X36.113 Y13.466
X36.275 Y13.141
X36.347 Y12.998
X36.396 Y12.93
X36.848 Y12.523
X37.397 Y12.31
X37.524 Y12.297
X38.026 Y12.298
X38.11 Y12.313
X38.667 Y12.532
X39.107 Y12.934
X39.164 Y13.018
X39.403 Y13.504
X39.419 Y13.549
X39.474 Y14.148
X39.301 Y14.755
X39.272 Y14.81
X38.917 Y15.274
X38.898 Y15.293
X38.388 Y15.608
X38.345 Y15.621
X37.808 Y15.722
X37.682 Y15.72
X37.121 Y15.611
X36.591 Y15.284
X36.556 Y15.245
X36.229 Y14.811
X36.189 Y14.736
X36.026 Y14.15
X36.064 Y13.734
G3 X36.214 Y13.656 I0.1 J0.009
G1 X37.031 Y14.129
G2 X37.172 Y14.001 I0.05 J-0.087
G3 X38.906 Y13.223 Z-3.252 I0.867 J-0.389
X37.172 Y14.001 Z-3.304 I-0.867 J0.389
X38.906 Y13.223 Z-3.356 I0.867 J-0.389
X37.469 Y14.372 Z-3.4 I-0.867 J0.389
X38.028 Y13.627 I0.28 J-0.373
X37.469 Y14.372 I-0.28 J0.373
G2 X36.683 Y14.236 I-0.526 J0.702
G3 X36.064 Y13.734 I-0.142 J-0.458
G1 X36.081 Y13.555
X36.113 Y13.466
X36.275 Y13.141
X36.347 Y12.998
X36.396 Y12.93
X36.848 Y12.523
X37.397 Y12.31
X37.524 Y12.297
X38.026 Y12.298
X38.11 Y12.313
X38.667 Y12.532
X39.107 Y12.934
X39.164 Y13.018
X39.403 Y13.504
X39.419 Y13.549
X39.474 Y14.148
X39.301 Y14.755
X39.272 Y14.81
X38.917 Y15.274
X38.898 Y15.293
X38.388 Y15.608
X38.345 Y15.621
X37.808 Y15.722
X37.682 Y15.72
X37.121 Y15.611
X36.591 Y15.284
X36.556 Y15.245
X36.229 Y14.811
X36.189 Y14.736
X36.026 Y14.15
X36.064 Y13.734
G3 X36.214 Y13.656 I0.1 J0.009
G1 X37.031 Y14.129
G2 X37.172 Y14.001 I0.05 J-0.087
G3 X38.906 Y13.223 Z-3.452 I0.867 J-0.389
X37.172 Y14.001 Z-3.504 I-0.867 J0.389
X38.906 Y13.223 Z-3.556 I0.867 J-0.389
X37.469 Y14.372 Z-3.6 I-0.867 J0.389
X38.028 Y13.627 I0.28 J-0.373
X37.469 Y14.372 I-0.28 J0.373
G2 X36.683 Y14.236 I-0.526 J0.702
G3 X36.064 Y13.734 I-0.142 J-0.458
G1 X36.081 Y13.555
X36.113 Y13.466
X36.275 Y13.141
X36.347 Y12.998
X36.396 Y12.93
X36.848 Y12.523
X37.397 Y12.31
X37.524 Y12.297
X38.026 Y12.298
X38.11 Y12.313
X38.667 Y12.532
X39.107 Y12.934
X39.164 Y13.018
X39.403 Y13.504
X39.419 Y13.549
X39.474 Y14.148
X39.301 Y14.755
X39.272 Y14.81
X38.917 Y15.274
X38.898 Y15.293
X38.388 Y15.608
X38.345 Y15.621
X37.808 Y15.722
X37.682 Y15.72
X37.121 Y15.611
X36.591 Y15.284
X36.556 Y15.245
X36.229 Y14.811
X36.189 Y14.736
X36.026 Y14.15
X36.064 Y13.734
G3 X36.214 Y13.656 I0.1 J0.009
G1 X37.031 Y14.129
G2 X37.172 Y14.001 I0.05 J-0.087
G3 X38.906 Y13.223 Z-3.652 I0.867 J-0.389
X37.172 Y14.001 Z-3.704 I-0.867 J0.389
X38.906 Y13.223 Z-3.756 I0.867 J-0.389
X37.469 Y14.372 Z-3.8 I-0.867 J0.389
X38.028 Y13.627 I0.28 J-0.373
X37.469 Y14.372 I-0.28 J0.373
G2 X36.683 Y14.236 I-0.526 J0.702
G3 X36.064 Y13.734 I-0.142 J-0.458
G1 X36.081 Y13.555
X36.113 Y13.466
X36.275 Y13.141
X36.347 Y12.998
X36.396 Y12.93
X36.848 Y12.523
X37.397 Y12.31
X37.524 Y12.297
X38.026 Y12.298
X38.11 Y12.313
X38.667 Y12.532
X39.107 Y12.934
X39.164 Y13.018
X39.403 Y13.504
X39.419 Y13.549
X39.474 Y14.148
X39.301 Y14.755
X39.272 Y14.81
X38.917 Y15.274
X38.898 Y15.293
X38.388 Y15.608
X38.345 Y15.621
X37.808 Y15.722
X37.682 Y15.72
X37.121 Y15.611
X36.591 Y15.284
X36.556 Y15.245
X36.229 Y14.811
X36.189 Y14.736
X36.026 Y14.15
X36.064 Y13.734
G3 X36.214 Y13.656 I0.1 J0.009
G1 X37.031 Y14.129
G2 X37.172 Y14.001 I0.05 J-0.087
G3 X38.906 Y13.223 Z-3.852 I0.867 J-0.389
X37.172 Y14.001 Z-3.904 I-0.867 J0.389
X38.906 Y13.223 Z-3.956 I0.867 J-0.389
X37.469 Y14.372 Z-4 I-0.867 J0.389
X38.028 Y13.627 I0.28 J-0.373
X37.469 Y14.372 I-0.28 J0.373
G2 X36.683 Y14.236 I-0.526 J0.702
G3 X36.064 Y13.734 I-0.142 J-0.458
G1 X36.081 Y13.555
X36.113 Y13.466
X36.275 Y13.141
X36.347 Y12.998
X36.396 Y12.93
X36.848 Y12.523
X37.397 Y12.31
X37.524 Y12.297
X38.026 Y12.298
X38.11 Y12.313
X38.667 Y12.532
X39.107 Y12.934
X39.164 Y13.018
X39.403 Y13.504
X39.419 Y13.549
X39.474 Y14.148
X39.301 Y14.755
X39.272 Y14.81
X38.917 Y15.274
X38.898 Y15.293
X38.388 Y15.608
X38.345 Y15.621
X37.808 Y15.722
X37.682 Y15.72
X37.121 Y15.611
X36.591 Y15.284
X36.556 Y15.245
X36.229 Y14.811
X36.189 Y14.736
X36.026 Y14.15
X36.064 Y13.734
G3 X36.186 Y13.66 I0.088 J0.008
G1 X36.585 Y13.822
X38.431 Y14.283
X38.578 Y14.331
G3 X38.587 Y14.39 I-0.01 J0.032
X37.496 Y12.835 Z-4.052 I-0.545 J-0.778
X38.587 Y14.39 Z-4.104 I0.545 J0.778
X37.471 Y14.372 Z-4.125 I-0.545 J-0.778
X38.03 Y13.627 I0.28 J-0.373
X37.471 Y14.372 I-0.28 J0.373
G2 X36.684 Y14.231 I-0.535 J0.713
G3 X36.068 Y13.721 I-0.137 J-0.462
G1 X36.072 Y13.674
X36.164 Y13.363
X36.274 Y13.144
X36.299 Y13.095
X36.477 Y12.86
X36.728 Y12.63
X37 Y12.464
X37.284 Y12.354
X37.586 Y12.298
X37.93 Y12.301
X38.234 Y12.362
X38.53 Y12.48
X38.785 Y12.639
X39.008 Y12.842
X39.21 Y13.112
X39.349 Y13.4
X39.433 Y13.708
X39.459 Y14.015
X39.429 Y14.321
X39.339 Y14.63
X39.203 Y14.902
X39.016 Y15.149
X38.769 Y15.372
X38.518 Y15.528
X38.199 Y15.648
X37.894 Y15.703
X37.589
X37.286 Y15.646
X36.972 Y15.521
X36.709 Y15.356
X36.504 Y15.169
X36.287 Y14.882
X36.161 Y14.63
X36.072 Y14.324
X36.042 Y13.978
X36.068 Y13.721
G3 X36.197 Y13.635 I0.099 J0.01
G1 X37.046 Y13.903
X38.443 Y14.289
X38.579 Y14.336
G3 X38.587 Y14.39 I-0.01 J0.029
X37.496 Y12.835 Z-4.177 I-0.545 J-0.778
X38.587 Y14.39 Z-4.229 I0.545 J0.778
X37.471 Y14.372 Z-4.25 I-0.545 J-0.778
X38.03 Y13.627 I0.28 J-0.373
X37.471 Y14.372 I-0.28 J0.373
G2 X36.684 Y14.231 I-0.535 J0.713
G3 X36.068 Y13.721 I-0.137 J-0.462
G1 X36.072 Y13.674
X36.164 Y13.363
X36.274 Y13.144
X36.299 Y13.095
X36.477 Y12.86
X36.728 Y12.63
X37 Y12.464
X37.284 Y12.354
X37.586 Y12.298
X37.93 Y12.301
X38.234 Y12.362
X38.53 Y12.48
X38.785 Y12.639
X39.008 Y12.842
X39.21 Y13.112
X39.349 Y13.4
X39.433 Y13.708
X39.459 Y14.015
X39.429 Y14.321
X39.339 Y14.63
X39.203 Y14.902
X39.016 Y15.149
X38.769 Y15.372
X38.518 Y15.528
X38.199 Y15.648
X37.894 Y15.703
X37.589
X37.286 Y15.646
X36.972 Y15.521
X36.709 Y15.356
X36.504 Y15.169
X36.287 Y14.882
X36.161 Y14.63
X36.072 Y14.324
X36.042 Y13.978
X36.068 Y13.721
G3 X36.09 Y13.648 Z-4.235 I0.199 J0.02
X36.129 Y13.596 Z-4.191 I0.177 J0.093
X36.163 Y13.57 Z-4.127 I0.138 J0.144
X36.176 Y13.562 Z-4.05 I0.104 J0.171
G0 Z5
X37.975 Y41.69
Z0.41
G3 X37.972 Y41.704 Z0.334 I-0.931 J-0.189 F600
X37.962 Y41.745 Z0.27 I-0.928 J-0.204
X37.944 Y41.806 Z0.226 I-0.918 J-0.245
X37.917 Y41.877 Z0.21 I-0.899 J-0.306
X36.172 Y41.124 Z0.158 I-0.872 J-0.377
X37.917 Y41.877 Z0.106 I0.872 J0.377
X36.172 Y41.124 Z0.054 I-0.872 J-0.377
X37.917 Y41.877 Z0.002 I0.872 J0.377
X36.172 Y41.124 Z-0.05 I-0.872 J-0.377
X37.917 Y41.877 Z-0.103 I0.872 J0.377
X36.172 Y41.124 Z-0.155 I-0.872 J-0.377
X37.994 Y41.5 Z-0.2 I0.872 J0.377
X37.505 I-0.245 J0
X39.894 I1.195 J0
X35.605 I-2.145 J0
X39.894 I2.145 J0
G2 X40.558 Y42.681 I1.382 J0
G3 X40.807 Y44.013 I-0.473 J0.777
G1 X40.781 Y44.046
X40.412 Y44.441
X40.008 Y44.754
X39.514 Y45.052
X39.051 Y45.241
X38.498 Y45.393
X38.029 Y45.453
X37.451 Y45.452
X36.985 Y45.391
X36.39 Y45.22
X35.969 Y45.044
X35.457 Y44.728
X35.111 Y44.463
X34.677 Y43.995
X34.401 Y43.629
X34.171 Y43.187
X33.963 Y42.697
X33.86 Y42.21
X33.78 Y41.658
X33.779 Y41.623
X33.819 Y41.044
X33.863 Y40.709
X33.88 Y40.583
X34.048 Y40.112
X34.254 Y39.6
X34.556 Y39.169
X34.878 Y38.743
X35.537 Y38.21
X35.728 Y38.068
X36.687 Y37.658
X36.709 Y37.653
X37.761 Y37.511
X38.813 Y37.658
X39.792 Y38.079
X40.087 Y38.306
X40.625 Y38.748
X41.047 Y39.316
X41.246 Y39.6
X41.452 Y40.112
X41.62 Y40.582
X41.681 Y41.044
X41.722 Y41.641
X41.663 Y42.095
X41.536 Y42.699
X41.351 Y43.143
X41.095 Y43.638
X40.807 Y44.013
G3 X40.665 Y44.03 I-0.079 J-0.061
G1 X39.386 Y42.989
X37.876 Y41.96
G3 X36.213 Y41.04 Z-0.252 I-0.831 J-0.46
X37.876 Y41.96 Z-0.304 I0.831 J0.46
X36.213 Y41.04 Z-0.356 I-0.831 J-0.46
X37.994 Y41.5 Z-0.4 I0.831 J0.46
X37.505 I-0.245 J0
X39.894 I1.195 J0
X35.605 I-2.145 J0
X39.894 I2.145 J0
G2 X40.558 Y42.681 I1.382 J0
G3 X40.807 Y44.013 I-0.473 J0.777
G1 X40.781 Y44.046
X40.412 Y44.441
X40.008 Y44.754
X39.514 Y45.052
X39.051 Y45.241
X38.498 Y45.393
X38.029 Y45.453
X37.451 Y45.452
X36.985 Y45.391
X36.39 Y45.22
X35.969 Y45.044
X35.457 Y44.728
X35.111 Y44.463
X34.677 Y43.995
X34.401 Y43.629
X34.171 Y43.187
X33.963 Y42.697
X33.86 Y42.21
X33.78 Y41.658
X33.779 Y41.623
X33.819 Y41.044
X33.863 Y40.709
X33.88 Y40.583
X34.048 Y40.112
X34.254 Y39.6
X34.556 Y39.169
X34.878 Y38.743
X35.537 Y38.21
X35.728 Y38.068
X36.687 Y37.658
X36.709 Y37.653
X37.761 Y37.511
X38.813 Y37.658
X39.792 Y38.079
X40.087 Y38.306
X40.625 Y38.748
X41.047 Y39.316
X41.246 Y39.6
X41.452 Y40.112
X41.62 Y40.582
X41.681 Y41.044
X41.722 Y41.641
X41.663 Y42.095
X41.536 Y42.699
X41.351 Y43.143
X41.095 Y43.638
X40.807 Y44.013
G3 X40.665 Y44.03 I-0.079 J-0.061
G1 X39.377 Y43.003
X37.776 Y41.96
G3 X36.113 Y41.04 Z-0.452 I-0.831 J-0.46
X37.776 Y41.96 Z-0.504 I0.831 J0.46
X36.113 Y41.04 Z-0.556 I-0.831 J-0.46
X37.895 Y41.5 Z-0.6 I0.831 J0.46
X37.603 I-0.146 J0
X39.795 I1.096 J0
X35.703 I-2.046 J0
X39.795 I2.046 J0
G2 X40.482 Y42.661 I1.324 J0
G3 X40.694 Y43.993 I-0.41 J0.748
G1 X40.196 Y44.524
X39.313 Y45.061
X39.168 Y45.105
X38.266 Y45.354
X37.216 Y45.353
X36.205 Y45.07
X35.309 Y44.527
X34.571 Y43.743
X34.088 Y42.811
X33.869 Y41.765
X33.944 Y40.7
X34.291 Y39.724
X34.904 Y38.848
X34.916 Y38.837
X35.738 Y38.172
X36.711 Y37.752
X37.749 Y37.61
X38.81 Y37.759
X39.784 Y38.186
X40.58 Y38.834
X41.21 Y39.725
X41.556 Y40.7
X41.631 Y41.755
X41.412 Y42.811
X40.924 Y43.748
X40.694 Y43.993
G3 X40.54 Y43.984 I-0.073 J-0.068
G1 X39.383 Y42.413
G2 X39.364 Y42.391 I-0.084 J0.054
G1 X37.943 Y41.163
G3 X37.921 Y41.039 I0.065 J-0.076
X39.583 Y41.959 Z-0.652 I0.831 J0.46
X37.921 Y41.039 Z-0.704 I-0.831 J-0.46
X39.583 Y41.959 Z-0.756 I0.831 J0.46
X37.802 Y41.499 Z-0.8 I-0.831 J-0.46
X39.599 I0.898 J0
X35.902 I-1.848 J0
X39.599 I1.848 J0
G2 X40.258 Y42.651 I1.335 J0
G3 X40.45 Y43.963 I-0.431 J0.734
G1 X40.08 Y44.362
X39.21 Y44.888
X38.256 Y45.155
X37.264 Y45.156
X36.272 Y44.88
X35.413 Y44.355
X34.738 Y43.632
X34.27 Y42.724
X34.069 Y41.754
X34.139 Y40.744
X34.19 Y40.599
X34.469 Y39.813
X35.05 Y38.985
X35.821 Y38.356
X36.751 Y37.948
X37.761 Y37.811
X38.749 Y37.948
X39.655 Y38.341
X40.447 Y38.981
X41.031 Y39.813
X41.361 Y40.744
X41.431 Y41.754
X41.23 Y42.724
X40.769 Y43.62
X40.45 Y43.963
G3 X40.291 Y43.947 I-0.073 J-0.068
G1 X39.353 Y42.406
G2 X39.333 Y42.376 I-0.092 J0.039
G1 X38.134 Y41.16
G3 X38.118 Y41.041 I0.071 J-0.07
X39.781 Y41.961 Z-0.852 I0.831 J0.46
X38.118 Y41.041 Z-0.904 I-0.831 J-0.46
X39.781 Y41.961 Z-0.956 I0.831 J0.46
X37.999 Y41.501 Z-1 I-0.831 J-0.46
X39.4 I0.7 J0
X36.099 I-1.65 J0
X39.4 I1.65 J0
G2 X40.034 Y42.642 I1.344 J0
G3 X40.204 Y43.937 I-0.446 J0.717
G1 X39.948 Y44.21
X39.143 Y44.7
X38.222 Y44.958
X37.26 Y44.954
X36.374 Y44.706
X36.257 Y44.64
X35.557 Y44.214
X34.906 Y43.521
X34.862 Y43.443
X34.458 Y42.653
X34.271 Y41.753
X34.334 Y40.787
X34.541 Y40.202
X34.648 Y39.902
X35.209 Y39.109
X35.931 Y38.522
X36.8 Y38.143
X37.762 Y38.011
X38.68 Y38.137
X39.577 Y38.528
X40.307 Y39.127
X40.852 Y39.901
X41.166 Y40.787
X41.229 Y41.753
X41.039 Y42.669
X40.602 Y43.513
X40.204 Y43.937
G3 X40.041 Y43.912 I-0.073 J-0.068
G1 X39.327 Y42.396
G2 X39.307 Y42.354 I-0.098 J0.021
G1 X38.326 Y41.151
G3 X38.316 Y41.04 I0.077 J-0.063
X39.978 Y41.959 Z-1.052 I0.831 J0.46
X38.316 Y41.04 Z-1.104 I-0.831 J-0.46
X39.978 Y41.959 Z-1.156 I0.831 J0.46
X38.197 Y41.499 Z-1.2 I-0.831 J-0.46
X39.201 I0.502 J0
X36.297 I-1.452 J0
X39.201 I1.452 J0
G2 X39.805 Y42.635 I1.369 J0
G3 X39.952 Y43.913 I-0.472 J0.702
G1 X39.816 Y44.059
X39.055 Y44.52
X38.212 Y44.756
X38.104 Y44.76
X37.304
X36.427 Y44.51
X35.664 Y44.043
X35.061 Y43.397
X34.648 Y42.592
X34.468 Y41.711
X34.528 Y40.831
X34.542 Y40.793
X34.828 Y39.987
X35.341 Y39.259
X36.046 Y38.686
X36.849 Y38.337
X37.02 Y38.31
X37.761 Y38.211
X38.636 Y38.331
X39.45 Y38.684
X39.481 Y38.706
X40.161 Y39.263
X40.672 Y39.986
X40.972 Y40.832
X41.032 Y41.711
X40.852 Y42.592
X40.446 Y43.382
X39.952 Y43.913
G3 X39.789 Y43.888 I-0.073 J-0.068
G1 X38.663 Y41.553
G3 X38.655 Y41.527 I0.09 J-0.043
G1 X38.586 Y41.137
X38.52 Y41.067
G3 X38.516 Y41.04 I0.016 J-0.016
X40.179 Y41.96 Z-1.252 I0.831 J0.46
X38.516 Y41.04 Z-1.304 I-0.831 J-0.46
X40.179 Y41.96 Z-1.356 I0.831 J0.46
X38.398 Y41.5 Z-1.4 I-0.831 J-0.46
X39.005 I0.304 J0
X36.498 I-1.254 J0
X39.005 I1.254 J0
G2 X39.585 Y42.625 I1.38 J0
G3 X39.707 Y43.884 I-0.486 J0.683
G1 X39.687 Y43.905
X38.968 Y44.338
X38.176 Y44.56
X37.346 Y44.562
X36.512 Y44.331
X35.795 Y43.893
X35.229 Y43.287
X34.843 Y42.545
X34.667 Y41.709
X34.724 Y40.875
X34.893 Y40.395
X35.006 Y40.078
X35.494 Y39.389
X36.134 Y38.867
X36.93 Y38.522
X37.76 Y38.411
X38.592 Y38.527
X39.346 Y38.855
X40.009 Y39.391
X40.494 Y40.078
X40.776 Y40.875
X40.833 Y41.709
X40.656 Y42.546
X40.283 Y43.267
X40.091 Y43.48
X39.707 Y43.884
G3 X39.639 Y43.867 I-0.029 J-0.028
G1 X39.588 Y43.684
X38.965 Y41.362
G2 X38.943 Y41.327 I-0.071 J0.019
G1 X38.728 Y41.131
G3 X38.713 Y41.041 I0.05 J-0.055
X40.376 Y41.96 Z-1.452 I0.831 J0.46
X38.713 Y41.041 Z-1.504 I-0.831 J-0.46
X40.376 Y41.96 Z-1.556 I0.831 J0.46
X38.594 Y41.5 Z-1.6 I-0.831 J-0.46
X38.806 I0.106 J0
X36.694 I-1.056 J0
X38.806 I1.056 J0
G2 X39.425 Y42.581 I1.252 J0
G3 X39.433 Y43.827 I-0.366 J0.625
G1 X38.889 Y44.155
X38.134 Y44.363
X37.348 Y44.361
X36.593 Y44.148
X35.94 Y43.751
X35.395 Y43.174
X35.024 Y42.458
X34.868 Y41.705
X34.92 Y40.912
X35.186 Y40.167
X35.63 Y39.538
X36.258 Y39.026
X36.974 Y38.716
X37.761 Y38.611
X38.523 Y38.716
X38.546 Y38.724
X39.256 Y39.034
X39.872 Y39.54
X40.314 Y40.166
X40.581 Y40.92
X40.633 Y41.692
X40.476 Y42.459
X40.104 Y43.174
X39.566 Y43.747
X39.433 Y43.827
G3 X39.287 Y43.774 I-0.052 J-0.086
G1 X38.671 Y41.977
G2 X38.489 Y41.961 I-0.095 J0.032
G3 X36.827 Y41.041 Z-1.652 I-0.831 J-0.46
X38.489 Y41.961 Z-1.704 I0.831 J0.46
X36.827 Y41.041 Z-1.756 I-0.831 J-0.46
X38.608 Y41.501 Z-1.8 I0.831 J0.46
X36.893 I-0.857 J0
X38.608 I0.857 J0
G2 X39.179 Y42.561 I1.269 J0
G3 X39.157 Y43.764 I-0.392 J0.595
G1 X38.834 Y43.96
X38.13 Y44.161
X37.389 Y44.165
X36.687 Y43.97
X36.055 Y43.588
X35.56 Y43.06
X35.219 Y42.409
X35.067 Y41.666
X35.115 Y40.962
X35.245 Y40.59
X35.365 Y40.256
X35.776 Y39.674
X35.807 Y39.644
X36.359 Y39.198
X37.019 Y38.912
X37.761 Y38.811
X38.462 Y38.907
X39.132 Y39.195
X39.721 Y39.67
X40.134 Y40.255
X40.385 Y40.964
X40.433 Y41.667
X40.285 Y42.402
X39.948 Y43.051
X39.433 Y43.596
X39.157 Y43.764
G3 X39.009 Y43.708 I-0.052 J-0.085
G1 X38.474 Y41.978
G2 X38.291 Y41.959 I-0.096 J0.03
G3 X36.628 Y41.04 Z-1.852 I-0.831 J-0.46
X38.291 Y41.959 Z-1.904 I0.831 J0.46
X36.628 Y41.04 Z-1.956 I-0.831 J-0.46
X38.41 Y41.499 Z-2 I0.831 J0.46
X37.091 I-0.66 J0
X38.41 I0.66 J0
G2 X38.933 Y42.538 I1.292 J0
G3 X38.881 Y43.699 I-0.417 J0.563
G1 X38.746 Y43.782
X38.088 Y43.967
X37.423
X37.358 Y43.953
X36.775 Y43.789
X36.174 Y43.427
X35.715 Y42.935
X35.402 Y42.327
X35.265 Y41.666
X35.272 Y41.567
X35.311 Y41.007
X35.537 Y40.359
X35.94 Y39.792
X36.443 Y39.382
X37.066 Y39.108
X37.751 Y39.01
X38.417 Y39.101
X39.035 Y39.368
X39.574 Y39.805
X39.951 Y40.34
X40.189 Y40.994
X40.235 Y41.666
X40.098 Y42.327
X39.79 Y42.927
X39.324 Y43.429
X38.881 Y43.699
G3 X38.733 Y43.641 I-0.052 J-0.085
G1 X38.276 Y41.981
G2 X38.092 Y41.96 I-0.096 J0.027
G3 X36.429 Y41.04 Z-2.052 I-0.831 J-0.46
X38.092 Y41.96 Z-2.104 I0.831 J0.46
X36.429 Y41.04 Z-2.156 I-0.831 J-0.46
X38.211 Y41.5 Z-2.2 I0.831 J0.46
X37.288 I-0.461 J0
X38.211 I0.461 J0
G2 X38.565 Y42.627 I1.969 J0
G3 X38.163 Y43.737 I-0.593 J0.414
G1 X38.046 Y43.769
X37.435 Y43.768
X36.837 Y43.601
X36.318 Y43.285
X36.159 Y43.121
X35.88 Y42.822
X35.6 Y42.283
X35.467 Y41.663
X35.507 Y41.048
X35.596 Y40.783
X35.725 Y40.435
X36.087 Y39.928
X36.571 Y39.538
X37.148 Y39.292
X37.76 Y39.211
X38.371 Y39.296
X38.949 Y39.55
X39.412 Y39.927
X39.778 Y40.438
X39.988 Y41.02
X40.033 Y41.665
X39.901 Y42.28
X39.62 Y42.822
X39.201 Y43.271
X38.66 Y43.601
X38.163 Y43.737
G3 X38.041 Y43.671 I-0.026 J-0.096
G1 X37.297 Y41.339
G3 X39.03 Y40.561 Z-2.252 I0.867 J-0.389
X37.297 Y41.339 Z-2.304 I-0.867 J0.389
X39.03 Y40.561 Z-2.356 I0.867 J-0.389
X37.594 Y41.71 Z-2.4 I-0.867 J0.389
X37.909 Y41.29 I0.158 J-0.21
X37.594 Y41.71 I-0.158 J0.21
G2 X36.549 Y41.508 I-0.73 J0.973
G3 X35.827 Y40.727 I-0.156 J-0.581
G1 X35.892 Y40.542
X35.898 Y40.532
X36.218 Y40.079
X36.66 Y39.717
X37.193 Y39.486
X37.759 Y39.411
X38.327 Y39.493
X38.82 Y39.707
X39.278 Y40.074
X39.6 Y40.529
X39.797 Y41.075
X39.836 Y41.643
X39.721 Y42.194
X39.465 Y42.692
X39.068 Y43.123
X38.591 Y43.413
X38.043 Y43.569
X37.477 Y43.571
X36.916 Y43.417
X36.443 Y43.129
X36.034 Y42.69
X35.779 Y42.194
X35.667 Y41.657
X35.671 Y41.549
X35.702 Y41.088
X35.738 Y40.977
X35.827 Y40.727
G3 X35.972 Y40.674 I0.094 J0.033
G1 X37.012 Y41.294
X38.109 Y41.821
G3 X38.153 Y41.959 I-0.043 J0.09
X36.491 Y41.039 Z-2.452 I-0.831 J-0.46
X38.153 Y41.959 Z-2.504 I0.831 J0.46
X36.491 Y41.039 Z-2.556 I-0.831 J-0.46
X38.272 Y41.499 Z-2.6 I0.831 J0.46
X37.228 I-0.522 J0
X38.272 I0.522 J0
G2 X38.671 Y42.278 I0.96 J0
G3 X38.637 Y43.153 I-0.307 J0.426
G1 X38.51 Y43.23
X38.488 Y43.238
X37.996 Y43.373
X37.48 Y43.37
X36.996 Y43.234
X36.558 Y42.967
X36.204 Y42.588
X35.975 Y42.145
X35.864 Y41.621
X35.899 Y41.115
X36.067 Y40.643
X36.115 Y40.568
X36.363 Y40.217
X36.768 Y39.884
X37.238 Y39.68
X37.761 Y39.611
X38.248 Y39.678
X38.73 Y39.884
X39.14 Y40.221
X39.424 Y40.624
X39.435 Y40.649
X39.595 Y41.099
X39.636 Y41.623
X39.533 Y42.126
X39.285 Y42.6
X38.929 Y42.975
X38.637 Y43.153
G3 X38.487 Y43.085 I-0.052 J-0.085
G1 X38.283 Y41.991
G2 X38.097 Y41.961 I-0.098 J0.018
G3 X36.435 Y41.041 Z-2.652 I-0.831 J-0.46
X38.097 Y41.961 Z-2.704 I0.831 J0.46
X36.435 Y41.041 Z-2.756 I-0.831 J-0.46
X38.216 Y41.501 Z-2.8 I0.831 J0.46
X37.284 I-0.466 J0
X38.216 I0.466 J0
G2 X38.577 Y42.212 I0.881 J0
G3 X38.547 Y43.01 I-0.284 J0.388
G1 X38.388 Y43.108
X38.345 Y43.121
X37.808 Y43.222
X37.682 Y43.22
X37.12 Y43.111
X36.604 Y42.794
X36.558 Y42.748
X36.221 Y42.296
X36.186 Y42.226
X36.026 Y41.654
X36.081 Y41.057
X36.112 Y40.969
X36.276 Y40.64
X36.344 Y40.502
X36.381 Y40.45
X36.837 Y40.028
X37.397 Y39.81
X37.524 Y39.797
X38.026 Y39.798
X38.111 Y39.813
X38.662 Y40.027
X39.097 Y40.423
X39.158 Y40.508
X39.404 Y41.007
X39.419 Y41.052
X39.474 Y41.654
X39.314 Y42.225
X39.27 Y42.313
X38.912 Y42.781
X38.903 Y42.789
X38.547 Y43.01
G3 X38.401 Y42.96 I-0.053 J-0.085
G1 X37.985 Y41.847
G2 X37.923 Y41.787 I-0.094 J0.034
G1 X37.233 Y41.557
G3 X37.173 Y41.503 I0.032 J-0.095
X38.907 Y40.725 Z-2.852 I0.867 J-0.389
X37.173 Y41.503 Z-2.904 I-0.867 J0.389
X38.907 Y40.725 Z-2.956 I0.867 J-0.389
X37.47 Y41.874 Z-3 I-0.867 J0.389
X38.03 Y41.128 I0.28 J-0.373
X37.47 Y41.874 I-0.28 J0.373
G2 X36.684 Y41.737 I-0.527 J0.703
G3 X36.064 Y41.234 I-0.141 J-0.459
G1 X36.081 Y41.057
X36.112 Y40.969
X36.276 Y40.64
X36.344 Y40.502
X36.381 Y40.45
X36.837 Y40.028
X37.397 Y39.81
X37.524 Y39.797
X38.026 Y39.798
X38.111 Y39.813
X38.662 Y40.027
X39.097 Y40.423
X39.158 Y40.508
X39.404 Y41.007
X39.419 Y41.052
X39.474 Y41.654
X39.314 Y42.225
X39.27 Y42.313
X38.912 Y42.781
X38.903 Y42.789
X38.388 Y43.108
X38.345 Y43.121
X37.808 Y43.222
X37.682 Y43.22
X37.12 Y43.111
X36.604 Y42.794
X36.558 Y42.748
X36.221 Y42.296
X36.186 Y42.226
X36.026 Y41.654
X36.064 Y41.234
G3 X36.214 Y41.157 I0.1 J0.009
G1 X37.032 Y41.63
G2 X37.173 Y41.503 I0.05 J-0.087
G3 X38.907 Y40.725 Z-3.052 I0.867 J-0.389
X37.173 Y41.503 Z-3.104 I-0.867 J0.389
X38.907 Y40.725 Z-3.156 I0.867 J-0.389
X37.47 Y41.874 Z-3.2 I-0.867 J0.389
X38.03 Y41.128 I0.28 J-0.373
X37.47 Y41.874 I-0.28 J0.373
G2 X36.684 Y41.737 I-0.527 J0.703
G3 X36.064 Y41.234 I-0.141 J-0.459
G1 X36.081 Y41.057
X36.112 Y40.969
X36.276 Y40.64
X36.344 Y40.502
X36.381 Y40.45
X36.837 Y40.028
X37.397 Y39.81
X37.524 Y39.797
X38.026 Y39.798
X38.111 Y39.813
X38.662 Y40.027
X39.097 Y40.423
X39.158 Y40.508
X39.404 Y41.007
X39.419 Y41.052
X39.474 Y41.654
X39.314 Y42.225
X39.27 Y42.313
X38.912 Y42.781
X38.903 Y42.789
X38.388 Y43.108
X38.345 Y43.121
X37.808 Y43.222
X37.682 Y43.22
X37.12 Y43.111
X36.604 Y42.794
X36.558 Y42.748
X36.221 Y42.296
X36.186 Y42.226
X36.026 Y41.654
X36.064 Y41.234
G3 X36.199 Y41.149 I0.1 J0.009
G1 X37.114 Y41.49
X38.043 Y41.818
G3 X38.097 Y41.961 I-0.033 J0.094
X36.435 Y41.041 Z-3.252 I-0.831 J-0.46
X38.097 Y41.961 Z-3.304 I0.831 J0.46
X36.435 Y41.041 Z-3.356 I-0.831 J-0.46
X38.216 Y41.501 Z-3.4 I0.831 J0.46
X37.284 I-0.466 J0
X38.216 I0.466 J0
G2 X38.577 Y42.212 I0.881 J0
G3 X38.547 Y43.01 I-0.284 J0.388
G1 X38.388 Y43.108
X38.345 Y43.121
X37.808 Y43.222
X37.682 Y43.22
X37.12 Y43.111
X36.604 Y42.794
X36.558 Y42.748
X36.221 Y42.296
X36.186 Y42.226
X36.026 Y41.654
X36.081 Y41.057
X36.112 Y40.969
X36.276 Y40.64
X36.344 Y40.502
X36.381 Y40.45
X36.837 Y40.028
X37.397 Y39.81
X37.524 Y39.797
X38.026 Y39.798
X38.111 Y39.813
X38.662 Y40.027
X39.097 Y40.423
X39.158 Y40.508
X39.404 Y41.007
X39.419 Y41.052
X39.474 Y41.654
X39.314 Y42.225
X39.27 Y42.313
X38.912 Y42.781
X38.903 Y42.789
X38.547 Y43.01
G3 X38.395 Y42.936 I-0.053 J-0.085
G1 X38.284 Y41.997
G2 X38.097 Y41.961 I-0.099 J0.012
G3 X36.435 Y41.041 Z-3.452 I-0.831 J-0.46
X38.097 Y41.961 Z-3.504 I0.831 J0.46
X36.435 Y41.041 Z-3.556 I-0.831 J-0.46
X38.216 Y41.501 Z-3.6 I0.831 J0.46
X37.284 I-0.466 J0
X38.216 I0.466 J0
G2 X38.577 Y42.212 I0.881 J0
G3 X38.547 Y43.01 I-0.284 J0.388
G1 X38.388 Y43.108
X38.345 Y43.121
X37.808 Y43.222
X37.682 Y43.22
X37.12 Y43.111
X36.604 Y42.794
X36.558 Y42.748
X36.221 Y42.296
X36.186 Y42.226
X36.026 Y41.654
X36.081 Y41.057
X36.112 Y40.969
X36.276 Y40.64
X36.344 Y40.502
X36.381 Y40.45
X36.837 Y40.028
X37.397 Y39.81
X37.524 Y39.797
X38.026 Y39.798
X38.111 Y39.813
X38.662 Y40.027
X39.097 Y40.423
X39.158 Y40.508
X39.404 Y41.007
X39.419 Y41.052
X39.474 Y41.654
X39.314 Y42.225
X39.27 Y42.313
X38.912 Y42.781
X38.903 Y42.789
X38.547 Y43.01
G3 X38.401 Y42.96 I-0.053 J-0.085
G1 X37.985 Y41.847
G2 X37.923 Y41.787 I-0.094 J0.034
G1 X37.233 Y41.557
G3 X37.173 Y41.503 I0.032 J-0.095
X38.907 Y40.725 Z-3.652 I0.867 J-0.389
X37.173 Y41.503 Z-3.704 I-0.867 J0.389
X38.907 Y40.725 Z-3.756 I0.867 J-0.389
X37.47 Y41.874 Z-3.8 I-0.867 J0.389
X38.03 Y41.128 I0.28 J-0.373
X37.47 Y41.874 I-0.28 J0.373
G2 X36.684 Y41.737 I-0.527 J0.703
G3 X36.064 Y41.234 I-0.141 J-0.459
G1 X36.081 Y41.057
X36.112 Y40.969
X36.276 Y40.64
X36.344 Y40.502
X36.381 Y40.45
X36.837 Y40.028
X37.397 Y39.81
X37.524 Y39.797
X38.026 Y39.798
X38.111 Y39.813
X38.662 Y40.027
X39.097 Y40.423
X39.158 Y40.508
X39.404 Y41.007
X39.419 Y41.052
X39.474 Y41.654
X39.314 Y42.225
X39.27 Y42.313
X38.912 Y42.781
X38.903 Y42.789
X38.388 Y43.108
X38.345 Y43.121
X37.808 Y43.222
X37.682 Y43.22
X37.12 Y43.111
X36.604 Y42.794
X36.558 Y42.748
X36.221 Y42.296
X36.186 Y42.226
X36.026 Y41.654
X36.064 Y41.234
G3 X36.214 Y41.157 I0.1 J0.009
G1 X37.032 Y41.63
G2 X37.173 Y41.503 I0.05 J-0.087
G3 X38.907 Y40.725 Z-3.852 I0.867 J-0.389
X37.173 Y41.503 Z-3.904 I-0.867 J0.389
X38.907 Y40.725 Z-3.956 I0.867 J-0.389
X37.47 Y41.874 Z-4 I-0.867 J0.389
X38.03 Y41.128 I0.28 J-0.373
X37.47 Y41.874 I-0.28 J0.373
G2 X36.684 Y41.737 I-0.527 J0.703
G3 X36.064 Y41.234 I-0.141 J-0.459
G1 X36.081 Y41.057
X36.112 Y40.969
X36.276 Y40.64
X36.344 Y40.502
X36.381 Y40.45
X36.837 Y40.028
X37.397 Y39.81
X37.524 Y39.797
X38.026 Y39.798
X38.111 Y39.813
X38.662 Y40.027
X39.097 Y40.423
X39.158 Y40.508
X39.404 Y41.007
X39.419 Y41.052
X39.474 Y41.654
X39.314 Y42.225
X39.27 Y42.313
X38.912 Y42.781
X38.903 Y42.789
X38.388 Y43.108
X38.345 Y43.121
X37.808 Y43.222
X37.682 Y43.22
X37.12 Y43.111
X36.604 Y42.794
X36.558 Y42.748
X36.221 Y42.296
X36.186 Y42.226
X36.026 Y41.654
X36.064 Y41.234
G3 X36.198 Y41.149 I0.1 J0.009
G1 X36.759 Y41.351
X38.383 Y41.752
X38.574 Y41.813
G3 X38.586 Y41.89 I-0.013 J0.042
X37.495 Y40.335 Z-4.052 I-0.545 J-0.778
X38.586 Y41.89 Z-4.104 I0.545 J0.778
X37.47 Y41.873 Z-4.125 I-0.545 J-0.778
X38.029 Y41.127 I0.28 J-0.373
X37.47 Y41.873 I-0.28 J0.373
G2 X36.683 Y41.729 I-0.537 J0.716
G3 X36.067 Y41.219 I-0.135 J-0.464
G1 X36.071 Y41.178
X36.162 Y40.868
X36.272 Y40.647
X36.301 Y40.593
X36.502 Y40.333
X36.709 Y40.144
X36.997 Y39.965
X37.284 Y39.854
X37.586 Y39.798
X37.93 Y39.801
X38.237 Y39.862
X38.514 Y39.97
X38.769 Y40.127
X39.016 Y40.351
X39.2 Y40.594
X39.352 Y40.908
X39.428 Y41.173
X39.458 Y41.521
X39.428 Y41.825
X39.337 Y42.133
X39.197 Y42.41
X39.01 Y42.656
X38.787 Y42.86
X38.508 Y43.032
X38.2 Y43.148
X37.894 Y43.203
X37.589
X37.287 Y43.146
X36.967 Y43.018
X36.729 Y42.871
X36.476 Y42.64
X36.302 Y42.409
X36.15 Y42.098
X36.067 Y41.79
X36.041 Y41.483
X36.067 Y41.219
G3 X36.199 Y41.133 I0.1 J0.01
G1 X36.924 Y41.376
X38.442 Y41.79
X38.578 Y41.836
G3 X38.586 Y41.89 I-0.01 J0.029
X37.495 Y40.335 Z-4.177 I-0.545 J-0.778
X38.586 Y41.89 Z-4.229 I0.545 J0.778
X37.47 Y41.873 Z-4.25 I-0.545 J-0.778
X38.029 Y41.127 I0.28 J-0.373
X37.47 Y41.873 I-0.28 J0.373
G2 X36.683 Y41.729 I-0.537 J0.716
G3 X36.067 Y41.219 I-0.135 J-0.464
G1 X36.071 Y41.178
X36.162 Y40.868
X36.272 Y40.647
X36.301 Y40.593
X36.502 Y40.333
X36.709 Y40.144
X36.997 Y39.965
X37.284 Y39.854
X37.586 Y39.798
X37.93 Y39.801
X38.237 Y39.862
X38.514 Y39.97
X38.769 Y40.127
X39.016 Y40.351
X39.2 Y40.594
X39.352 Y40.908
X39.428 Y41.173
X39.458 Y41.521
X39.428 Y41.825
X39.337 Y42.133
X39.197 Y42.41
X39.01 Y42.656
X38.787 Y42.86
X38.508 Y43.032
X38.2 Y43.148
X37.894 Y43.203
X37.589
X37.287 Y43.146
X36.967 Y43.018
X36.729 Y42.871
X36.476 Y42.64
X36.302 Y42.409
X36.15 Y42.098
X36.067 Y41.79
X36.041 Y41.483
X36.067 Y41.219
G3 X36.089 Y41.146 Z-4.235 I0.199 J0.02
X36.128 Y41.094 Z-4.191 I0.177 J0.092
X36.162 Y41.067 Z-4.127 I0.139 J0.144
X36.175 Y41.06 Z-4.05 I0.104 J0.171
G0 Z15

M9
M30
