(ADAPTIVE1)
(T49  D=4 CR=0 TAPER=45DEG - ZMIN=-0.25 - CHAMFER MILL)
G90 G94 G91.1 G40 G49 G17
G21

(4MM CHAMFER LOGO)
M5
M9
T49
(4 FLUTE FISH)
S20000 M3
G54
M8
G0 X49.417 Y44.417
G43 Z15 H26
Z5
G1 Z-0.25 F300
X42.75 Y37.75
X32.75
X39.417 Y44.417
X49.417
Z5
G0 X42.75 Y31.083
G1 Z-0.25 F300
X19.417
X32.75 Y44.417
X22.75
X9.417 Y31.083
Y24.417
X32.75
X26.083 Y17.75
X12.75
X6.083 Y11.083
X29.417
X42.75 Y24.417
Y31.083
Z5
G0 Z15

M9
M30
