(ADAPTIVE1)
(T49  D=4 CR=0 TAPER=45DEG - ZMIN=-0.25 - CHAMFER MILL)
G90 G94 G91.1 G40 G49 G17
G21

(4MM CHAMFER OUTSIDE 1)
M5
M9
T49
(4 FLUTE FISH)
S20000 M3
G54
M8
G0 X27.75 Y0
G43 Z15 H26
Z5
G1 Z-0.25 F150
X28.803 Y0.02
X29.855 Y0.08
X30.904 Y0.18
X31.948 Y0.319
X32.986 Y0.499
X34.017 Y0.717
X35.039 Y0.974
X36.05 Y1.27
X37.049 Y1.604
X38.035 Y1.976
X39.005 Y2.385
X39.96 Y2.831
X40.897 Y3.312
X41.815 Y3.829
X42.713 Y4.38
X43.59 Y4.965
X44.443 Y5.582
X45.272 Y6.232
X46.076 Y6.912
X46.854 Y7.623
X47.604 Y8.363
X48.326 Y9.13
X49.018 Y9.925
X49.679 Y10.745
X50.309 Y11.59
X50.906 Y12.458
X51.47 Y13.347
X51.999 Y14.258
X52.494 Y15.188
X52.953 Y16.137
X53.376 Y17.102
X53.761 Y18.082
X54.11 Y19.076
X54.42 Y20.083
X54.692 Y21.101
X54.925 Y22.128
X55.118 Y23.164
X55.273 Y24.206
X55.388 Y25.253
X55.462 Y26.304
X55.497 Y27.357
X55.492 Y28.411
X55.447 Y29.463
X55.362 Y30.513
X55.237 Y31.559
X55.073 Y32.6
X54.869 Y33.634
X54.626 Y34.659
X54.345 Y35.674
X54.025 Y36.678
X53.667 Y37.669
X53.272 Y38.645
X52.84 Y39.606
X52.372 Y40.55
X51.868 Y41.475
X51.33 Y42.381
X50.757 Y43.265
X50.152 Y44.127
X49.514 Y44.966
X48.845 Y45.78
X48.145 Y46.568
X47.416 Y47.328
X46.659 Y48.06
X45.874 Y48.764
X45.064 Y49.436
X44.228 Y50.078
X43.369 Y50.687
X42.487 Y51.264
X41.584 Y51.806
X40.66 Y52.314
X39.719 Y52.786
X38.76 Y53.222
X37.785 Y53.622
X36.796 Y53.984
X35.793 Y54.309
X34.78 Y54.595
X33.756 Y54.842
X32.723 Y55.051
X31.683 Y55.22
X30.638 Y55.349
X29.588 Y55.439
X28.535 Y55.489
X27.482 Y55.499
X26.429 Y55.468
X25.378 Y55.398
X24.33 Y55.288
X23.287 Y55.139
X22.251 Y54.95
X21.222 Y54.721
X20.203 Y54.454
X19.195 Y54.148
X18.199 Y53.805
X17.217 Y53.423
X16.25 Y53.005
X15.3 Y52.55
X14.367 Y52.06
X13.454 Y51.534
X12.562 Y50.975
X11.691 Y50.381
X10.844 Y49.756
X10.021 Y49.098
X9.223 Y48.41
X8.452 Y47.691
X7.709 Y46.944
X6.995 Y46.17
X6.311 Y45.369
X5.658 Y44.542
X5.036 Y43.692
X4.447 Y42.818
X3.892 Y41.923
X3.371 Y41.007
X2.886 Y40.072
X2.436 Y39.119
X2.023 Y38.15
X1.646 Y37.166
X1.308 Y36.169
X1.007 Y35.159
X0.745 Y34.138
X0.522 Y33.109
X0.339 Y32.071
X0.194 Y31.028
X0.09 Y29.979
X0.025 Y28.928
X0 Y27.875
X0.016 Y26.821
X0.071 Y25.769
X0.166 Y24.72
X0.301 Y23.675
X0.475 Y22.636
X0.689 Y21.605
X0.942 Y20.582
X1.233 Y19.569
X1.563 Y18.569
X1.93 Y17.581
X2.335 Y16.609
X2.776 Y15.652
X3.253 Y14.713
X3.766 Y13.792
X4.313 Y12.892
X4.894 Y12.013
X5.507 Y11.157
X6.153 Y10.325
X6.83 Y9.517
X7.537 Y8.736
X8.274 Y7.983
X9.038 Y7.258
X9.829 Y6.562
X10.647 Y5.897
X11.488 Y5.264
X12.354 Y4.663
X13.241 Y4.095
X14.149 Y3.561
X15.077 Y3.063
X16.024 Y2.599
X16.987 Y2.172
X17.965 Y1.782
X18.958 Y1.43
X19.963 Y1.115
X20.98 Y0.838
X22.006 Y0.601
X23.041 Y0.402
X24.083 Y0.243
X25.129 Y0.124
X26.18 Y0.044
X27.233 Y0.005
X27.75 Y0
Z5
G0 Z15

M9
M30
