(ADAPTIVE1)
(T56  D=2 CR=0 - ZMIN=-4.25 - FLAT END MILL)
G90 G94 G91.1 G40 G49 G17
G21

(2MM FLAT OUTSIDE CONTOUR)
M5
M9
T56
(1 FLUTE FISH)
S20000 M3
G54
M8
G0 X-1 Y27.75
G43 Z15 H1
Z5
G1 Z2 F50
Z0.1
G2 X56.5 Z0 I28.75 J0 F600
X-1 Z-0.1 I-28.75 J0
X56.5 Z-0.2 I28.75 J0
X-1 Z-0.3 I-28.75 J0
X56.5 Z-0.4 I28.75 J0
X-1 Z-0.5 I-28.75 J0
X56.5 Z-0.6 I28.75 J0
X-1 Z-0.7 I-28.75 J0
X56.5 Z-0.8 I28.75 J0
X-1 Z-0.9 I-28.75 J0
X56.5 Z-1 I28.75 J0
X-1 Z-1.1 I-28.75 J0
X56.5 Z-1.2 I28.75 J0
X-1 Z-1.3 I-28.75 J0
X56.5 Z-1.4 I28.75 J0
X-1 Z-1.5 I-28.75 J0
X56.5 Z-1.6 I28.75 J0
X-1 Z-1.7 I-28.75 J0
X56.5 Z-1.8 I28.75 J0
X-1 Z-1.9 I-28.75 J0
X56.5 Z-2 I28.75 J0
X-1 Z-2.1 I-28.75 J0
X56.5 Z-2.2 I28.75 J0
X-1 Z-2.3 I-28.75 J0
X56.5 Z-2.4 I28.75 J0
X-1 Z-2.5 I-28.75 J0
X56.5 Z-2.6 I28.75 J0
X-1 Z-2.7 I-28.75 J0
X56.5 Z-2.8 I28.75 J0
X-1 Z-2.9 I-28.75 J0
X56.5 Z-3 I28.75 J0
X-1 Z-3.1 I-28.75 J0
X56.5 Z-3.2 I28.75 J0
X-1 Z-3.3 I-28.75 J0
X56.5 Z-3.4 I28.75 J0
X-1 Z-3.5 I-28.75 J0
X56.5 Z-3.6 I28.75 J0
X-1 Z-3.7 I-28.75 J0
X56.5 Z-3.8 I28.75 J0
X-1 Z-3.9 I-28.75 J0
X56.5 Z-4 I28.75 J0
X-1 Z-4.1 I-28.75 J0
X56.5 Z-4.2 I28.75 J0
X27.75 Y-1 Z-4.25 I-28.75 J0
Y56.5 I0 J28.75
Y-1 I0 J-28.75
G0 Z15

M9
M30
